; generated by Slic3r 1.3.0 on 2021-06-20 at 17:46:39

; external perimeters extrusion width = 0.55mm (3.04mm^3/s)
; perimeters extrusion width = 0.70mm (7.88mm^3/s)
; infill extrusion width = 0.62mm (9.31mm^3/s)
; solid infill extrusion width = 0.70mm (2.63mm^3/s)
; top infill extrusion width = 0.70mm (1.97mm^3/s)
; support material extrusion width = 0.55mm (6.08mm^3/s)

M107
M190 S60 ; set bed temperature and wait for it to be reached
M104 S200 ; set temperature
G28 ; home all axes
G1 Z5 F5000 ; lift nozzle

; Filament gcode

M109 S200 ; set temperature and wait for it to be reached
G21 ; set units to millimeters
G90 ; use absolute coordinates
M82 ; use absolute distances for extrusion
G92 E0
G1 Z0.350 F7800.000
G1 E-2.00000 F2400.00000
G92 E0
G1 X79.964 Y78.256 F7800.000
G1 E2.00000 F2400.00000
G1 F1800
G1 X80.521 Y77.745 E2.06878
G1 X83.173 Y75.576 E2.38024
G1 X83.785 Y75.132 E2.44902
G1 X86.666 Y73.280 E2.76049
G1 X87.325 Y72.908 E2.82927
G1 X90.399 Y71.397 E3.14073
G1 X91.096 Y71.102 E3.20951
G1 X94.322 Y69.951 E3.52098
G1 X95.048 Y69.738 E3.58976
G1 X98.384 Y68.962 E3.90122
G1 X99.129 Y68.833 E3.97000
G1 X102.532 Y68.443 E4.28146
G1 X103.287 Y68.400 E4.35025
G1 X106.713 Y68.400 E4.66171
G1 X107.468 Y68.443 E4.73049
G1 X110.871 Y68.833 E5.04195
G1 X111.908 Y69.030 E5.13795
G1 X114.952 Y69.738 E5.42217
G1 X115.678 Y69.951 E5.49095
G1 X118.904 Y71.102 E5.80241
G1 X119.601 Y71.397 E5.87119
G1 X122.675 Y72.908 E6.18265
G1 X123.334 Y73.280 E6.25143
G1 X126.215 Y75.132 E6.56290
G1 X126.827 Y75.576 E6.63168
G1 X129.479 Y77.745 E6.94314
G1 X130.245 Y78.471 E7.03914
G1 X132.423 Y80.713 E7.32335
G1 X132.919 Y81.284 E7.39213
G1 X135.010 Y83.997 E7.70360
G1 X135.437 Y84.621 E7.77238
G1 X137.206 Y87.554 E8.08384
G1 X137.559 Y88.223 E8.15262
G1 X138.982 Y91.339 E8.46409
G1 X139.257 Y92.044 E8.53287
G1 X140.315 Y95.302 E8.84433
G1 X140.507 Y96.033 E8.91311
G1 X141.188 Y99.390 E9.22457
G1 X141.295 Y100.139 E9.29336
G1 X141.588 Y103.552 E9.60482
G1 X141.610 Y104.308 E9.67360
G1 X141.512 Y107.732 E9.98507
G1 X141.447 Y108.486 E10.05384
G1 X140.960 Y111.876 E10.36531
G1 X140.810 Y112.617 E10.43409
G1 X139.939 Y115.930 E10.74555
G1 X139.705 Y116.650 E10.81433
G1 X138.462 Y119.842 E11.12580
G1 X138.148 Y120.530 E11.19457
G1 X136.550 Y123.559 E11.50604
G1 X136.159 Y124.207 E11.57482
G1 X134.226 Y127.034 E11.88628
G1 X133.568 Y127.860 E11.98228
G1 X131.521 Y130.222 E12.26650
G1 X130.994 Y130.764 E12.33528
G1 X128.470 Y133.081 E12.64674
G1 X127.884 Y133.559 E12.71552
G1 X125.113 Y135.573 E13.02698
G1 X124.477 Y135.982 E13.09576
G1 X121.494 Y137.666 E13.40723
G1 X120.539 Y138.117 E13.50323
G1 X117.660 Y139.333 E13.78744
G1 X116.948 Y139.587 E13.85622
G1 X113.661 Y140.552 E14.16768
G1 X112.925 Y140.724 E14.23646
G1 X109.549 Y141.308 E14.54793
G1 X108.798 Y141.394 E14.61671
G1 X105.378 Y141.590 E14.92817
G1 X104.622 Y141.590 E14.99695
G1 X101.202 Y141.394 E15.30842
G1 X100.451 Y141.308 E15.37720
G1 X97.075 Y140.724 E15.68866
G1 X96.339 Y140.552 E15.75744
G1 X93.052 Y139.587 E16.06891
G1 X92.340 Y139.333 E16.13769
G1 X89.184 Y138.000 E16.44915
G1 X88.506 Y137.666 E16.51793
G1 X85.523 Y135.982 E16.82939
G1 X84.887 Y135.573 E16.89817
G1 X82.116 Y133.559 E17.20964
G1 X81.530 Y133.081 E17.27842
G1 X79.006 Y130.764 E17.58988
G1 X78.479 Y130.222 E17.65866
G1 X76.236 Y127.633 E17.97013
G1 X75.774 Y127.034 E18.03891
G1 X74.010 Y124.454 E18.32312
G1 X73.450 Y123.559 E18.41912
G1 X71.852 Y120.530 E18.73058
G1 X71.538 Y119.842 E18.79936
G1 X70.295 Y116.650 E19.11083
G1 X70.061 Y115.930 E19.17960
G1 X69.190 Y112.617 E19.49107
G1 X69.040 Y111.876 E19.55985
G1 X68.553 Y108.486 E19.87131
G1 X68.488 Y107.732 E19.94009
G1 X68.390 Y104.308 E20.25156
G1 X68.412 Y103.552 E20.32034
G1 X68.705 Y100.139 E20.63180
G1 X68.812 Y99.390 E20.70058
G1 X69.433 Y96.327 E20.98479
G1 X69.685 Y95.302 E21.08079
G1 X70.743 Y92.044 E21.39226
G1 X71.018 Y91.339 E21.46104
G1 X72.441 Y88.223 E21.77250
G1 X72.794 Y87.554 E21.84128
G1 X74.563 Y84.621 E22.15275
G1 X74.990 Y83.997 E22.22153
G1 X77.081 Y81.284 E22.53299
G1 X77.577 Y80.713 E22.60177
G1 X79.912 Y78.310 E22.90642
G1 E20.90642 F2400.00000
G92 E0
G1 X81.759 Y80.001 F7800.000
G1 E2.00000 F2400.00000
G1 F1800
G1 X82.014 Y79.757 E2.03212
G1 X84.848 Y77.439 E2.36505
G1 X85.039 Y77.301 E2.38647
G1 X88.119 Y75.322 E2.71941
G1 X88.324 Y75.206 E2.74083
G1 X91.609 Y73.591 E3.07377
G1 X91.826 Y73.499 E3.09519
G1 X95.274 Y72.269 E3.42812
G1 X95.500 Y72.203 E3.44954
G1 X99.065 Y71.373 E3.78248
G1 X99.297 Y71.333 E3.80390
G1 X102.934 Y70.916 E4.13684
G1 X103.170 Y70.902 E4.15825
G1 X106.830 Y70.902 E4.49119
G1 X107.066 Y70.916 E4.51261
G1 X110.703 Y71.333 E4.84555
G1 X110.935 Y71.373 E4.86697
G1 X114.500 Y72.203 E5.19990
G1 X114.726 Y72.269 E5.22132
G1 X118.174 Y73.499 E5.55426
G1 X118.391 Y73.591 E5.57568
G1 X121.302 Y75.022 E5.87065
G1 X121.881 Y75.322 E5.93001
G1 X124.961 Y77.301 E6.26295
G1 X125.152 Y77.439 E6.28437
G1 X127.986 Y79.757 E6.61731
G1 X128.159 Y79.916 E6.63873
G1 X130.711 Y82.541 E6.97166
G1 X130.865 Y82.719 E6.99308
G1 X133.100 Y85.618 E7.32602
G1 X133.233 Y85.813 E7.34744
G1 X135.124 Y88.948 E7.68038
G1 X135.234 Y89.156 E7.70179
G1 X136.754 Y92.486 E8.03473
G1 X136.840 Y92.706 E8.05615
G1 X137.971 Y96.187 E8.38909
G1 X138.031 Y96.415 E8.41051
G1 X138.758 Y100.003 E8.74345
G1 X138.791 Y100.236 E8.76487
G1 X139.105 Y103.883 E9.09780
G1 X139.111 Y104.119 E9.11922
G1 X139.007 Y107.778 E9.45216
G1 X138.987 Y108.013 E9.47358
G1 X138.466 Y111.636 E9.80651
G1 X138.419 Y111.867 E9.82793
G1 X137.488 Y115.408 E10.16087
G1 X137.416 Y115.632 E10.18229
G1 X136.087 Y119.043 E10.51523
G1 X135.990 Y119.257 E10.53664
G1 X134.281 Y122.495 E10.86958
G1 X134.160 Y122.697 E10.89100
G1 X132.093 Y125.719 E11.22394
G1 X131.676 Y126.221 E11.28330
G1 X129.552 Y128.672 E11.57827
G1 X129.388 Y128.841 E11.59969
G1 X126.691 Y131.316 E11.93263
G1 X126.508 Y131.465 E11.95405
G1 X123.547 Y133.617 E12.28699
G1 X123.349 Y133.744 E12.30840
G1 X120.161 Y135.545 E12.64134
G1 X119.565 Y135.811 E12.70071
G1 X116.578 Y137.074 E12.99568
G1 X116.356 Y137.153 E13.01709
G1 X112.843 Y138.184 E13.35003
G1 X112.614 Y138.237 E13.37145
G1 X109.007 Y138.862 E13.70439
G1 X108.773 Y138.889 E13.72581
G1 X105.118 Y139.098 E14.05875
G1 X104.882 Y139.098 E14.08017
G1 X101.227 Y138.889 E14.41310
G1 X100.993 Y138.862 E14.43452
G1 X97.386 Y138.237 E14.76746
G1 X97.157 Y138.184 E14.78888
G1 X93.644 Y137.153 E15.12181
G1 X93.422 Y137.074 E15.14323
G1 X90.050 Y135.648 E15.47617
G1 X89.839 Y135.545 E15.49759
G1 X86.651 Y133.744 E15.83053
G1 X86.453 Y133.617 E15.85195
G1 X83.492 Y131.465 E16.18488
G1 X83.309 Y131.316 E16.20630
G1 X80.612 Y128.841 E16.53924
G1 X80.448 Y128.672 E16.56066
G1 X78.051 Y125.905 E16.89360
G1 X77.907 Y125.719 E16.91501
G1 X76.076 Y123.041 E17.20998
G1 X75.719 Y122.495 E17.26935
G1 X74.010 Y119.257 E17.60229
G1 X73.913 Y119.043 E17.62371
G1 X72.584 Y115.632 E17.95664
G1 X72.512 Y115.408 E17.97806
G1 X71.581 Y111.867 E18.31100
G1 X71.534 Y111.636 E18.33242
G1 X71.013 Y108.013 E18.66535
G1 X70.993 Y107.778 E18.68677
G1 X70.889 Y104.119 E19.01971
G1 X70.895 Y103.883 E19.04113
G1 X71.209 Y100.236 E19.37407
G1 X71.242 Y100.003 E19.39549
G1 X71.886 Y96.824 E19.69046
G1 X72.029 Y96.187 E19.74982
G1 X73.160 Y92.706 E20.08276
G1 X73.246 Y92.486 E20.10418
G1 X74.766 Y89.156 E20.43711
G1 X74.876 Y88.948 E20.45853
G1 X76.767 Y85.813 E20.79147
G1 X76.900 Y85.618 E20.81289
G1 X79.135 Y82.719 E21.14583
G1 X79.289 Y82.541 E21.16725
G1 X81.706 Y80.054 E21.48265
G1 X82.207 Y80.436 F7800.000
G1 F1800
G1 X82.424 Y80.229 E21.50990
G1 X85.392 Y77.817 E21.85773
G1 X88.441 Y75.857 E22.18742
G1 X91.869 Y74.160 E22.53526
G1 X95.659 Y72.807 E22.90123
G1 X99.386 Y71.952 E23.24906
G1 X103.187 Y71.527 E23.59689
G1 X107.012 Y71.539 E23.94473
G1 X110.810 Y71.986 E24.29256
G1 X114.341 Y72.807 E24.62225
G1 X117.947 Y74.082 E24.97008
G1 X121.559 Y75.857 E25.33606
G1 X124.770 Y77.935 E25.68389
G1 X127.723 Y80.364 E26.03172
G1 X130.250 Y82.964 E26.36141
G1 X132.594 Y85.986 E26.70925
G1 X134.579 Y89.255 E27.05708
G1 X136.178 Y92.729 E27.40491
G1 X137.422 Y96.557 E27.77088
G1 X138.170 Y100.307 E28.11872
G1 X138.486 Y104.119 E28.46655
G1 X138.366 Y107.942 E28.81438
G1 X137.810 Y111.726 E29.16221
G1 X136.888 Y115.232 E29.49190
G1 X135.511 Y118.800 E29.83974
G1 X133.737 Y122.188 E30.18757
G1 X131.587 Y125.351 E30.53540
G1 X128.952 Y128.392 E30.90138
G1 X126.281 Y130.844 E31.23107
G1 X123.194 Y133.101 E31.57890
G1 X119.869 Y134.992 E31.92673
G1 X119.322 Y135.235 E31.98123
G1 X116.163 Y136.558 E32.29272
G1 X112.490 Y137.625 E32.64055
G1 X108.719 Y138.266 E32.98838
G1 X105.100 Y138.473 E33.31807
G1 X101.281 Y138.266 E33.66591
G1 X97.510 Y137.625 E34.01374
G1 X93.649 Y136.491 E34.37971
G1 X90.131 Y134.992 E34.72755
G1 X86.806 Y133.101 E35.07538
G1 X83.719 Y130.844 E35.42321
G1 X81.048 Y128.392 E35.75290
G1 X78.535 Y125.510 E36.10073
G1 X76.592 Y122.689 E36.41222
G1 X76.263 Y122.188 E36.46672
G1 X74.489 Y118.800 E36.81455
G1 X73.173 Y115.422 E37.14424
G1 X72.190 Y111.726 E37.49207
G1 X71.634 Y107.942 E37.83991
G1 X71.514 Y104.119 E38.18774
G1 X71.830 Y100.307 E38.53557
G1 X72.499 Y96.948 E38.84706
G1 X72.629 Y96.363 E38.90156
G1 X73.822 Y92.729 E39.24939
G1 X75.328 Y89.432 E39.57908
G1 X77.293 Y86.151 E39.92691
G1 X79.619 Y83.115 E40.27475
G1 X82.155 Y80.490 E40.60667
G1 X82.655 Y80.872 F7800.000
G1 F1800
G1 X82.833 Y80.702 E40.62905
G1 X85.745 Y78.333 E40.97039
G1 X88.764 Y76.393 E41.29683
G1 X92.128 Y74.728 E41.63818
G1 X95.818 Y73.412 E41.99442
G1 X99.475 Y72.571 E42.33576
G1 X103.205 Y72.152 E42.67710
G1 X106.959 Y72.162 E43.01844
G1 X110.686 Y72.599 E43.35979
G1 X114.340 Y73.458 E43.70113
G1 X117.721 Y74.664 E44.02757
G1 X121.236 Y76.393 E44.38381
G1 X124.388 Y78.430 E44.72516
G1 X127.288 Y80.813 E45.06650
G1 X129.789 Y83.387 E45.39294
G1 X132.089 Y86.353 E45.73428
G1 X134.035 Y89.563 E46.07562
G1 X135.602 Y92.973 E46.41697
G1 X136.813 Y96.698 E46.77321
G1 X137.549 Y100.379 E47.11455
G1 X137.861 Y104.119 E47.45589
G1 X137.758 Y107.707 E47.78234
G1 X137.234 Y111.423 E48.12368
G1 X136.288 Y115.056 E48.46502
G1 X134.935 Y118.556 E48.80636
G1 X133.192 Y121.880 E49.14770
G1 X131.082 Y124.984 E49.48905
G1 X128.516 Y127.944 E49.84529
G1 X125.872 Y130.371 E50.17173
G1 X122.841 Y132.585 E50.51307
G1 X119.577 Y134.439 E50.85442
G1 X119.079 Y134.660 E50.90404
G1 X115.969 Y135.963 E51.21066
G1 X112.365 Y137.012 E51.55201
G1 X108.829 Y137.624 E51.87845
G1 X105.082 Y137.848 E52.21979
G1 X101.334 Y137.643 E52.56113
G1 X97.635 Y137.012 E52.90248
G1 X93.876 Y135.908 E53.25872
G1 X90.570 Y134.511 E53.58516
G1 X87.297 Y132.674 E53.92650
G1 X84.255 Y130.475 E54.26784
G1 X81.484 Y127.944 E54.60919
G1 X79.019 Y125.114 E54.95053
G1 X77.108 Y122.336 E55.25715
G1 X76.808 Y121.880 E55.30678
G1 X75.065 Y118.556 E55.64812
G1 X73.712 Y115.056 E55.98946
G1 X72.799 Y111.584 E56.31591
G1 X72.256 Y107.870 E56.65725
G1 X72.139 Y104.119 E56.99859
G1 X72.451 Y100.379 E57.33993
G1 X73.111 Y97.072 E57.64656
G1 X73.229 Y96.540 E57.69618
G1 X74.398 Y92.973 E58.03752
G1 X75.889 Y89.708 E58.36397
G1 X77.819 Y86.489 E58.70531
G1 X80.103 Y83.511 E59.04665
G1 X82.603 Y80.925 E59.37371
G1 X83.103 Y81.307 F7800.000
G1 F1800
G1 X83.243 Y81.174 E59.39122
G1 X86.098 Y78.849 E59.72607
G1 X89.087 Y76.928 E60.04927
G1 X92.388 Y75.297 E60.38412
G1 X95.977 Y74.017 E60.73063
G1 X99.564 Y73.190 E61.06548
G1 X103.223 Y72.777 E61.40033
G1 X106.905 Y72.785 E61.73518
G1 X110.562 Y73.212 E62.07003
G1 X114.147 Y74.053 E62.40489
G1 X117.494 Y75.247 E62.72808
G1 X120.913 Y76.928 E63.07459
G1 X124.006 Y78.925 E63.40944
G1 X126.852 Y81.261 E63.74429
G1 X129.413 Y83.907 E64.07915
G1 X131.583 Y86.721 E64.40234
G1 X133.490 Y89.870 E64.73719
G1 X135.027 Y93.216 E65.07205
G1 X136.204 Y96.840 E65.41855
G1 X136.928 Y100.450 E65.75341
G1 X137.236 Y104.119 E66.08826
G1 X137.123 Y107.799 E66.42311
G1 X136.592 Y111.442 E66.75796
G1 X135.649 Y115.001 E67.09281
G1 X134.360 Y118.313 E67.41601
G1 X132.648 Y121.573 E67.75086
G1 X130.576 Y124.616 E68.08571
G1 X128.081 Y127.496 E68.43222
G1 X125.462 Y129.899 E68.75542
G1 X122.488 Y132.069 E69.09027
G1 X119.286 Y133.886 E69.42512
G1 X118.835 Y134.084 E69.46988
G1 X115.776 Y135.369 E69.77163
G1 X112.241 Y136.399 E70.10649
G1 X108.740 Y137.005 E70.42968
G1 X105.064 Y137.223 E70.76453
G1 X101.388 Y137.020 E71.09939
G1 X97.759 Y136.399 E71.43424
G1 X94.103 Y135.326 E71.78075
G1 X90.714 Y133.886 E72.11560
G1 X87.512 Y132.069 E72.45045
G1 X84.538 Y129.899 E72.78530
G1 X81.919 Y127.496 E73.10850
G1 X79.503 Y124.718 E73.44335
G1 X77.624 Y121.983 E73.74511
G1 X77.352 Y121.573 E73.78986
G1 X75.640 Y118.313 E74.12472
G1 X74.311 Y114.879 E74.45957
G1 X73.408 Y111.442 E74.78276
G1 X72.877 Y107.799 E75.11761
G1 X72.764 Y104.119 E75.45247
G1 X73.072 Y100.450 E75.78732
G1 X73.724 Y97.197 E76.08907
G1 X73.829 Y96.716 E76.13383
G1 X74.973 Y93.216 E76.46868
G1 X76.510 Y89.870 E76.80354
G1 X78.345 Y86.827 E77.12673
G1 X80.587 Y83.907 E77.46158
G1 X83.051 Y81.361 E77.78378
G1 X83.552 Y81.743 F7800.000
G1 F1800
G1 X86.451 Y79.366 E78.12474
G1 X89.410 Y77.464 E78.44469
G1 X92.648 Y75.866 E78.77305
G1 X96.136 Y74.621 E79.10982
G1 X99.653 Y73.809 E79.43819
G1 X103.241 Y73.402 E79.76655
G1 X106.852 Y73.408 E80.09491
G1 X110.438 Y73.825 E80.42327
G1 X113.864 Y74.621 E80.74322
G1 X117.267 Y75.830 E81.07158
G1 X120.590 Y77.464 E81.40836
G1 X123.624 Y79.420 E81.73672
G1 X126.416 Y81.710 E82.06508
G1 X128.929 Y84.303 E82.39344
G1 X131.129 Y87.165 E82.72180
G1 X132.946 Y90.178 E83.04175
G1 X134.451 Y93.460 E83.37011
G1 X135.595 Y96.981 E83.70689
G1 X136.307 Y100.521 E84.03525
G1 X136.610 Y104.119 E84.36361
G1 X136.510 Y107.635 E84.68356
G1 X136.001 Y111.210 E85.01192
G1 X135.089 Y114.703 E85.34028
G1 X133.784 Y118.070 E85.66864
G1 X132.103 Y121.265 E85.99701
G1 X130.070 Y124.249 E86.32537
G1 X127.645 Y127.047 E86.66214
G1 X125.053 Y129.426 E86.98209
G1 X122.135 Y131.553 E87.31045
G1 X118.994 Y133.333 E87.63881
G1 X118.592 Y133.508 E87.67870
G1 X115.583 Y134.774 E87.97559
G1 X112.117 Y135.786 E88.30396
G1 X108.559 Y136.397 E88.63232
G1 X105.046 Y136.598 E88.95226
G1 X101.441 Y136.397 E89.28063
G1 X97.883 Y135.786 E89.60899
G1 X94.330 Y134.743 E89.94576
G1 X91.089 Y133.373 E90.26571
G1 X87.943 Y131.603 E90.59407
G1 X85.019 Y129.485 E90.92243
G1 X82.355 Y127.047 E91.25080
G1 X79.987 Y124.322 E91.57916
G1 X78.140 Y121.630 E91.87605
G1 X77.897 Y121.265 E91.91594
G1 X76.216 Y118.070 E92.24430
G1 X74.911 Y114.703 E92.57266
G1 X73.999 Y111.210 E92.90102
G1 X73.498 Y107.728 E93.22097
G1 X73.390 Y104.119 E93.54933
G1 X73.693 Y100.521 E93.87769
G1 X74.336 Y97.321 E94.17458
G1 X74.429 Y96.892 E94.21447
G1 X75.549 Y93.460 E94.54283
G1 X77.011 Y90.260 E94.86278
G1 X78.871 Y87.165 E95.19114
G1 X81.071 Y84.303 E95.51951
G1 X83.499 Y81.797 E95.83683
G1 X84.000 Y82.178 F7800.000
G1 F1800
G1 X86.803 Y79.882 E96.16645
G1 X89.733 Y77.999 E96.48315
G1 X92.908 Y76.435 E96.80502
G1 X96.294 Y75.226 E97.13206
G1 X99.742 Y74.428 E97.45394
G1 X103.259 Y74.027 E97.77581
G1 X106.798 Y74.031 E98.09768
G1 X110.314 Y74.437 E98.41955
G1 X113.706 Y75.226 E98.73625
G1 X117.040 Y76.412 E99.05812
G1 X120.267 Y77.999 E99.38517
G1 X123.243 Y79.915 E99.70704
G1 X125.980 Y82.158 E100.02891
G1 X128.445 Y84.698 E100.35078
G1 X130.603 Y87.503 E100.67265
G1 X132.401 Y90.485 E100.98935
G1 X133.875 Y93.703 E101.31122
G1 X134.986 Y97.123 E101.63827
G1 X135.686 Y100.592 E101.96014
G1 X135.985 Y104.119 E102.28201
G1 X135.881 Y107.656 E102.60388
G1 X135.385 Y111.103 E102.92058
G1 X134.489 Y114.527 E103.24245
G1 X133.208 Y117.826 E103.56432
G1 X131.559 Y120.958 E103.88620
G1 X129.564 Y123.881 E104.20807
G1 X127.209 Y126.599 E104.53511
G1 X124.644 Y128.954 E104.85181
G1 X121.782 Y131.036 E105.17368
G1 X118.702 Y132.780 E105.49555
G1 X118.349 Y132.933 E105.53057
G1 X115.390 Y134.179 E105.82260
G1 X111.993 Y135.173 E106.14447
G1 X108.562 Y135.767 E106.46117
G1 X105.028 Y135.973 E106.78304
G1 X101.495 Y135.774 E107.10491
G1 X98.007 Y135.173 E107.42678
G1 X94.557 Y134.160 E107.75383
G1 X91.349 Y132.805 E108.07053
G1 X88.266 Y131.067 E108.39240
G1 X85.401 Y128.990 E108.71427
