; generated by Slic3r 1.3.0 on 2021-06-19 at 14:09:07

; external perimeters extrusion width = 0.55mm (3.04mm^3/s)
; perimeters extrusion width = 0.70mm (7.88mm^3/s)
; infill extrusion width = 0.62mm (9.31mm^3/s)
; solid infill extrusion width = 0.70mm (2.63mm^3/s)
; top infill extrusion width = 0.70mm (1.97mm^3/s)
; support material extrusion width = 0.55mm (6.08mm^3/s)

M107
M190 S60 ; set bed temperature and wait for it to be reached
M104 S200 ; set temperature
G28 ; home all axes
G1 Z5 F5000 ; lift nozzle

; Filament gcode

M109 S200 ; set temperature and wait for it to be reached
G21 ; set units to millimeters
G90 ; use absolute coordinates
M82 ; use absolute distances for extrusion
G92 E0
G1 Z0.350 F7800.000
G1 E-2.00000 F2400.00000
G92 E0
G1 X79.964 Y78.256 F7800.000
G1 E2.00000 F2400.00000
G1 F1800
G1 X80.521 Y77.745 E2.06878
G1 X80.985 Y77.365 E2.12329
G1 X83.173 Y75.576 E2.38024
G1 X83.785 Y75.132 E2.44902
G1 X86.666 Y73.280 E2.76049
G1 X87.325 Y72.908 E2.82927
G1 X90.399 Y71.397 E3.14073
G1 X91.096 Y71.102 E3.20951
G1 X94.322 Y69.951 E3.52098
G1 X95.048 Y69.738 E3.58976
G1 X98.384 Y68.962 E3.90122
G1 X99.129 Y68.833 E3.97000
G1 X102.532 Y68.443 E4.28147
G1 X103.287 Y68.400 E4.35025
G1 X106.713 Y68.400 E4.66171
G1 X107.468 Y68.443 E4.73049
G1 X110.871 Y68.833 E5.04195
G1 X111.616 Y68.962 E5.11073
G1 X112.200 Y69.098 E5.16524
G1 X114.952 Y69.738 E5.42220
G1 X115.678 Y69.951 E5.49098
G1 X118.904 Y71.102 E5.80244
G1 X119.601 Y71.397 E5.87122
G1 X122.675 Y72.908 E6.18269
G1 X123.334 Y73.280 E6.25146
G1 X126.215 Y75.132 E6.56293
G1 X126.827 Y75.576 E6.63171
G1 X129.479 Y77.745 E6.94317
G1 X130.036 Y78.256 E7.01195
G1 X130.454 Y78.686 E7.06646
G1 X132.423 Y80.713 E7.32342
G1 X132.919 Y81.284 E7.39220
G1 X135.010 Y83.997 E7.70366
G1 X135.437 Y84.621 E7.77244
G1 X137.206 Y87.554 E8.08391
G1 X137.559 Y88.223 E8.15269
G1 X138.982 Y91.339 E8.46415
G1 X139.257 Y92.044 E8.53293
G1 X140.315 Y95.302 E8.84439
G1 X140.507 Y96.033 E8.91317
G1 X141.188 Y99.390 E9.22464
G1 X141.295 Y100.139 E9.29342
G1 X141.588 Y103.552 E9.60488
G1 X141.610 Y104.308 E9.67366
G1 X141.512 Y107.732 E9.98513
G1 X141.447 Y108.486 E10.05391
G1 X140.960 Y111.876 E10.36537
G1 X140.810 Y112.617 E10.43415
G1 X139.939 Y115.930 E10.74561
G1 X139.705 Y116.650 E10.81440
G1 X138.462 Y119.842 E11.12586
G1 X138.148 Y120.530 E11.19464
G1 X136.550 Y123.559 E11.50610
G1 X136.159 Y124.207 E11.57488
G1 X135.821 Y124.702 E11.62939
G1 X134.226 Y127.034 E11.88635
G1 X133.764 Y127.633 E11.95513
G1 X131.521 Y130.222 E12.26659
G1 X130.994 Y130.764 E12.33537
G1 X128.470 Y133.081 E12.64683
G1 X127.884 Y133.559 E12.71562
G1 X125.113 Y135.573 E13.02708
G1 X124.477 Y135.982 E13.09586
G1 X121.494 Y137.666 E13.40732
G1 X120.816 Y138.000 E13.47610
G1 X117.660 Y139.333 E13.78757
G1 X116.948 Y139.587 E13.85635
G1 X116.373 Y139.756 E13.91085
G1 X113.661 Y140.552 E14.16781
G1 X112.925 Y140.724 E14.23659
G1 X109.549 Y141.308 E14.54806
G1 X108.798 Y141.394 E14.61684
G1 X105.378 Y141.590 E14.92830
G1 X104.622 Y141.590 E14.99708
G1 X101.202 Y141.394 E15.30854
G1 X100.451 Y141.308 E15.37732
G1 X97.075 Y140.724 E15.68879
G1 X96.339 Y140.552 E15.75757
G1 X93.052 Y139.587 E16.06903
G1 X92.340 Y139.333 E16.13781
G1 X89.184 Y138.000 E16.44928
G1 X88.506 Y137.666 E16.51806
G1 X85.523 Y135.982 E16.82952
G1 X84.887 Y135.573 E16.89830
G1 X82.116 Y133.559 E17.20976
G1 X81.530 Y133.081 E17.27854
G1 X79.006 Y130.764 E17.59001
G1 X78.479 Y130.222 E17.65879
G1 X76.236 Y127.633 E17.97025
G1 X75.774 Y127.034 E18.03903
G1 X73.841 Y124.207 E18.35050
G1 X73.450 Y123.559 E18.41928
G1 X71.852 Y120.530 E18.73074
G1 X71.538 Y119.842 E18.79952
G1 X70.295 Y116.650 E19.11099
G1 X70.061 Y115.930 E19.17977
G1 X69.190 Y112.617 E19.49123
G1 X69.040 Y111.876 E19.56001
G1 X68.553 Y108.486 E19.87147
G1 X68.488 Y107.732 E19.94025
G1 X68.390 Y104.308 E20.25172
G1 X68.412 Y103.552 E20.32050
G1 X68.705 Y100.139 E20.63196
G1 X68.812 Y99.390 E20.70074
G1 X68.931 Y98.803 E20.75525
G1 X69.493 Y96.033 E21.01221
G1 X69.685 Y95.302 E21.08099
G1 X70.743 Y92.044 E21.39245
G1 X71.018 Y91.339 E21.46123
G1 X72.441 Y88.223 E21.77269
G1 X72.794 Y87.554 E21.84147
G1 X74.563 Y84.621 E22.15294
G1 X74.990 Y83.997 E22.22172
G1 X77.081 Y81.284 E22.53318
G1 X77.577 Y80.713 E22.60196
G1 X79.912 Y78.310 E22.90661
G1 E20.90661 F2400.00000
G92 E0
G1 X81.759 Y80.001 F7800.000
G1 E2.00000 F2400.00000
G1 F1800
G1 X82.014 Y79.757 E2.03212
G1 X84.848 Y77.439 E2.36505
G1 X85.039 Y77.301 E2.38647
G1 X88.119 Y75.322 E2.71941
G1 X88.324 Y75.206 E2.74083
G1 X91.609 Y73.591 E3.07377
G1 X91.826 Y73.499 E3.09518
G1 X95.274 Y72.269 E3.42812
G1 X95.500 Y72.203 E3.44954
G1 X99.065 Y71.373 E3.78248
G1 X99.297 Y71.333 E3.80390
G1 X102.934 Y70.916 E4.13684
G1 X103.170 Y70.902 E4.15825
G1 X106.830 Y70.902 E4.49119
G1 X107.066 Y70.916 E4.51261
G1 X110.703 Y71.333 E4.84555
G1 X110.935 Y71.373 E4.86697
G1 X114.500 Y72.203 E5.19990
G1 X114.726 Y72.269 E5.22132
G1 X118.174 Y73.499 E5.55426
G1 X118.391 Y73.591 E5.57568
G1 X121.676 Y75.206 E5.90862
G1 X122.485 Y75.710 E5.99523
G1 X125.152 Y77.439 E6.28433
G1 X127.986 Y79.757 E6.61727
G1 X128.159 Y79.916 E6.63869
G1 X130.711 Y82.541 E6.97163
G1 X130.865 Y82.719 E6.99305
G1 X133.100 Y85.618 E7.32598
G1 X133.233 Y85.813 E7.34740
G1 X135.124 Y88.948 E7.68034
G1 X135.234 Y89.156 E7.70176
G1 X136.754 Y92.486 E8.03470
G1 X136.840 Y92.706 E8.05611
G1 X137.971 Y96.187 E8.38905
G1 X138.031 Y96.415 E8.41047
G1 X138.758 Y100.003 E8.74341
G1 X138.791 Y100.236 E8.76483
G1 X139.105 Y103.883 E9.09777
G1 X139.111 Y104.119 E9.11918
G1 X139.007 Y107.778 E9.45212
G1 X138.987 Y108.013 E9.47354
G1 X138.466 Y111.636 E9.80648
G1 X138.419 Y111.867 E9.82790
G1 X137.488 Y115.408 E10.16083
G1 X137.416 Y115.632 E10.18225
G1 X136.087 Y119.043 E10.51519
G1 X135.990 Y119.257 E10.53661
G1 X134.281 Y122.495 E10.86955
G1 X133.755 Y123.289 E10.95616
G1 X131.949 Y125.905 E11.24526
G1 X129.552 Y128.672 E11.57820
G1 X129.388 Y128.841 E11.59962
G1 X126.691 Y131.316 E11.93256
G1 X126.508 Y131.465 E11.95398
G1 X123.547 Y133.617 E12.28691
G1 X123.349 Y133.744 E12.30833
G1 X120.161 Y135.545 E12.64127
G1 X119.950 Y135.649 E12.66269
G1 X116.578 Y137.074 E12.99563
G1 X115.668 Y137.355 E13.08224
G1 X112.614 Y138.237 E13.37134
G1 X109.007 Y138.862 E13.70428
G1 X108.773 Y138.889 E13.72570
G1 X105.118 Y139.098 E14.05864
G1 X104.882 Y139.098 E14.08006
G1 X101.227 Y138.889 E14.41299
G1 X100.993 Y138.862 E14.43441
G1 X97.386 Y138.237 E14.76735
G1 X97.157 Y138.184 E14.78877
G1 X93.644 Y137.153 E15.12171
G1 X92.762 Y136.794 E15.20832
G1 X89.839 Y135.545 E15.49742
G1 X86.651 Y133.744 E15.83036
G1 X86.453 Y133.617 E15.85178
G1 X83.492 Y131.465 E16.18471
G1 X83.309 Y131.316 E16.20613
G1 X80.612 Y128.841 E16.53907
G1 X80.448 Y128.672 E16.56049
G1 X78.051 Y125.905 E16.89343
G1 X77.907 Y125.719 E16.91485
G1 X75.840 Y122.697 E17.24778
G1 X75.719 Y122.495 E17.26920
G1 X74.010 Y119.257 E17.60214
G1 X73.913 Y119.043 E17.62356
G1 X72.584 Y115.632 E17.95650
G1 X72.512 Y115.408 E17.97792
G1 X71.581 Y111.867 E18.31085
G1 X71.534 Y111.636 E18.33227
G1 X71.013 Y108.013 E18.66521
G1 X70.993 Y107.778 E18.68663
G1 X70.889 Y104.119 E19.01957
G1 X70.895 Y103.883 E19.04098
G1 X71.209 Y100.236 E19.37392
G1 X71.385 Y99.300 E19.46054
G1 X72.029 Y96.187 E19.74964
G1 X73.160 Y92.706 E20.08258
G1 X73.246 Y92.486 E20.10399
G1 X74.766 Y89.156 E20.43693
G1 X74.876 Y88.948 E20.45835
G1 X76.767 Y85.813 E20.79129
G1 X76.900 Y85.618 E20.81271
G1 X79.135 Y82.719 E21.14565
G1 X79.289 Y82.541 E21.16706
G1 X81.706 Y80.054 E21.48247
G1 X82.207 Y80.436 F7800.000
G1 F1800
G1 X82.424 Y80.229 E21.50972
G1 X85.392 Y77.817 E21.85755
G1 X88.615 Y75.759 E22.20538
G1 X91.869 Y74.160 E22.53507
G1 X95.467 Y72.864 E22.88291
G1 X99.190 Y71.986 E23.23074
G1 X103.187 Y71.527 E23.59671
G1 X107.012 Y71.539 E23.94455
G1 X110.810 Y71.986 E24.29238
G1 X114.341 Y72.807 E24.62207
G1 X117.947 Y74.082 E24.96990
G1 X121.559 Y75.857 E25.33587
G1 X124.770 Y77.935 E25.68371
G1 X127.723 Y80.364 E26.03154
G1 X130.250 Y82.964 E26.36123
G1 X132.594 Y85.986 E26.70906
G1 X134.579 Y89.255 E27.05690
G1 X136.178 Y92.729 E27.40473
G1 X137.422 Y96.557 E27.77070
G1 X138.170 Y100.307 E28.11854
G1 X138.486 Y104.119 E28.46637
G1 X138.383 Y107.743 E28.79606
G1 X137.850 Y111.530 E29.14389
G1 X136.888 Y115.232 E29.49172
G1 X135.511 Y118.800 E29.83956
G1 X133.737 Y122.188 E30.18739
G1 X133.239 Y122.936 E30.26914
G1 X131.465 Y125.510 E30.55337
G1 X128.952 Y128.392 E30.90120
G1 X126.281 Y130.844 E31.23089
G1 X123.194 Y133.101 E31.57873
G1 X119.869 Y134.992 E31.92656
G1 X116.351 Y136.491 E32.27439
G1 X112.490 Y137.625 E32.64037
G1 X108.719 Y138.266 E32.98820
G1 X104.900 Y138.473 E33.33603
G1 X101.082 Y138.243 E33.68386
G1 X97.510 Y137.625 E34.01355
G1 X93.837 Y136.558 E34.36139
G1 X93.005 Y136.219 E34.44314
G1 X90.131 Y134.992 E34.72737
G1 X86.806 Y133.101 E35.07520
G1 X83.873 Y130.970 E35.40489
G1 X81.048 Y128.392 E35.75272
G1 X78.535 Y125.510 E36.10056
G1 X76.366 Y122.359 E36.44839
G1 X74.489 Y118.800 E36.81436
G1 X73.173 Y115.422 E37.14405
G1 X72.190 Y111.726 E37.49189
G1 X71.634 Y107.942 E37.83972
G1 X71.514 Y104.119 E38.18755
G1 X71.830 Y100.307 E38.53538
G1 X71.997 Y99.424 E38.61713
G1 X72.629 Y96.363 E38.90137
G1 X73.822 Y92.729 E39.24920
G1 X75.421 Y89.255 E39.59703
G1 X77.293 Y86.151 E39.92672
G1 X79.619 Y83.115 E40.27455
G1 X82.155 Y80.490 E40.60648
G1 X82.655 Y80.872 F7800.000
G1 F1800
G1 X82.833 Y80.702 E40.62886
G1 X85.745 Y78.333 E40.97020
G1 X88.764 Y76.393 E41.29664
G1 X92.128 Y74.728 E41.63799
G1 X95.660 Y73.458 E41.97933
G1 X96.481 Y73.258 E42.05621
G1 X99.475 Y72.571 E42.33558
G1 X103.205 Y72.152 E42.67692
G1 X106.959 Y72.162 E43.01826
G1 X110.525 Y72.571 E43.34470
G1 X114.182 Y73.412 E43.68604
G1 X117.721 Y74.664 E44.02739
G1 X121.093 Y76.312 E44.36873
G1 X121.809 Y76.761 E44.44561
G1 X124.388 Y78.430 E44.72498
G1 X127.288 Y80.813 E45.06632
G1 X129.789 Y83.387 E45.39276
G1 X132.089 Y86.353 E45.73410
G1 X134.035 Y89.563 E46.07545
G1 X135.602 Y92.973 E46.41679
G1 X136.813 Y96.698 E46.77303
G1 X137.549 Y100.379 E47.11437
G1 X137.861 Y104.119 E47.45571
G1 X137.758 Y107.707 E47.78216
G1 X137.234 Y111.423 E48.12350
G1 X136.288 Y115.056 E48.46484
G1 X134.935 Y118.556 E48.80618
G1 X133.192 Y121.880 E49.14753
G1 X132.723 Y122.583 E49.22441
G1 X130.981 Y125.114 E49.50377
G1 X128.516 Y127.944 E49.84512
G1 X125.745 Y130.475 E50.18646
G1 X122.703 Y132.674 E50.52780
G1 X119.577 Y134.439 E50.85424
G1 X116.124 Y135.908 E51.19558
G1 X112.365 Y137.012 E51.55183
G1 X108.666 Y137.643 E51.89317
G1 X104.918 Y137.848 E52.23451
G1 X101.334 Y137.643 E52.56095
G1 X97.635 Y137.012 E52.90230
G1 X94.031 Y135.963 E53.24364
G1 X93.248 Y135.643 E53.32052
G1 X90.423 Y134.439 E53.59988
G1 X87.159 Y132.585 E53.94123
G1 X84.128 Y130.371 E54.28257
G1 X81.484 Y127.944 E54.60901
G1 X79.019 Y125.114 E54.95035
G1 X76.892 Y122.021 E55.29170
G1 X75.065 Y118.556 E55.64794
G1 X73.762 Y115.212 E55.97438
G1 X72.799 Y111.584 E56.31572
G1 X72.256 Y107.870 E56.65706
G1 X72.139 Y104.119 E56.99841
G1 X72.451 Y100.379 E57.33975
G1 X72.610 Y99.548 E57.41663
G1 X73.229 Y96.540 E57.69600
G1 X74.398 Y92.973 E58.03734
G1 X75.889 Y89.708 E58.36378
G1 X77.819 Y86.489 E58.70512
G1 X80.103 Y83.511 E59.04647
G1 X82.603 Y80.925 E59.37353
G1 X83.103 Y81.307 F7800.000
G1 F1800
G1 X83.243 Y81.174 E59.39103
G1 X86.098 Y78.849 E59.72589
G1 X89.087 Y76.928 E60.04908
G1 X92.388 Y75.297 E60.38393
G1 X95.853 Y74.053 E60.71878
G1 X99.438 Y73.212 E61.05364
G1 X103.223 Y72.777 E61.40014
G1 X106.777 Y72.777 E61.72334
G1 X110.436 Y73.190 E62.05819
G1 X114.023 Y74.017 E62.39304
G1 X117.494 Y75.247 E62.72790
G1 X120.913 Y76.928 E63.07440
G1 X124.006 Y78.925 E63.40926
G1 X126.852 Y81.261 E63.74411
G1 X129.329 Y83.810 E64.06730
G1 X131.583 Y86.721 E64.40215
G1 X133.490 Y89.870 E64.73701
G1 X135.027 Y93.216 E65.07186
G1 X136.204 Y96.840 E65.41837
G1 X136.928 Y100.450 E65.75322
G1 X137.236 Y104.119 E66.08807
G1 X137.123 Y107.799 E66.42292
G1 X136.592 Y111.442 E66.75778
G1 X135.689 Y114.879 E67.08097
G1 X134.360 Y118.313 E67.41582
G1 X132.648 Y121.573 E67.75067
G1 X132.207 Y122.231 E67.82269
G1 X130.497 Y124.718 E68.09719
G1 X128.081 Y127.496 E68.43204
G1 X125.363 Y129.980 E68.76689
G1 X122.488 Y132.069 E69.09009
G1 X119.286 Y133.886 E69.42494
G1 X115.897 Y135.326 E69.75979
G1 X112.241 Y136.399 E70.10630
G1 X108.612 Y137.020 E70.44115
G1 X104.936 Y137.223 E70.77600
G1 X101.260 Y137.005 E71.11085
G1 X97.759 Y136.399 E71.43405
G1 X94.103 Y135.326 E71.78056
G1 X90.830 Y133.942 E72.10375
G1 X87.620 Y132.138 E72.43860
G1 X84.637 Y129.980 E72.77346
G1 X81.919 Y127.496 E73.10831
G1 X79.503 Y124.718 E73.44316
G1 X77.418 Y121.683 E73.77801
G1 X75.640 Y118.313 E74.12452
G1 X74.351 Y115.001 E74.44772
G1 X73.408 Y111.442 E74.78257
G1 X72.877 Y107.799 E75.11742
G1 X72.764 Y104.119 E75.45227
G1 X73.072 Y100.450 E75.78712
G1 X73.222 Y99.672 E75.85914
G1 X73.829 Y96.716 E76.13364
G1 X74.973 Y93.216 E76.46849
G1 X76.450 Y89.984 E76.79168
G1 X78.345 Y86.827 E77.12654
G1 X80.587 Y83.907 E77.46139
G1 X83.051 Y81.361 E77.78358
G1 X83.552 Y81.743 F7800.000
G1 F1800
G1 X86.451 Y79.366 E78.12454
G1 X89.410 Y77.464 E78.44449
G1 X92.648 Y75.866 E78.77285
G1 X96.136 Y74.621 E79.10963
G1 X99.653 Y73.809 E79.43799
G1 X103.241 Y73.402 E79.76635
G1 X106.852 Y73.408 E80.09471
G1 X110.438 Y73.825 E80.42308
G1 X113.953 Y74.648 E80.75144
G1 X117.267 Y75.830 E81.07138
G1 X120.509 Y77.418 E81.39975
G1 X121.133 Y77.813 E81.46689
G1 X123.624 Y79.420 E81.73652
G1 X126.416 Y81.710 E82.06489
G1 X128.868 Y84.233 E82.38483
G1 X131.077 Y87.088 E82.71319
G1 X132.946 Y90.178 E83.04156
G1 X134.451 Y93.460 E83.36992
G1 X135.595 Y96.981 E83.70670
G1 X136.307 Y100.521 E84.03506
G1 X136.610 Y104.119 E84.36342
G1 X136.510 Y107.635 E84.68337
G1 X136.001 Y111.210 E85.01173
G1 X135.089 Y114.703 E85.34009
G1 X133.784 Y118.070 E85.66845
G1 X132.103 Y121.265 E85.99681
G1 X131.691 Y121.878 E86.06396
G1 X130.013 Y124.322 E86.33359
G1 X127.645 Y127.047 E86.66195
G1 X124.981 Y129.485 E86.99031
G1 X122.057 Y131.603 E87.31868
G1 X118.994 Y133.333 E87.63862
G1 X115.670 Y134.743 E87.96698
G1 X112.117 Y135.786 E88.30376
G1 X108.559 Y136.397 E88.63212
G1 X104.954 Y136.598 E88.96048
G1 X101.441 Y136.397 E89.28043
G1 X97.883 Y135.786 E89.60879
G1 X94.417 Y134.774 E89.93716
G1 X93.735 Y134.492 E90.00430
G1 X91.006 Y133.333 E90.27393
G1 X87.865 Y131.553 E90.60230
G1 X84.947 Y129.426 E90.93066
G1 X82.355 Y127.047 E91.25060
G1 X79.987 Y124.322 E91.57897
G1 X77.944 Y121.345 E91.90733
G1 X76.216 Y118.070 E92.24410
G1 X74.940 Y114.791 E92.56405
G1 X74.017 Y111.301 E92.89241
G1 X73.498 Y107.728 E93.22077
G1 X73.390 Y104.119 E93.54914
G1 X73.693 Y100.521 E93.87750
G1 X74.405 Y96.981 E94.20586
G1 X75.549 Y93.460 E94.54264
G1 X77.011 Y90.260 E94.86258
G1 X78.871 Y87.165 E95.19094
G1 X81.071 Y84.303 E95.51931
G1 X83.499 Y81.797 E95.83663
G1 X84.000 Y82.178 F7800.000
G1 F1800
G1 X86.803 Y79.882 E96.16625
G1 X89.733 Y77.999 E96.48295
G1 X92.908 Y76.435 E96.80482
G1 X96.240 Y75.242 E97.12669
G1 X99.686 Y74.437 E97.44856
G1 X103.259 Y74.027 E97.77561
G1 X106.798 Y74.031 E98.09748
G1 X110.314 Y74.437 E98.41935
G1 X113.706 Y75.226 E98.73605
G1 X117.040 Y76.412 E99.05792
G1 X120.267 Y77.999 E99.38497
G1 X123.243 Y79.915 E99.70684
G1 X125.980 Y82.158 E100.02871
G1 X128.407 Y84.655 E100.34541
G1 X130.571 Y87.456 E100.66728
G1 X132.401 Y90.485 E100.98915
G1 X133.875 Y93.703 E101.31102
G1 X134.986 Y97.123 E101.63807
G1 X135.686 Y100.592 E101.95994
G1 X135.985 Y104.119 E102.28181
G1 X135.886 Y107.600 E102.59851
G1 X135.385 Y111.103 E102.92038
G1 X134.489 Y114.527 E103.24225
G1 X133.208 Y117.826 E103.56412
G1 X131.559 Y120.958 E103.88600
G1 X131.175 Y121.525 E103.94828
G1 X129.529 Y123.926 E104.21304
G1 X127.209 Y126.599 E104.53491
G1 X124.644 Y128.954 E104.85161
G1 X121.782 Y131.036 E105.17348
G1 X118.702 Y132.780 E105.49536
G1 X115.443 Y134.160 E105.81723
G1 X111.993 Y135.173 E106.14427
G1 X108.505 Y135.774 E106.46614
G1 X104.972 Y135.973 E106.78801
G1 X101.495 Y135.774 E107.10471
G1 X98.007 Y135.173 E107.42658
G1 X94.610 Y134.179 E107.74846
G1 X93.978 Y133.916 E107.81074
