; generated by Slic3r 1.3.0 on 2021-06-14 at 19:03:51

; external perimeters extrusion width = 0.55mm (2.33mm^3/s)
; perimeters extrusion width = 0.70mm (6.01mm^3/s)
; infill extrusion width = 0.62mm (7.11mm^3/s)
; solid infill extrusion width = 0.70mm (2.00mm^3/s)
; top infill extrusion width = 0.70mm (1.50mm^3/s)
; support material extrusion width = 0.55mm (4.66mm^3/s)

M107
M190 S60 ; set bed temperature and wait for it to be reached
M104 S200 ; set temperature
G28 ; home all axes
G1 Z5 F5000 ; lift nozzle

; Filament gcode

M109 S200 ; set temperature and wait for it to be reached
G21 ; set units to millimeters
G90 ; use absolute coordinates
M82 ; use absolute distances for extrusion
G92 E0
G1 Z0.350 F7800.000
G1 E-2.00000 F2400.00000
G92 E0
G1 X91.915 Y92.753 F7800.000
G1 E2.00000 F2400.00000
G1 F1800
G1 X93.668 Y91.274 E2.20854
G1 X95.820 Y90.481 E2.41708
G1 X97.000 Y90.375 E2.52479
G1 X113.000 Y90.375 E3.97967
G1 X115.259 Y90.772 E4.18821
G1 X117.247 Y91.915 E4.39675
G1 X118.726 Y93.668 E4.60529
G1 X119.519 Y95.820 E4.81384
G1 X119.625 Y97.000 E4.92155
G1 X119.625 Y113.000 E6.37642
G1 X119.228 Y115.259 E6.58496
G1 X118.085 Y117.247 E6.79350
G1 X116.332 Y118.726 E7.00205
G1 X114.180 Y119.519 E7.21059
G1 X113.000 Y119.625 E7.31830
G1 X97.000 Y119.625 E8.77317
G1 X94.741 Y119.228 E8.98171
G1 X92.753 Y118.085 E9.19026
G1 X91.274 Y116.332 E9.39880
G1 X90.481 Y114.180 E9.60734
G1 X90.375 Y113.000 E9.71505
G1 X90.375 Y97.000 E11.16992
G1 X90.772 Y94.741 E11.37846
G1 X91.878 Y92.818 E11.58019
G1 E9.58019 F2400.00000
G92 E0
G1 X93.667 Y94.504 F7800.000
G1 E2.00000 F2400.00000
G1 F1800
G1 X95.293 Y92.878 E2.20914
G1 X114.707 Y92.878 E3.97483
G1 X117.122 Y95.293 E4.28539
G1 X117.122 Y114.707 E6.05108
G1 X114.707 Y117.122 E6.36164
G1 X95.293 Y117.122 E8.12733
G1 X92.878 Y114.707 E8.43788
G1 X92.878 Y95.293 E10.20357
G1 X93.613 Y94.557 E10.29817
G1 X94.108 Y94.946 F7800.000
G1 F1800
G1 X95.552 Y93.503 E10.48377
G1 X114.448 Y93.503 E12.20237
G1 X116.497 Y95.552 E12.46584
G1 X116.497 Y114.448 E14.18444
G1 X114.448 Y116.497 E14.44790
G1 X95.552 Y116.497 E16.16651
G1 X93.503 Y114.448 E16.42997
G1 X93.503 Y95.552 E18.14857
G1 X94.055 Y94.999 E18.21962
G1 X94.550 Y95.388 F7800.000
G1 F1800
G1 X95.810 Y94.128 E18.38168
G1 X114.190 Y94.128 E20.05319
G1 X115.872 Y95.810 E20.26957
G1 X115.872 Y114.190 E21.94108
G1 X114.190 Y115.872 E22.15746
G1 X95.810 Y115.872 E23.82898
G1 X94.128 Y114.190 E24.04536
G1 X94.128 Y95.810 E25.71687
G1 X94.497 Y95.441 E25.76437
G1 X94.992 Y95.830 F7800.000
G1 F1800
G1 X96.069 Y94.753 E25.90288
G1 X113.931 Y94.753 E27.52731
G1 X115.247 Y96.069 E27.69660
G1 X115.247 Y113.931 E29.32102
G1 X113.931 Y115.247 E29.49031
G1 X96.069 Y115.247 E31.11474
G1 X94.753 Y113.931 E31.28403
G1 X94.753 Y96.069 E32.90845
G1 X94.939 Y95.883 E32.93241
G1 X95.434 Y96.272 F7800.000
G1 F1800
G1 X96.328 Y95.378 E33.04738
G1 X113.672 Y95.378 E34.62471
G1 X114.622 Y96.328 E34.74691
G1 X114.622 Y113.672 E36.32425
G1 X113.672 Y114.622 E36.44645
G1 X96.328 Y114.622 E38.02379
G1 X95.378 Y113.672 E38.14599
G1 X95.381 Y96.325 E39.72362
G1 X96.003 Y96.587 F7800.000
G1 F1800
G1 X96.587 Y96.003 E39.79873
G1 X113.413 Y96.003 E41.32898
G1 X113.997 Y96.587 E41.40409
G1 X113.997 Y113.413 E42.93434
G1 X113.413 Y113.997 E43.00945
G1 X96.587 Y113.997 E44.53970
G1 X96.003 Y113.413 E44.61481
G1 X96.003 Y96.662 E46.13824
G1 X96.846 Y96.628 F7800.000
G1 F1800
G1 X113.154 Y96.628 E47.62140
G1 X113.372 Y96.846 E47.64942
G1 X113.372 Y113.154 E49.13258
G1 X113.154 Y113.372 E49.16061
G1 X96.846 Y113.372 E50.64376
G1 X96.628 Y113.154 E50.67179
G1 X96.628 Y96.846 E52.15495
G1 X96.793 Y96.681 E52.17615
G1 E50.17615 F2400.00000
G92 E0
G1 X104.254 Y104.254 F7800.000
G1 E2.00000 F2400.00000
G1 F1800
G1 X104.473 Y104.087 E2.02503
G1 X104.727 Y103.982 E2.05007
G1 X105.000 Y103.946 E2.07510
G1 X105.273 Y103.982 E2.10013
G1 X105.527 Y104.087 E2.12517
G1 X105.746 Y104.254 E2.15020
G1 X105.913 Y104.473 E2.17523
G1 X106.018 Y104.727 E2.20027
G1 X106.054 Y105.000 E2.22530
G1 X106.018 Y105.273 E2.25033
G1 X105.913 Y105.527 E2.27537
G1 X105.746 Y105.746 E2.30040
G1 X105.527 Y105.913 E2.32543
G1 X105.273 Y106.018 E2.35047
G1 X105.000 Y106.054 E2.37550
G1 X104.727 Y106.018 E2.40053
G1 X104.473 Y105.913 E2.42557
G1 X104.254 Y105.746 E2.45060
G1 X104.087 Y105.527 E2.47563
G1 X103.982 Y105.273 E2.50067
G1 X103.946 Y105.000 E2.52570
G1 X103.982 Y104.727 E2.55073
G1 X104.087 Y104.473 E2.57577
G1 X104.209 Y104.314 E2.59398
G1 X103.874 Y103.759 F7800.000
G1 F1800
G1 X104.158 Y103.541 E2.62650
G1 X104.564 Y103.373 E2.66650
G1 X105.000 Y103.315 E2.70650
G1 X105.436 Y103.373 E2.74650
G1 X105.842 Y103.541 E2.78650
G1 X106.191 Y103.809 E2.82650
G1 X106.459 Y104.158 E2.86650
G1 X106.627 Y104.564 E2.90650
G1 X106.685 Y105.000 E2.94650
G1 X106.627 Y105.436 E2.98650
G1 X106.459 Y105.842 E3.02650
G1 X106.191 Y106.191 E3.06650
G1 X105.842 Y106.459 E3.10650
G1 X105.436 Y106.627 E3.14650
G1 X105.000 Y106.685 E3.18650
G1 X104.564 Y106.627 E3.22650
G1 X104.158 Y106.459 E3.26650
G1 X103.809 Y106.191 E3.30650
G1 X103.541 Y105.842 E3.34650
G1 X103.373 Y105.436 E3.38650
G1 X103.315 Y105.000 E3.42650
G1 X103.373 Y104.564 E3.46650
G1 X103.541 Y104.158 E3.50650
G1 X103.814 Y103.804 E3.54713
G1 E1.54713 F2400.00000
G92 E0
G1 X112.650 Y112.650 F7800.000
G1 E2.00000 F2400.00000
G1 F1800
G1 X97.350 Y112.650 E3.39122
G1 X97.350 Y97.350 E4.78245
G1 X112.650 Y97.350 E6.17367
G1 X112.650 Y112.575 E7.55807
G1 X112.167 Y112.521 F7800.000
G1 X112.025 Y112.025 F7800.000
G1 F1800
G1 X97.975 Y112.025 E8.83565
G1 X97.975 Y97.975 E10.11323
G1 X112.025 Y97.975 E11.39081
G1 X112.025 Y111.950 E12.66158
G1 X111.400 Y111.400 F7800.000
G1 F1800
G1 X98.600 Y111.400 E13.82551
G1 X98.600 Y98.600 E14.98945
G1 X111.400 Y98.600 E16.15339
G1 X111.400 Y111.325 E17.31051
G1 E15.31051 F2400.00000
G92 E0
G1 X106.664 Y106.664 F7800.000
G1 E2.00000 F2400.00000
G1 F1800
G1 X106.177 Y107.038 E2.05585
G1 X105.608 Y107.273 E2.11185
G1 X104.980 Y107.350 E2.16931
G1 X104.391 Y107.273 E2.22336
G1 X103.823 Y107.038 E2.27922
G1 X103.336 Y106.664 E2.33507
G1 X102.962 Y106.177 E2.39093
G1 X102.727 Y105.608 E2.44692
G1 X102.650 Y104.980 E2.50439
G1 X102.727 Y104.391 E2.55844
G1 X102.962 Y103.823 E2.61429
G1 X103.336 Y103.336 E2.67015
G1 X103.825 Y102.961 E2.72614
G1 X104.411 Y102.725 E2.78360
G1 X105.000 Y102.647 E2.83765
G1 X105.609 Y102.727 E2.89351
G1 X106.177 Y102.962 E2.94936
G1 X106.664 Y103.336 E3.00522
G1 X107.038 Y103.823 E3.06107
G1 X107.273 Y104.392 E3.11707
G1 X107.350 Y105.020 E3.17453
G1 X107.273 Y105.609 E3.22858
G1 X107.038 Y106.177 E3.28444
G1 X106.709 Y106.604 E3.33347
G1 X106.664 Y106.664 F7800.000
G1 X107.160 Y107.044 F7800.000
G1 F1800
G1 X107.110 Y107.110 E3.34095
G1 X106.492 Y107.584 E3.41177
G1 X105.768 Y107.883 E3.48298
G1 X104.978 Y107.980 E3.55540
G1 X104.228 Y107.882 E3.62416
G1 X103.508 Y107.584 E3.69498
G1 X102.890 Y107.110 E3.76579
G1 X102.416 Y106.492 E3.83661
G1 X102.117 Y105.768 E3.90782
G1 X102.020 Y104.978 E3.98024
G1 X102.118 Y104.228 E4.04900
G1 X102.416 Y103.508 E4.11982
G1 X102.890 Y102.890 E4.19063
G1 X103.512 Y102.414 E4.26184
G1 X104.250 Y102.115 E4.33427
G1 X105.000 Y102.017 E4.40303
G1 X105.772 Y102.118 E4.47384
G1 X106.492 Y102.416 E4.54466
G1 X107.110 Y102.890 E4.61547
G1 X107.584 Y103.508 E4.68629
G1 X107.883 Y104.232 E4.75750
G1 X107.980 Y105.022 E4.82992
G1 X107.882 Y105.772 E4.89868
G1 X107.584 Y106.492 E4.96950
G1 X107.205 Y106.985 E5.02601
G1 X107.655 Y107.425 F7800.000
G1 F1800
G1 X107.555 Y107.555 E5.04097
G1 X106.807 Y108.129 E5.12675
G1 X105.929 Y108.493 E5.21318
G1 X104.975 Y108.610 E5.30056
G1 X104.065 Y108.490 E5.38403
G1 X103.193 Y108.129 E5.46981
G1 X102.445 Y107.555 E5.55558
G1 X101.871 Y106.807 E5.64136
G1 X101.507 Y105.929 E5.72779
G1 X101.390 Y104.975 E5.81517
G1 X101.510 Y104.065 E5.89864
G1 X101.871 Y103.193 E5.98441
G1 X102.445 Y102.445 E6.07019
G1 X103.199 Y101.866 E6.15662
G1 X104.090 Y101.506 E6.24400
G1 X105.000 Y101.386 E6.32747
G1 X105.935 Y101.510 E6.41325
G1 X106.807 Y101.871 E6.49902
G1 X107.555 Y102.445 E6.58480
G1 X108.129 Y103.193 E6.67058
G1 X108.493 Y104.071 E6.75700
G1 X108.610 Y105.025 E6.84439
G1 X108.490 Y105.935 E6.92786
G1 X108.129 Y106.807 E7.01363
G1 X107.701 Y107.365 E7.07763
G1 E5.07763 F2400.00000
G92 E0
G1 X110.532 Y111.018 F7800.000
G1 E2.00000 F2400.00000
G1 F1800
G1 X111.018 Y110.532 E2.06286
G1 X111.018 Y109.644 E2.14409
G1 X109.644 Y111.018 E2.32182
G1 X108.755 Y111.018 E2.40305
G1 X111.018 Y108.755 E2.69566
G1 X111.018 Y107.867 E2.77688
G1 X107.867 Y111.018 E3.18437
G1 X106.978 Y111.018 E3.26559
G1 X111.018 Y106.978 E3.78795
G1 X111.018 Y106.090 E3.86918
G1 X106.090 Y111.018 E4.50641
G1 X105.201 Y111.018 E4.58763
G1 X111.018 Y105.201 E5.33974
G1 X111.018 Y104.313 E5.42097
G1 X108.762 Y106.569 E5.71271
G1 X108.856 Y106.341 E5.73525
G1 X108.971 Y105.472 E5.81543
G1 X111.018 Y103.424 E6.08017
G1 X111.018 Y102.536 E6.16140
G1 X108.919 Y104.635 E6.43282
G1 X108.860 Y104.154 E6.47714
G1 X108.758 Y103.908 E6.50151
G1 X111.018 Y101.647 E6.79375
G1 X111.018 Y100.759 E6.87498
G1 X108.498 Y103.279 E7.20087
G1 X108.432 Y103.121 E7.21652
G1 X108.144 Y102.745 E7.25987
G1 X111.018 Y99.870 E7.63155
G1 X111.018 Y98.982 E7.71277
G1 X107.758 Y102.242 E8.13433
G1 X107.255 Y101.856 E8.19226
G1 X110.130 Y98.982 E8.56394
G1 X109.241 Y98.982 E8.64517
G1 X106.721 Y101.502 E8.97106
G1 X106.092 Y101.242 E9.03323
G1 X108.353 Y98.982 E9.32547
G1 X107.464 Y98.982 E9.40670
G1 X105.367 Y101.079 E9.67792
G1 X104.757 Y100.999 E9.73413
G1 X104.528 Y101.029 E9.75523
G1 X106.576 Y98.982 E10.01997
G1 X105.687 Y98.982 E10.10120
G1 X103.422 Y101.247 E10.39409
G1 X102.643 Y101.562 E10.47090
G1 X101.756 Y102.242 E10.57309
G1 X101.082 Y103.121 E10.67437
G1 X100.752 Y103.917 E10.75312
G1 X98.982 Y105.687 E10.98202
G1 X98.982 Y104.799 E11.06325
G1 X104.799 Y98.982 E11.81535
G1 X103.910 Y98.982 E11.89658
G1 X98.982 Y103.910 E12.53381
G1 X98.982 Y103.022 E12.61504
G1 X103.022 Y98.982 E13.13739
G1 X102.133 Y98.982 E13.21862
G1 X98.982 Y102.133 E13.62610
G1 X98.982 Y101.245 E13.70733
G1 X101.245 Y98.982 E13.99994
G1 X100.356 Y98.982 E14.08117
G1 X98.982 Y100.356 E14.25890
G1 X98.982 Y99.468 E14.34013
G1 X99.468 Y98.982 E14.40299
G1 E12.40299 F2400.00000
G92 E0
G1 X98.982 Y105.687 F7800.000
G1 E2.00000 F2400.00000
G1 F1800
G1 X98.982 Y106.576 E2.08123
G1 X101.029 Y104.528 E2.34597
G1 X101.003 Y104.729 E2.36449
G1 X101.081 Y105.365 E2.42307
G1 X98.982 Y107.464 E2.69449
G1 X98.982 Y108.353 E2.77572
G1 X101.242 Y106.092 E3.06796
G1 X101.502 Y106.721 E3.13013
G1 X98.982 Y109.241 E3.45602
G1 X98.982 Y110.130 E3.53725
G1 X101.856 Y107.255 E3.90893
G1 X102.242 Y107.758 E3.96686
G1 X98.982 Y111.018 E4.38842
G1 X99.870 Y111.018 E4.46964
G1 X102.745 Y108.144 E4.84132
G1 X103.121 Y108.432 E4.88467
G1 X103.279 Y108.498 E4.90032
G1 X100.759 Y111.018 E5.22621
G1 X101.647 Y111.018 E5.30744
G1 X103.908 Y108.758 E5.59968
G1 X104.145 Y108.856 E5.62315
G1 X104.633 Y108.921 E5.66822
G1 X102.536 Y111.018 E5.93945
G1 X103.424 Y111.018 E6.02067
G1 X105.478 Y108.965 E6.28617
G1 X106.332 Y108.860 E6.36488
G1 X106.569 Y108.762 E6.38833
G1 X104.313 Y111.018 E6.68007
G1 Z0.350 F7800.000
M140 S0 ; set bed temperature
G1 Z0.500 F7800.000
G1 X107.604 Y107.386 F7800.000
G1 F900
G1 X107.509 Y107.509 E6.68657
G1 X106.774 Y108.073 E6.72515
G1 X105.919 Y108.428 E6.76374
G1 X105.000 Y108.549 E6.80232
G1 X104.081 Y108.428 E6.84090
G1 X103.226 Y108.073 E6.87948
G1 X102.491 Y107.509 E6.91807
G1 X101.927 Y106.774 E6.95665
G1 X101.566 Y105.904 E6.99590
G1 X101.459 Y104.940 E7.03627
G1 X101.572 Y104.081 E7.07234
G1 X101.927 Y103.226 E7.11093
G1 X102.491 Y102.491 E7.14951
G1 X103.238 Y101.917 E7.18876
G1 X104.141 Y101.564 E7.22913
G1 X105.000 Y101.451 E7.26520
G1 X105.919 Y101.572 E7.30379
G1 X106.774 Y101.927 E7.34237
G1 X107.509 Y102.491 E7.38095
G1 X108.073 Y103.226 E7.41954
G1 X108.428 Y104.081 E7.45812
G1 X108.549 Y105.000 E7.49670
G1 X108.428 Y105.919 E7.53529
G1 X108.073 Y106.774 E7.57387
G1 X107.650 Y107.326 E7.60283
G1 X107.075 Y106.979 F7800.000
G1 F900
G1 X107.033 Y107.033 E7.60567
G1 X106.438 Y107.490 E7.63693
G1 X105.744 Y107.777 E7.66819
G1 X105.000 Y107.875 E7.69945
G1 X104.256 Y107.777 E7.73071
G1 X103.562 Y107.490 E7.76197
G1 X102.967 Y107.033 E7.79323
G1 X102.510 Y106.438 E7.82449
G1 X102.219 Y105.736 E7.85612
G1 X102.132 Y104.947 E7.88917
G1 X102.223 Y104.256 E7.91821
G1 X102.510 Y103.562 E7.94947
G1 X102.967 Y102.967 E7.98073
G1 X103.569 Y102.504 E8.01236
G1 X104.309 Y102.216 E8.04542
G1 X105.000 Y102.125 E8.07445
G1 X105.744 Y102.223 E8.10571
G1 X106.438 Y102.510 E8.13697
G1 X107.033 Y102.967 E8.16823
G1 X107.490 Y103.562 E8.19949
G1 X107.777 Y104.256 E8.23075
G1 X107.875 Y105.000 E8.26201
G1 X107.777 Y105.744 E8.29327
G1 X107.490 Y106.438 E8.32453
G1 X107.120 Y106.920 E8.34983
G1 X106.610 Y106.610 F7800.000
G1 F900
G1 X106.139 Y106.972 E8.36903
G1 X105.589 Y107.200 E8.38823
G1 X105.000 Y107.277 E8.40743
G1 X104.411 Y107.200 E8.42662
G1 X103.861 Y106.972 E8.44582
G1 X103.390 Y106.610 E8.46502
G1 X103.028 Y106.139 E8.48422
G1 X102.799 Y105.587 E8.50351
G1 X102.729 Y104.953 E8.52409
G1 X102.800 Y104.411 E8.54177
G1 X103.028 Y103.861 E8.56097
G1 X103.390 Y103.390 E8.58016
G1 X103.864 Y103.026 E8.59945
G1 X104.457 Y102.794 E8.62004
G1 X105.000 Y102.723 E8.63771
G1 X105.589 Y102.800 E8.65691
G1 X106.139 Y103.028 E8.67611
G1 X106.610 Y103.390 E8.69531
G1 X106.972 Y103.861 E8.71450
G1 X107.200 Y104.411 E8.73370
G1 X107.277 Y105.000 E8.75290
G1 X107.200 Y105.589 E8.77210
G1 X106.972 Y106.139 E8.79130
G1 X106.656 Y106.551 E8.80807
G1 X106.610 Y106.610 F7800.000
G1 X111.464 Y111.464 F7800.000
G1 F3600
G1 X98.536 Y111.464 E9.34651
G1 X98.536 Y98.536 E9.88495
G1 X111.464 Y98.536 E10.42338
G1 X111.464 Y111.389 E10.95870
G1 X112.132 Y112.132 F7800.000
G1 F3600
G1 X97.868 Y112.132 E11.55276
G1 X97.868 Y97.868 E12.14682
G1 X112.132 Y97.868 E12.74088
G1 X112.132 Y112.057 E13.33182
G1 X112.725 Y112.725 F7800.000
G1 F1800
G1 X97.275 Y112.725 E13.83073
G1 X97.275 Y97.275 E14.32964
G1 X112.725 Y97.275 E14.82855
G1 X112.725 Y112.650 E15.32505
G1 X112.242 Y112.596 F7800.000
G1 X102.506 Y108.303 F7800.000
G1 F1200
G1 X105.260 Y111.056 E15.49094
G1 X106.226 Y111.056 E15.53210
G1 X104.040 Y108.871 E15.66379
G1 X104.740 Y108.963 E15.69387
G1 X105.057 Y108.921 E15.70747
G1 X107.192 Y111.056 E15.83611
G1 X108.158 Y111.056 E15.87727
G1 X105.895 Y108.793 E16.01362
G1 X106.578 Y108.510 E16.04512
G1 X109.124 Y111.056 E16.19851
G1 X110.090 Y111.056 E16.23967
G1 X107.179 Y108.145 E16.41504
G1 X107.726 Y107.726 E16.44440
G1 X111.056 Y111.056 E16.64504
G1 X111.056 Y110.090 E16.68620
G1 X108.145 Y107.179 E16.86157
G1 X108.397 Y106.851 E16.87918
G1 X108.510 Y106.578 E16.89178
G1 X111.056 Y109.124 E17.04518
G1 X111.056 Y108.158 E17.08634
G1 X108.793 Y105.895 E17.22268
G1 X108.819 Y105.833 E17.22553
G1 X108.921 Y105.057 E17.25890
G1 X111.056 Y107.192 E17.38754
G1 X111.056 Y106.226 E17.42870
G1 X108.871 Y104.040 E17.56039
G1 X108.819 Y103.647 E17.57726
G1 X108.397 Y102.629 E17.62422
G1 X108.303 Y102.506 E17.63082
G1 X111.056 Y105.260 E17.79672
G1 X111.056 Y104.294 E17.83787
G1 X105.706 Y98.944 E18.16020
G1 X106.672 Y98.944 E18.20136
G1 X111.056 Y103.328 E18.46548
G1 X111.056 Y102.362 E18.50663
G1 X107.638 Y98.944 E18.71255
G1 X108.605 Y98.944 E18.75371
G1 X111.056 Y101.395 E18.90142
G1 X111.056 Y100.429 E18.94258
G1 X109.571 Y98.944 E19.03209
G1 X110.537 Y98.944 E19.07324
G1 X111.056 Y99.463 E19.10455
G1 X107.494 Y101.697 F7800.000
G1 F1200
G1 X104.740 Y98.944 E19.27044
G1 X103.774 Y98.944 E19.31160
G1 X105.960 Y101.129 E19.44329
G1 X105.260 Y101.037 E19.47338
G1 X104.943 Y101.079 E19.48697
G1 X102.808 Y98.944 E19.61562
G1 X101.842 Y98.944 E19.65677
G1 X104.116 Y101.218 E19.79380
G1 X103.422 Y101.489 E19.82558
G1 X100.876 Y98.944 E19.97896
G1 X99.910 Y98.944 E20.02011
G1 X102.821 Y101.855 E20.19549
G1 X102.274 Y102.274 E20.22484
G1 X98.944 Y98.944 E20.42548
G1 X98.944 Y99.910 E20.46664
G1 X101.855 Y102.821 E20.64201
G1 X101.603 Y103.149 E20.65962
G1 X101.490 Y103.422 E20.67223
G1 X98.944 Y100.876 E20.82562
G1 X98.944 Y101.842 E20.86678
