; generated by Slic3r 1.3.0 on 2021-06-14 at 19:03:39

; external perimeters extrusion width = 0.55mm (2.33mm^3/s)
; perimeters extrusion width = 0.70mm (6.01mm^3/s)
; infill extrusion width = 0.62mm (7.11mm^3/s)
; solid infill extrusion width = 0.70mm (2.00mm^3/s)
; top infill extrusion width = 0.70mm (1.50mm^3/s)
; support material extrusion width = 0.55mm (4.66mm^3/s)

M107
M190 S60 ; set bed temperature and wait for it to be reached
M104 S200 ; set temperature
G28 ; home all axes
G1 Z5 F5000 ; lift nozzle

; Filament gcode

M109 S200 ; set temperature and wait for it to be reached
G21 ; set units to millimeters
G90 ; use absolute coordinates
M82 ; use absolute distances for extrusion
G92 E0
G1 Z0.350 F7800.000
G1 E-2.00000 F2400.00000
G92 E0
G1 X91.915 Y92.753 F7800.000
G1 E2.00000 F2400.00000
G1 F1800
G1 X93.668 Y91.274 E2.20854
G1 X95.820 Y90.481 E2.41708
G1 X97.000 Y90.375 E2.52479
G1 X113.000 Y90.375 E3.97967
G1 X115.259 Y90.772 E4.18821
G1 X117.247 Y91.915 E4.39675
G1 X118.726 Y93.668 E4.60529
G1 X119.519 Y95.820 E4.81384
G1 X119.625 Y97.000 E4.92155
G1 X119.625 Y113.000 E6.37642
G1 X119.228 Y115.259 E6.58496
G1 X118.085 Y117.247 E6.79350
G1 X116.332 Y118.726 E7.00205
G1 X114.180 Y119.519 E7.21059
G1 X113.000 Y119.625 E7.31830
G1 X97.000 Y119.625 E8.77317
G1 X94.741 Y119.228 E8.98171
G1 X92.753 Y118.085 E9.19026
G1 X91.274 Y116.332 E9.39880
G1 X90.481 Y114.180 E9.60734
G1 X90.375 Y113.000 E9.71505
G1 X90.375 Y97.000 E11.16992
G1 X90.772 Y94.741 E11.37846
G1 X91.878 Y92.818 E11.58019
G1 E9.58019 F2400.00000
G92 E0
G1 X93.667 Y94.504 F7800.000
G1 E2.00000 F2400.00000
G1 F1800
G1 X95.293 Y92.878 E2.20914
G1 X114.707 Y92.878 E3.97483
G1 X117.122 Y95.293 E4.28539
G1 X117.122 Y114.707 E6.05108
G1 X114.707 Y117.122 E6.36164
G1 X95.293 Y117.122 E8.12733
G1 X92.878 Y114.707 E8.43788
G1 X92.878 Y95.293 E10.20357
G1 X93.613 Y94.557 E10.29817
G1 X94.108 Y94.946 F7800.000
G1 F1800
G1 X95.552 Y93.503 E10.48377
G1 X114.448 Y93.503 E12.20237
G1 X116.497 Y95.552 E12.46584
G1 X116.497 Y114.448 E14.18444
G1 X114.448 Y116.497 E14.44790
G1 X95.552 Y116.497 E16.16651
G1 X93.503 Y114.448 E16.42997
G1 X93.503 Y95.552 E18.14857
G1 X94.055 Y94.999 E18.21962
G1 X94.550 Y95.388 F7800.000
G1 F1800
G1 X95.810 Y94.128 E18.38168
G1 X114.190 Y94.128 E20.05319
G1 X115.872 Y95.810 E20.26957
G1 X115.872 Y114.190 E21.94108
G1 X114.190 Y115.872 E22.15746
G1 X95.810 Y115.872 E23.82898
G1 X94.128 Y114.190 E24.04536
G1 X94.128 Y95.810 E25.71687
G1 X94.497 Y95.441 E25.76437
G1 X94.992 Y95.830 F7800.000
G1 F1800
G1 X96.069 Y94.753 E25.90288
G1 X113.931 Y94.753 E27.52731
G1 X115.247 Y96.069 E27.69660
G1 X115.247 Y113.931 E29.32102
G1 X113.931 Y115.247 E29.49031
G1 X96.069 Y115.247 E31.11474
G1 X94.753 Y113.931 E31.28403
G1 X94.753 Y96.069 E32.90845
G1 X94.939 Y95.883 E32.93241
G1 X95.434 Y96.272 F7800.000
G1 F1800
G1 X96.328 Y95.378 E33.04738
G1 X113.672 Y95.378 E34.62471
G1 X114.622 Y96.328 E34.74691
G1 X114.622 Y104.696 E35.50790
G1 X114.453 Y104.864 E35.52959
G1 X114.453 Y105.136 E35.55433
G1 X114.622 Y105.305 E35.57604
G1 X114.622 Y113.672 E36.33698
G1 X113.672 Y114.622 E36.45918
G1 X96.328 Y114.622 E38.03651
G1 X95.378 Y113.672 E38.15872
G1 X95.378 Y105.305 E38.91965
G1 X95.547 Y105.136 E38.94136
G1 X95.547 Y104.864 E38.96610
G1 X95.378 Y104.696 E38.98779
G1 X95.381 Y96.325 E39.74907
G1 E37.74907 F2400.00000
G92 E0
G1 X96.431 Y105.136 F7800.000
G1 E2.00000 F2400.00000
G1 F1800
G1 X96.431 Y104.864 E2.02474
G1 X96.003 Y104.436 E2.07975
G1 X96.003 Y96.587 E2.79363
G1 X96.587 Y96.003 E2.86874
G1 X113.413 Y96.003 E4.39899
G1 X113.997 Y96.587 E4.47410
G1 X113.997 Y104.436 E5.18797
G1 X113.569 Y104.864 E5.24299
G1 X113.569 Y105.136 E5.26773
G1 X113.997 Y105.564 E5.32278
G1 X113.997 Y113.413 E6.03663
G1 X113.413 Y113.997 E6.11174
G1 X96.587 Y113.997 E7.64199
G1 X96.003 Y113.413 E7.71710
G1 X96.003 Y105.564 E8.43094
G1 X96.378 Y105.189 E8.47918
G1 E6.47918 F2400.00000
G92 E0
G1 X101.998 Y104.389 F7800.000
G1 E2.00000 F2400.00000
G1 F1800
G1 X96.846 Y104.395 E2.46849
G1 X96.628 Y104.177 E2.49655
G1 X96.628 Y96.846 E3.16331
G1 X96.846 Y96.628 E3.19133
G1 X113.154 Y96.628 E4.67449
G1 X113.372 Y96.846 E4.70252
G1 X113.372 Y104.177 E5.36927
G1 X113.154 Y104.395 E5.39733
G1 X108.003 Y104.388 E5.86579
G1 X107.806 Y104.638 E5.89473
G1 X107.861 Y104.867 E5.91617
G1 X107.861 Y105.120 E5.93918
G1 X107.806 Y105.358 E5.96139
G1 X108.003 Y105.607 E5.99023
G1 X113.154 Y105.605 E6.45871
G1 X113.372 Y105.823 E6.48674
G1 X113.372 Y113.154 E7.15349
G1 X113.154 Y113.372 E7.18151
G1 X96.846 Y113.372 E8.66467
G1 X96.628 Y113.154 E8.69270
G1 X96.628 Y105.823 E9.35944
G1 X96.846 Y105.605 E9.38748
G1 X101.998 Y105.607 E9.85599
G1 X102.195 Y105.358 E9.88484
G1 X102.139 Y105.122 E9.90691
G1 X102.140 Y104.869 E9.92987
G1 X102.195 Y104.639 E9.95141
G1 X102.044 Y104.448 E9.97351
G1 E7.97351 F2400.00000
G92 E0
G1 X112.650 Y112.650 F7800.000
G1 E2.00000 F2400.00000
G1 F1800
G1 X97.350 Y112.650 E3.39122
G1 X97.350 Y106.327 E3.96616
G1 X101.946 Y106.329 E4.38404
G1 X102.188 Y106.824 E4.43416
G1 X102.719 Y107.456 E4.50925
G1 X103.400 Y107.946 E4.58555
G1 X104.174 Y108.249 E4.66112
G1 X105.000 Y108.353 E4.73682
G1 X105.826 Y108.249 E4.81251
G1 X106.600 Y107.946 E4.88809
G1 X107.281 Y107.456 E4.96439
G1 X107.812 Y106.824 E5.03948
G1 X108.054 Y106.329 E5.08959
G1 X112.650 Y106.327 E5.50747
G1 X112.650 Y112.575 E6.07559
G1 X112.174 Y112.496 F7800.000
G1 X112.025 Y112.025 F7800.000
G1 F1800
G1 X97.975 Y112.025 E7.35318
G1 X97.975 Y106.952 E7.81446
G1 X101.556 Y106.953 E8.14005
G1 X101.660 Y107.167 E8.16168
G1 X102.285 Y107.910 E8.24994
G1 X103.101 Y108.500 E8.34155
G1 X104.019 Y108.860 E8.43115
G1 X105.000 Y108.982 E8.52107
G1 X105.981 Y108.860 E8.61099
G1 X106.899 Y108.500 E8.70059
G1 X107.715 Y107.910 E8.79220
G1 X108.340 Y107.167 E8.88046
G1 X108.444 Y106.953 E8.90210
G1 X112.025 Y106.952 E9.22769
G1 X112.025 Y111.950 E9.68215
G1 X111.400 Y111.400 F7800.000
G1 F1800
G1 X98.600 Y111.400 E10.84609
G1 X98.600 Y107.577 E11.19371
G1 X101.189 Y107.578 E11.42917
G1 X101.850 Y108.364 E11.52257
G1 X102.803 Y109.054 E11.62949
G1 X103.864 Y109.470 E11.73311
G1 X105.000 Y109.612 E11.83726
G1 X106.136 Y109.470 E11.94140
G1 X107.197 Y109.054 E12.04502
G1 X108.150 Y108.364 E12.15194
G1 X108.811 Y107.578 E12.24534
G1 X111.400 Y107.577 E12.48080
G1 X111.400 Y111.325 E12.82160
G1 X110.532 Y111.018 F7800.000
G1 F1800
G1 X111.018 Y110.532 E12.88822
G1 X111.018 Y109.591 E12.97944
G1 X109.591 Y111.018 E13.17505
G1 X108.649 Y111.018 E13.26627
G1 X111.018 Y108.649 E13.59089
G1 X111.018 Y107.959 E13.65772
G1 X110.766 Y107.959 E13.68212
G1 X107.707 Y111.018 E14.10123
G1 X106.766 Y111.018 E14.19245
G1 X109.825 Y107.960 E14.61152
G1 X109.345 Y107.960 E14.65800
G1 X108.822 Y108.582 E14.73678
G1 X107.743 Y109.364 E14.86586
G1 X107.309 Y109.534 E14.91098
G1 X105.824 Y111.018 E15.11438
G1 X104.883 Y111.018 E15.20560
G1 X105.997 Y109.905 E15.35819
G1 X105.243 Y109.999 E15.43176
G1 X104.992 Y109.968 E15.45627
G1 X103.941 Y111.018 E15.60024
G1 X103.000 Y111.018 E15.69146
G1 X104.155 Y109.863 E15.84978
G1 X103.951 Y109.837 E15.86969
G1 X103.440 Y109.637 E15.92293
G1 X102.058 Y111.018 E16.11222
G1 X101.117 Y111.018 E16.20344
G1 X102.763 Y109.372 E16.42907
G1 X102.213 Y108.980 E16.49447
G1 X100.175 Y111.018 E16.77376
G1 X99.233 Y111.018 E16.86498
G1 X101.667 Y108.584 E17.19846
G1 X101.237 Y108.074 E17.26320
G1 X98.982 Y110.329 E17.57217
G1 X98.982 Y109.387 E17.66339
G1 X100.409 Y107.960 E17.85897
G1 X99.468 Y107.959 E17.95016
G1 X98.982 Y108.445 E18.01675
G1 E16.01675 F2400.00000
G92 E0
G1 X112.650 Y103.673 F7800.000
G1 E2.00000 F2400.00000
G1 F1800
G1 X108.052 Y103.667 E2.41805
G1 X107.812 Y103.176 E2.46771
G1 X107.281 Y102.544 E2.54278
G1 X106.600 Y102.054 E2.61908
G1 X105.826 Y101.751 E2.69465
G1 X105.000 Y101.647 E2.77035
G1 X104.174 Y101.751 E2.84605
G1 X103.400 Y102.054 E2.92162
G1 X102.719 Y102.544 E2.99792
G1 X102.188 Y103.176 E3.07300
G1 X101.947 Y103.668 E3.12275
G1 X97.350 Y103.673 E3.54077
G1 X97.350 Y97.350 E4.11568
G1 X112.650 Y97.350 E5.50691
G1 X112.650 Y103.598 E6.07500
G1 X112.154 Y103.607 F7800.000
G1 X112.025 Y103.047 F7800.000
G1 F1800
G1 X108.442 Y103.042 E6.40078
G1 X108.340 Y102.833 E6.42200
G1 X107.715 Y102.090 E6.51022
G1 X106.899 Y101.500 E6.60183
G1 X105.981 Y101.140 E6.69143
G1 X105.000 Y101.018 E6.78135
G1 X104.019 Y101.140 E6.87127
G1 X103.101 Y101.500 E6.96086
G1 X102.285 Y102.090 E7.05248
G1 X101.660 Y102.833 E7.14071
G1 X101.557 Y103.043 E7.16202
G1 X97.975 Y103.047 E7.48776
G1 X97.975 Y97.975 E7.94897
G1 X112.025 Y97.975 E9.22655
G1 X112.025 Y102.972 E9.68092
G1 X111.400 Y102.421 F7800.000
G1 F1800
G1 X108.807 Y102.418 E9.91670
G1 X108.150 Y101.636 E10.00961
G1 X107.197 Y100.946 E10.11654
G1 X106.136 Y100.530 E10.22015
G1 X105.000 Y100.388 E10.32430
G1 X103.864 Y100.530 E10.42844
G1 X102.803 Y100.946 E10.53206
G1 X101.850 Y101.636 E10.63899
G1 X101.192 Y102.419 E10.73200
G1 X98.600 Y102.422 E10.96771
G1 X98.600 Y98.600 E11.31521
G1 X111.400 Y98.600 E12.47915
G1 X111.400 Y102.346 E12.81981
G1 X110.532 Y102.038 F7800.000
G1 F1800
G1 X111.018 Y101.552 E12.88641
G1 X111.018 Y100.611 E12.97760
G1 X109.592 Y102.037 E13.17300
G1 X108.856 Y102.036 E13.24434
G1 X108.762 Y101.925 E13.25836
G1 X111.018 Y99.669 E13.56741
G1 X111.018 Y98.982 E13.63403
G1 X110.765 Y98.982 E13.65860
G1 X108.332 Y101.415 E13.99192
G1 X107.786 Y101.019 E14.05722
G1 X109.823 Y98.982 E14.33638
G1 X108.882 Y98.982 E14.42757
G1 X107.236 Y100.628 E14.65310
G1 X106.559 Y100.363 E14.72347
G1 X107.941 Y98.982 E14.91268
G1 X106.999 Y98.982 E15.00387
G1 X105.844 Y100.137 E15.16215
G1 X105.007 Y100.032 E15.24383
G1 X106.058 Y98.982 E15.38776
G1 X105.116 Y98.982 E15.47896
G1 X104.002 Y100.095 E15.63154
G1 X103.465 Y100.163 E15.68398
G1 X102.690 Y100.467 E15.76466
G1 X104.175 Y98.982 E15.96809
G1 X103.233 Y98.982 E16.05928
G1 X100.177 Y102.038 E16.47793
G1 X99.235 Y102.039 E16.56922
G1 X102.292 Y98.982 E16.98800
G1 X101.351 Y98.982 E17.07919
G1 X98.982 Y101.351 E17.40372
G1 X98.982 Y100.409 E17.49491
G1 X100.409 Y98.982 E17.69048
G1 X99.468 Y98.982 E17.78167
G1 X98.982 Y99.468 E17.84825
G1 Z0.350 F7800.000
G1 E15.84825 F2400.00000
G92 E0
G1 X103.103 Y104.518 F7800.000
G1 E2.00000 F2400.00000
G1 F1800
G1 X102.863 Y105.000 E2.03723
G1 X104.243 Y105.000 E2.13258
G1 X104.269 Y105.196 E2.14624
G1 X104.344 Y105.379 E2.15990
G1 X104.424 Y105.482 E2.16893
G1 X103.104 Y105.482 E2.26015
G1 E0.26015 F2400.00000
G92 E0
G1 X104.999 Y106.929 F7800.000
G1 E2.00000 F2400.00000
G1 F1800
G1 X105.474 Y106.871 E2.03308
G1 X105.916 Y106.700 E2.06583
G1 X106.273 Y106.447 E2.09605
G1 X103.727 Y106.447 E2.27204
G1 X103.398 Y106.078 E2.30620
G1 X103.346 Y105.965 E2.31478
G1 X106.654 Y105.965 E2.54331
G1 X106.896 Y105.482 E2.58062
G1 X105.576 Y105.482 E2.67185
G1 X105.656 Y105.379 E2.68088
G1 X105.731 Y105.196 E2.69454
G1 X105.757 Y105.000 E2.70820
G1 X107.139 Y104.996 E2.80369
G1 X106.897 Y104.518 E2.84072
G1 X105.576 Y104.518 E2.93201
G1 X105.535 Y104.465 E2.93663
G1 X105.379 Y104.344 E2.95029
G1 X105.196 Y104.269 E2.96395
G1 X105.000 Y104.243 E2.97761
G1 X104.804 Y104.269 E2.99127
G1 X104.621 Y104.344 E3.00493
G1 X104.465 Y104.465 E3.01859
G1 X104.424 Y104.518 E3.02321
G1 X103.103 Y104.518 E3.11449
G1 X103.346 Y104.035 E3.15181
G1 X106.658 Y104.035 E3.38067
G1 X106.607 Y103.928 E3.38889
G1 X106.273 Y103.553 E3.42357
G1 X103.727 Y103.553 E3.59955
G1 X104.084 Y103.300 E3.62978
G1 X104.526 Y103.129 E3.66253
G1 X105.001 Y103.071 E3.69560
M140 S0 ; set bed temperature
G1 Z0.400 F7800.000
G1 X106.222 Y102.881 F7800.000
G1 F3600
G1 X105.768 Y102.693 E3.70112
G1 X105.434 Y103.271 E3.70861
G1 X104.966 Y103.271 E3.71385
G1 X104.931 Y103.332 E3.71464
G1 X104.106 Y103.332 E3.72388
G1 X103.833 Y102.858 E3.73002
G1 X103.761 Y102.892 E3.73090
G1 X103.272 Y103.268 E3.73783
G1 X103.140 Y103.438 E3.74024
G1 X103.552 Y104.152 E3.74948
G1 X103.140 Y104.867 E3.75873
G1 X102.531 Y104.867 E3.76555
G1 X102.510 Y104.975 E3.76678
G1 X102.625 Y105.595 E3.77386
G1 X102.692 Y105.756 E3.77581
G1 X103.482 Y105.756 E3.78468
G1 X103.895 Y106.471 E3.79393
G1 X103.599 Y106.983 E3.80056
G1 X103.778 Y107.119 E3.80307
G1 X104.366 Y107.363 E3.81022
G1 X104.431 Y107.371 E3.81094
G1 X104.817 Y106.701 E3.81961
G1 X105.642 Y106.701 E3.82886
G1 X105.949 Y107.232 E3.83574
G1 X106.222 Y107.119 E3.83905
G1 X106.727 Y106.733 E3.84618
G1 X106.351 Y106.082 E3.85460
G1 X106.764 Y105.368 E3.86385
G1 X107.421 Y105.368 E3.87121
G1 X107.490 Y104.976 E3.87567
G1 X107.385 Y104.445 E3.88174
G1 X106.672 Y104.445 E3.88974
G1 X106.259 Y103.730 E3.89898
G1 X106.588 Y103.161 E3.90636
G1 X106.222 Y102.881 E3.91152
G1 Z0.500 F7800.000
G1 E1.91152 F2400.00000
G92 E0
G1 X111.464 Y107.434 F7800.000
G1 E2.00000 F2400.00000
G1 F900
G1 X111.464 Y111.464 E2.16787
G1 X98.536 Y111.464 E2.70631
G1 X98.536 Y107.434 E2.87418
G1 X101.165 Y107.435 E2.98367
G1 X101.861 Y108.287 E3.02948
G1 X102.809 Y108.983 E3.07848
G1 X103.862 Y109.403 E3.12569
G1 X105.000 Y109.548 E3.17347
G1 X106.138 Y109.403 E3.22124
G1 X107.191 Y108.983 E3.26846
G1 X108.139 Y108.287 E3.31745
G1 X108.835 Y107.435 E3.36326
G1 X111.389 Y107.434 E3.46963
G1 X112.132 Y106.765 F7800.000
G1 F3600
G1 X112.132 Y112.132 E3.69314
G1 X97.868 Y112.132 E4.28720
G1 X97.868 Y106.765 E4.51071
G1 X101.584 Y106.767 E4.66547
G1 X101.717 Y107.056 E4.67870
G1 X102.329 Y107.804 E4.71896
G1 X103.130 Y108.392 E4.76034
G1 X104.031 Y108.751 E4.80072
G1 X105.000 Y108.875 E4.84142
G1 X105.969 Y108.751 E4.88212
G1 X106.870 Y108.392 E4.92250
G1 X107.671 Y107.804 E4.96389
G1 X108.283 Y107.056 E5.00414
G1 X108.416 Y106.767 E5.01737
G1 X112.057 Y106.765 E5.16900
G1 X112.725 Y106.172 F7800.000
G1 F1800
G1 X112.725 Y112.725 E5.38061
G1 X97.275 Y112.725 E5.87952
G1 X97.275 Y106.172 E6.09112
G1 X101.963 Y106.175 E6.24249
G1 X102.224 Y106.739 E6.26256
G1 X102.744 Y107.376 E6.28913
G1 X103.415 Y107.868 E6.31598
G1 X104.180 Y108.173 E6.34259
G1 X105.000 Y108.277 E6.36927
G1 X105.820 Y108.173 E6.39596
G1 X106.585 Y107.868 E6.42257
G1 X107.256 Y107.376 E6.44942
G1 X107.776 Y106.739 E6.47599
G1 X108.037 Y106.175 E6.49606
G1 X112.650 Y106.172 E6.64501
G1 X112.492 Y106.614 F7800.000
G1 X111.056 Y108.362 F7800.000
G1 F1200
G1 X110.537 Y107.842 E6.67587
G1 X109.585 Y107.843 E6.71586
G1 X111.056 Y109.314 E6.80327
G1 X111.056 Y110.267 E6.84328
G1 X108.776 Y107.986 E6.97876
G1 X108.347 Y108.510 E7.00719
G1 X110.893 Y111.056 E7.15845
G1 X109.941 Y111.056 E7.19846
G1 X107.799 Y108.915 E7.32568
G1 X107.248 Y109.316 E7.35432
G1 X108.988 Y111.056 E7.45770
G1 X108.036 Y111.056 E7.49771
G1 X106.567 Y109.588 E7.58495
G1 X106.047 Y109.795 E7.60848
G1 X105.848 Y109.821 E7.61691
G1 X107.083 Y111.056 E7.69032
G1 X106.131 Y111.056 E7.73033
G1 X105.003 Y109.928 E7.79735
G1 X104.740 Y109.961 E7.80846
G1 X103.988 Y109.866 E7.84032
G1 X105.178 Y111.056 E7.91104
G1 X104.226 Y111.056 E7.95105
G1 X102.654 Y109.484 E8.04445
G1 X102.223 Y109.312 E8.06393
G1 X101.138 Y108.515 E8.12048
G1 X100.588 Y107.843 E8.15695
G1 X100.060 Y107.843 E8.17915
G1 X103.273 Y111.056 E8.37005
G1 X102.321 Y111.056 E8.41006
G1 X99.107 Y107.842 E8.60099
G1 X98.944 Y107.842 E8.60784
G1 X98.944 Y108.632 E8.64101
G1 X101.368 Y111.056 E8.78503
G1 X100.416 Y111.056 E8.82504
G1 X98.944 Y109.584 E8.91249
G1 X98.944 Y110.537 E8.95250
G1 X99.463 Y111.056 E8.98335
G1 E6.98335 F2400.00000
G92 E0
G1 X111.464 Y102.565 F7800.000
G1 E2.00000 F2400.00000
G1 F900
G1 X108.833 Y102.562 E2.10960
G1 X108.139 Y101.713 E2.15525
G1 X107.191 Y101.017 E2.20424
G1 X106.138 Y100.597 E2.25146
G1 X105.000 Y100.452 E2.29923
G1 X103.862 Y100.597 E2.34701
G1 X102.809 Y101.017 E2.39422
G1 X101.861 Y101.713 E2.44321
G1 X101.166 Y102.563 E2.48894
G1 X98.536 Y102.566 E2.59849
G1 X98.536 Y98.536 E2.76634
G1 X111.464 Y98.536 E3.30477
G1 X111.464 Y102.490 E3.46947
G1 X112.132 Y103.234 F7800.000
G1 F3600
G1 X108.415 Y103.229 E3.62428
G1 X108.283 Y102.944 E3.63738
G1 X107.671 Y102.196 E3.67762
G1 X106.870 Y101.608 E3.71901
G1 X105.969 Y101.249 E3.75939
G1 X105.000 Y101.125 E3.80009
G1 X104.031 Y101.249 E3.84079
G1 X103.130 Y101.608 E3.88117
G1 X102.329 Y102.196 E3.92255
