; generated by Slic3r 1.3.0 on 2021-06-14 at 19:03:13

; external perimeters extrusion width = 0.55mm (2.33mm^3/s)
; perimeters extrusion width = 0.70mm (6.01mm^3/s)
; infill extrusion width = 0.62mm (7.11mm^3/s)
; solid infill extrusion width = 0.70mm (2.00mm^3/s)
; top infill extrusion width = 0.70mm (1.50mm^3/s)
; support material extrusion width = 0.55mm (4.66mm^3/s)

M107
M190 S60 ; set bed temperature and wait for it to be reached
M104 S200 ; set temperature
G28 ; home all axes
G1 Z5 F5000 ; lift nozzle

; Filament gcode

M109 S200 ; set temperature and wait for it to be reached
G21 ; set units to millimeters
G90 ; use absolute coordinates
M82 ; use absolute distances for extrusion
G92 E0
G1 Z0.350 F7800.000
G1 E-2.00000 F2400.00000
G92 E0
G1 X91.915 Y92.753 F7800.000
G1 E2.00000 F2400.00000
G1 F1800
G1 X93.668 Y91.274 E2.20854
G1 X95.820 Y90.481 E2.41708
G1 X97.000 Y90.375 E2.52479
G1 X113.000 Y90.375 E3.97967
G1 X115.259 Y90.772 E4.18821
G1 X117.247 Y91.915 E4.39675
G1 X118.726 Y93.668 E4.60529
G1 X119.519 Y95.820 E4.81384
G1 X119.625 Y97.000 E4.92155
G1 X119.625 Y113.000 E6.37642
G1 X119.228 Y115.259 E6.58496
G1 X118.085 Y117.247 E6.79350
G1 X116.332 Y118.726 E7.00205
G1 X114.180 Y119.519 E7.21059
G1 X113.000 Y119.625 E7.31830
G1 X97.000 Y119.625 E8.77317
G1 X94.741 Y119.228 E8.98171
G1 X92.753 Y118.085 E9.19026
G1 X91.274 Y116.332 E9.39880
G1 X90.481 Y114.180 E9.60734
G1 X90.375 Y113.000 E9.71505
G1 X90.375 Y97.000 E11.16992
G1 X90.772 Y94.741 E11.37846
G1 X91.878 Y92.818 E11.58019
G1 E9.58019 F2400.00000
G92 E0
G1 X93.667 Y94.504 F7800.000
G1 E2.00000 F2400.00000
G1 F1800
G1 X95.293 Y92.878 E2.20914
G1 X114.707 Y92.878 E3.97483
G1 X117.122 Y95.293 E4.28539
G1 X117.122 Y114.707 E6.05108
G1 X114.707 Y117.122 E6.36164
G1 X95.293 Y117.122 E8.12733
G1 X92.878 Y114.707 E8.43788
G1 X92.878 Y95.293 E10.20357
G1 X93.613 Y94.557 E10.29817
G1 X94.108 Y94.946 F7800.000
G1 F1800
G1 X95.552 Y93.503 E10.48377
G1 X114.448 Y93.503 E12.20237
G1 X116.497 Y95.552 E12.46584
G1 X116.497 Y114.448 E14.18444
G1 X114.448 Y116.497 E14.44790
G1 X95.552 Y116.497 E16.16651
G1 X93.503 Y114.448 E16.42997
G1 X93.503 Y95.552 E18.14857
G1 X94.055 Y94.999 E18.21962
G1 X94.550 Y95.388 F7800.000
G1 F1800
G1 X95.810 Y94.128 E18.38168
G1 X114.190 Y94.128 E20.05319
G1 X115.872 Y95.810 E20.26957
G1 X115.872 Y114.190 E21.94108
G1 X114.190 Y115.872 E22.15746
G1 X95.810 Y115.872 E23.82898
G1 X94.128 Y114.190 E24.04536
G1 X94.128 Y95.810 E25.71687
G1 X94.497 Y95.441 E25.76437
G1 X94.992 Y95.830 F7800.000
G1 F1800
G1 X96.069 Y94.753 E25.90288
G1 X113.931 Y94.753 E27.52731
G1 X115.247 Y96.069 E27.69660
G1 X115.247 Y113.931 E29.32102
G1 X113.931 Y115.247 E29.49031
G1 X96.069 Y115.247 E31.11474
G1 X94.753 Y113.931 E31.28403
G1 X94.753 Y96.069 E32.90845
G1 X94.939 Y95.883 E32.93241
G1 X95.434 Y96.272 F7800.000
G1 F1800
G1 X96.328 Y95.378 E33.04738
G1 X104.696 Y95.378 E33.80837
G1 X104.864 Y95.547 E33.83005
G1 X105.136 Y95.547 E33.85479
G1 X105.305 Y95.378 E33.87650
G1 X113.672 Y95.378 E34.63744
G1 X114.622 Y96.328 E34.75964
G1 X114.622 Y113.672 E36.33697
G1 X113.672 Y114.622 E36.45918
G1 X105.305 Y114.622 E37.22012
G1 X105.136 Y114.453 E37.24182
G1 X104.864 Y114.453 E37.26656
G1 X104.696 Y114.622 E37.28825
G1 X96.328 Y114.622 E38.04924
G1 X95.378 Y113.672 E38.17144
G1 X95.381 Y96.325 E39.74907
G1 E37.74907 F2400.00000
G92 E0
G1 X105.136 Y96.431 F7800.000
G1 E2.00000 F2400.00000
G1 F1800
G1 X105.564 Y96.003 E2.05506
G1 X113.413 Y96.003 E2.76890
G1 X113.997 Y96.587 E2.84401
G1 X113.997 Y113.413 E4.37426
G1 X113.413 Y113.997 E4.44937
G1 X105.564 Y113.997 E5.16322
G1 X105.136 Y113.569 E5.21827
G1 X104.864 Y113.569 E5.24301
G1 X104.436 Y113.997 E5.29803
G1 X96.587 Y113.997 E6.01190
G1 X96.003 Y113.413 E6.08701
G1 X96.003 Y96.587 E7.61726
G1 X96.587 Y96.003 E7.69237
G1 X104.436 Y96.003 E8.40625
G1 X104.864 Y96.431 E8.46126
G1 X105.061 Y96.431 E8.47918
G1 E6.47918 F2400.00000
G92 E0
G1 X104.389 Y101.951 F7800.000
G1 E2.00000 F2400.00000
G1 F1800
G1 X104.638 Y102.148 E2.02887
G1 X104.871 Y102.093 E2.05063
G1 X105.121 Y102.093 E2.07339
G1 X105.358 Y102.148 E2.09552
G1 X105.607 Y101.951 E2.12436
G1 X105.605 Y96.846 E2.58864
G1 X105.823 Y96.628 E2.61667
G1 X113.154 Y96.628 E3.28342
G1 X113.372 Y96.846 E3.31144
G1 X113.372 Y113.154 E4.79460
G1 X113.154 Y113.372 E4.82263
G1 X105.823 Y113.372 E5.48937
G1 X105.605 Y113.154 E5.51741
G1 X105.607 Y108.039 E5.98257
G1 X105.358 Y107.842 E6.01140
G1 X105.059 Y107.907 E6.03929
G1 X104.582 Y107.907 E6.08269
G1 X104.389 Y108.099 E6.10741
G1 X104.395 Y113.154 E6.56709
G1 X104.177 Y113.372 E6.59515
G1 X96.846 Y113.372 E7.26191
G1 X96.628 Y113.154 E7.28994
G1 X96.628 Y96.846 E8.77309
G1 X96.846 Y96.628 E8.80112
G1 X104.177 Y96.628 E9.46788
G1 X104.395 Y96.846 E9.49594
G1 X104.389 Y101.876 E9.95335
G1 E7.95335 F2400.00000
G92 E0
G1 X112.650 Y112.650 F7800.000
G1 E2.00000 F2400.00000
G1 F1800
G1 X106.327 Y112.650 E2.57494
G1 X106.329 Y108.105 E2.98821
G1 X106.839 Y107.858 E3.03974
G1 X107.484 Y107.319 E3.11622
G1 X107.984 Y106.628 E3.19381
G1 X108.294 Y105.841 E3.27073
G1 X108.400 Y105.000 E3.34776
G1 X108.294 Y104.159 E3.42479
G1 X107.984 Y103.372 E3.50172
G1 X107.484 Y102.681 E3.57931
G1 X106.839 Y102.142 E3.65578
G1 X106.329 Y101.895 E3.70732
G1 X106.327 Y97.350 E4.12058
G1 X112.650 Y97.350 E4.69552
G1 X112.650 Y112.575 E6.07993
G1 X112.188 Y112.459 F7800.000
G1 X112.025 Y112.025 F7800.000
G1 F1800
G1 X106.952 Y112.025 E6.54121
G1 X106.953 Y108.497 E6.86200
G1 X107.180 Y108.387 E6.88492
G1 X107.938 Y107.754 E6.97470
G1 X108.538 Y106.928 E7.06758
G1 X108.904 Y105.996 E7.15858
G1 X109.030 Y105.000 E7.24989
G1 X108.904 Y104.004 E7.34120
G1 X108.538 Y103.072 E7.43221
G1 X107.938 Y102.246 E7.52509
G1 X107.180 Y101.613 E7.61487
G1 X106.953 Y101.503 E7.63779
G1 X106.952 Y97.975 E7.95858
G1 X112.025 Y97.975 E8.41986
G1 X112.025 Y111.950 E9.69062
G1 X111.400 Y111.400 F7800.000
G1 F1800
G1 X107.577 Y111.400 E10.03824
G1 X107.578 Y108.869 E10.26836
G1 X108.392 Y108.190 E10.36476
G1 X109.091 Y107.228 E10.47293
G1 X109.515 Y106.152 E10.57802
G1 X109.659 Y105.000 E10.68361
G1 X109.515 Y103.848 E10.78919
G1 X109.091 Y102.772 E10.89428
G1 X108.392 Y101.810 E11.00246
G1 X107.578 Y101.131 E11.09885
G1 X107.577 Y98.600 E11.32898
G1 X111.400 Y98.600 E11.67659
G1 X111.400 Y111.325 E12.83371
G1 X110.532 Y111.018 F7800.000
G1 F1800
G1 X111.018 Y110.532 E12.90033
G1 X111.018 Y109.591 E12.99154
G1 X109.591 Y111.018 E13.18716
G1 X108.649 Y111.018 E13.27838
G1 X111.018 Y108.649 E13.60299
G1 X111.018 Y107.708 E13.69421
G1 X107.959 Y110.766 E14.11332
G1 X107.960 Y109.825 E14.20457
G1 X111.018 Y106.766 E14.62362
G1 X111.018 Y105.824 E14.71484
G1 X109.616 Y107.227 E14.90702
G1 X109.882 Y106.551 E14.97742
G1 X109.958 Y105.943 E15.03677
G1 X111.018 Y104.883 E15.18203
G1 X111.018 Y103.941 E15.27325
G1 X110.009 Y104.950 E15.41150
G1 X109.904 Y104.114 E15.49318
G1 X111.018 Y103.000 E15.64582
G1 X111.018 Y102.058 E15.73704
G1 X109.673 Y103.404 E15.92141
G1 X109.407 Y102.728 E15.99176
G1 X111.018 Y101.117 E16.21256
G1 X111.018 Y100.175 E16.30377
G1 X109.013 Y102.180 E16.57847
G1 X108.617 Y101.635 E16.64377
G1 X111.018 Y99.233 E16.97278
G1 X111.018 Y98.982 E16.99718
G1 X110.329 Y98.982 E17.06400
G1 X108.107 Y101.204 E17.36846
G1 X107.960 Y101.081 E17.38696
G1 X107.960 Y100.409 E17.45209
G1 X109.387 Y98.982 E17.64766
G1 X108.446 Y98.982 E17.73888
G1 X107.960 Y99.468 E17.80547
G1 E15.80547 F2400.00000
G92 E0
G1 X103.673 Y112.650 F7800.000
G1 E2.00000 F2400.00000
G1 F1800
G1 X97.350 Y112.650 E2.57492
G1 X97.350 Y97.350 E3.96614
G1 X103.672 Y97.350 E4.54104
G1 X103.667 Y101.896 E4.95444
G1 X103.161 Y102.142 E5.00560
G1 X102.516 Y102.681 E5.08206
G1 X102.016 Y103.372 E5.15966
G1 X101.706 Y104.159 E5.23658
G1 X101.600 Y105.000 E5.31361
G1 X101.706 Y105.841 E5.39064
G1 X102.016 Y106.628 E5.46757
G1 X102.516 Y107.319 E5.54516
G1 X103.161 Y107.858 E5.62162
G1 X103.668 Y108.104 E5.67281
G1 X103.673 Y112.575 E6.07938
G1 X103.231 Y112.416 F7800.000
G1 X103.047 Y112.025 F7800.000
G1 F1800
G1 X97.975 Y112.025 E6.54059
G1 X97.975 Y97.975 E7.81817
G1 X103.047 Y97.975 E8.27934
G1 X103.042 Y101.505 E8.60030
G1 X102.819 Y101.613 E8.62283
G1 X102.062 Y102.246 E8.71258
G1 X101.462 Y103.072 E8.80546
G1 X101.096 Y104.004 E8.89647
G1 X100.970 Y105.000 E8.98778
G1 X101.096 Y105.996 E9.07909
G1 X101.462 Y106.928 E9.17009
G1 X102.062 Y107.754 E9.26297
G1 X102.819 Y108.387 E9.35272
G1 X103.043 Y108.496 E9.37533
G1 X103.047 Y111.950 E9.68944
G1 X102.421 Y111.400 F7800.000
G1 F1800
G1 X98.600 Y111.400 E10.03695
G1 X98.600 Y98.600 E11.20089
G1 X102.421 Y98.600 E11.54831
G1 X102.417 Y101.134 E11.77877
G1 X101.608 Y101.810 E11.87465
G1 X100.909 Y102.772 E11.98282
G1 X100.485 Y103.848 E12.08791
G1 X100.341 Y105.000 E12.19350
G1 X100.485 Y106.152 E12.29908
G1 X100.909 Y107.228 E12.40417
G1 X101.608 Y108.190 E12.51235
G1 X102.419 Y108.867 E12.60837
G1 X102.421 Y111.325 E12.83191
G1 X101.553 Y111.018 F7800.000
G1 F1800
G1 X102.039 Y110.532 E12.89852
G1 X102.038 Y109.592 E12.98961
G1 X100.611 Y111.018 E13.18505
G1 X99.670 Y111.018 E13.27625
G1 X101.893 Y108.796 E13.58076
G1 X101.382 Y108.364 E13.64547
G1 X98.982 Y110.765 E13.97436
G1 X98.982 Y109.824 E14.06556
G1 X100.986 Y107.819 E14.34015
G1 X100.593 Y107.271 E14.40551
G1 X98.982 Y108.882 E14.62624
G1 X98.982 Y107.941 E14.71743
G1 X100.327 Y106.595 E14.90174
G1 X100.118 Y106.065 E14.95698
G1 X100.096 Y105.885 E14.97450
G1 X98.982 Y106.999 E15.12712
G1 X98.982 Y106.058 E15.21832
G1 X99.991 Y105.049 E15.35654
G1 X99.954 Y104.757 E15.38505
G1 X100.042 Y104.056 E15.45346
G1 X98.982 Y105.116 E15.59872
G1 X98.982 Y104.175 E15.68992
G1 X100.385 Y102.772 E15.88212
G1 X100.599 Y102.226 E15.93892
G1 X101.391 Y101.137 E16.06937
G1 X102.036 Y100.599 E16.15068
G1 X102.036 Y100.180 E16.19132
G1 X98.982 Y103.234 E16.60970
G1 X98.982 Y102.292 E16.70090
G1 X102.037 Y99.237 E17.11950
G1 X102.038 Y98.982 E17.14419
G1 X101.351 Y98.982 E17.21073
G1 X98.982 Y101.351 E17.53528
G1 X98.982 Y100.409 E17.62648
G1 X100.409 Y98.982 E17.82206
G1 X99.468 Y98.982 E17.91325
G1 X98.982 Y99.468 E17.97984
G1 Z0.350 F7800.000
G1 E15.97984 F2400.00000
G92 E0
G1 X104.997 Y102.815 F7800.000
G1 E2.00000 F2400.00000
G1 F1800
G1 X105.978 Y103.301 E2.07563
G1 X104.021 Y103.301 E2.21086
G1 X103.904 Y103.354 E2.21974
G1 X103.544 Y103.660 E2.25243
G1 X103.454 Y103.786 E2.26310
G1 X106.546 Y103.786 E2.47671
G1 X106.739 Y104.058 E2.49975
G1 X106.822 Y104.272 E2.51561
G1 X103.178 Y104.272 E2.76745
G1 X103.084 Y104.512 E2.78529
G1 X103.054 Y104.757 E2.80234
G1 X104.321 Y104.757 E2.88992
G1 X104.274 Y105.000 E2.90701
G1 X104.321 Y105.243 E2.92410
G1 X103.054 Y105.243 E3.01168
G1 X103.084 Y105.488 E3.02873
G1 X103.178 Y105.728 E3.04657
G1 X106.822 Y105.728 E3.29841
G1 X106.739 Y105.942 E3.31426
G1 X106.546 Y106.214 E3.33731
G1 X103.454 Y106.214 E3.55092
G1 X103.544 Y106.340 E3.56159
G1 X103.904 Y106.646 E3.59428
G1 X104.021 Y106.699 E3.60316
G1 X105.978 Y106.699 E3.73838
G1 X104.997 Y107.185 E3.81404
G1 E1.81404 F2400.00000
G92 E0
G1 X105.683 Y105.243 F7800.000
G1 E2.00000 F2400.00000
G1 F1800
G1 X106.946 Y105.243 E2.08730
G1 X106.976 Y105.000 E2.10421
G1 X106.946 Y104.757 E2.12111
G1 X105.683 Y104.757 E2.20841
G1 X105.570 Y104.545 E2.22501
G1 X105.455 Y104.430 E2.23629
G1 X105.317 Y104.343 E2.24757
G1 X105.162 Y104.289 E2.25885
G1 X105.012 Y104.272 E2.26933
G1 X104.812 Y104.298 E2.28326
G1 X104.637 Y104.371 E2.29636
G1 X104.486 Y104.486 E2.30947
G1 X104.371 Y104.637 E2.32257
G1 X104.321 Y104.757 E2.33158
M140 S0 ; set bed temperature
G1 Z0.400 F7800.000
G1 X104.283 Y103.232 F7800.000
G1 F3600
G1 X103.999 Y102.741 E2.33795
G1 X103.743 Y102.847 E2.34106
G1 X103.221 Y103.257 E2.34850
G1 X103.599 Y103.913 E2.35699
G1 X103.187 Y104.628 E2.36624
G1 X102.556 Y104.628 E2.37331
G1 X102.507 Y105.000 E2.37752
G1 X102.582 Y105.568 E2.38395
G1 X103.280 Y105.568 E2.39177
G1 X103.692 Y106.283 E2.40102
G1 X103.360 Y106.859 E2.40848
G1 X103.743 Y107.153 E2.41389
G1 X103.835 Y107.195 E2.41502
G1 X104.192 Y107.339 E2.41934
G1 X104.497 Y106.810 E2.42618
G1 X105.322 Y106.810 E2.43543
G1 X105.661 Y107.398 E2.44304
G1 X106.258 Y107.152 E2.45027
G1 X106.505 Y106.962 E2.45377
G1 X106.196 Y106.428 E2.46069
G1 X106.609 Y105.713 E2.46994
G1 X107.380 Y105.713 E2.47859
G1 X107.408 Y105.646 E2.47940
G1 X107.493 Y105.000 E2.48670
G1 X107.466 Y104.796 E2.48901
G1 X106.883 Y104.796 E2.49554
G1 X106.471 Y104.082 E2.50479
G1 X106.875 Y103.382 E2.51385
G1 X106.749 Y103.224 E2.51612
G1 X106.258 Y102.848 E2.52305
G1 X106.163 Y102.805 E2.52422
G1 X105.896 Y103.267 E2.53020
G1 X105.071 Y103.267 E2.53945
G1 X105.051 Y103.232 E2.53989
G1 X104.283 Y103.232 E2.54851
G1 Z0.500 F7800.000
G1 E0.54851 F2400.00000
G92 E0
G1 X107.434 Y111.464 F7800.000
G1 E2.00000 F2400.00000
G1 F900
G1 X107.435 Y108.894 E2.10706
G1 X108.316 Y108.177 E2.15435
G1 X109.021 Y107.220 E2.20387
G1 X109.448 Y106.152 E2.25174
G1 X109.595 Y105.000 E2.30012
G1 X109.448 Y103.848 E2.34851
G1 X109.021 Y102.780 E2.39638
G1 X108.316 Y101.823 E2.44590
G1 X107.435 Y101.106 E2.49319
G1 X107.434 Y98.536 E2.60025
G1 X111.464 Y98.536 E2.76812
G1 X111.464 Y111.464 E3.30655
G1 X107.509 Y111.464 E3.47130
G1 X106.765 Y112.132 F7800.000
G1 F3600
G1 X106.768 Y108.468 E3.62391
G1 X107.072 Y108.328 E3.63785
G1 X107.834 Y107.708 E3.67875
G1 X108.431 Y106.898 E3.72069
G1 X108.796 Y105.984 E3.76168
G1 X108.922 Y105.000 E3.80298
G1 X108.796 Y104.016 E3.84427
G1 X108.431 Y103.102 E3.88527
G1 X107.834 Y102.292 E3.92720
G1 X107.072 Y101.672 E3.96810
G1 X106.768 Y101.532 E3.98205
G1 X106.765 Y97.868 E4.13466
G1 X112.132 Y97.868 E4.35816
G1 X112.132 Y112.132 E4.95223
G1 X106.840 Y112.132 E5.17261
G1 X106.172 Y112.725 F7800.000
G1 F1800
G1 X106.175 Y108.087 E5.32237
G1 X106.756 Y107.821 E5.34302
G1 X107.406 Y107.292 E5.37006
G1 X107.907 Y106.612 E5.39735
G1 X108.218 Y105.834 E5.42441
G1 X108.324 Y105.000 E5.45155
G1 X108.218 Y104.166 E5.47868
G1 X107.907 Y103.388 E5.50575
G1 X107.406 Y102.708 E5.53304
G1 X106.756 Y102.179 E5.56007
G1 X106.175 Y101.913 E5.58072
G1 X106.172 Y97.275 E5.73048
G1 X112.725 Y97.275 E5.94209
G1 X112.725 Y112.725 E6.44100
G1 X106.247 Y112.725 E6.65018
G1 X106.239 Y112.229 F7800.000
G1 X108.362 Y111.056 F7800.000
G1 F1200
G1 X107.842 Y110.537 E6.68103
G1 X107.843 Y109.585 E6.72102
G1 X109.314 Y111.056 E6.80843
G1 X110.267 Y111.056 E6.84843
G1 X108.019 Y108.809 E6.98195
G1 X108.544 Y108.381 E7.01039
G1 X111.056 Y110.893 E7.15962
G1 X111.056 Y109.941 E7.19963
G1 X108.948 Y107.833 E7.32486
G1 X109.351 Y107.283 E7.35348
G1 X111.056 Y108.988 E7.45476
G1 X111.056 Y108.036 E7.49477
G1 X109.623 Y106.603 E7.57988
G1 X109.840 Y106.062 E7.60437
G1 X109.862 Y105.889 E7.61168
G1 X111.056 Y107.083 E7.68262
G1 X111.056 Y106.131 E7.72263
G1 X109.970 Y105.044 E7.78717
G1 X110.009 Y104.740 E7.80004
G1 X109.919 Y104.041 E7.82963
G1 X111.056 Y105.178 E7.89717
G1 X111.056 Y104.226 E7.93718
G1 X109.567 Y102.737 E8.02563
G1 X109.350 Y102.193 E8.05021
G1 X108.544 Y101.099 E8.10731
G1 X107.843 Y100.529 E8.14524
G1 X107.843 Y100.060 E8.16495
G1 X111.056 Y103.273 E8.35583
G1 X111.056 Y102.321 E8.39584
G1 X107.842 Y99.107 E8.58676
G1 X107.842 Y98.944 E8.59361
G1 X108.632 Y98.944 E8.62678
G1 X111.056 Y101.368 E8.77080
G1 X111.056 Y100.416 E8.81081
G1 X109.584 Y98.944 E8.89825
G1 X110.537 Y98.944 E8.93826
G1 X111.056 Y99.463 E8.96912
G1 E6.96912 F2400.00000
G92 E0
G1 X102.566 Y111.464 F7800.000
G1 E2.00000 F2400.00000
G1 F900
G1 X98.536 Y111.464 E2.16784
G1 X98.536 Y98.536 E2.70628
G1 X102.566 Y98.536 E2.87412
G1 X102.563 Y101.108 E2.98124
G1 X101.684 Y101.823 E3.02843
G1 X100.979 Y102.780 E3.07795
G1 X100.552 Y103.848 E3.12582
G1 X100.405 Y105.000 E3.17420
G1 X100.552 Y106.152 E3.22259
G1 X100.979 Y107.220 E3.27045
G1 X101.684 Y108.177 E3.31998
G1 X102.563 Y108.893 E3.36719
G1 X102.566 Y111.389 E3.47118
G1 X103.234 Y112.132 F7800.000
G1 F3600
G1 X97.868 Y112.132 E3.69467
G1 X97.868 Y97.868 E4.28873
G1 X103.234 Y97.868 E4.51222
G1 X103.230 Y101.533 E4.66486
G1 X102.928 Y101.672 E4.67873
G1 X102.166 Y102.292 E4.71963
G1 X101.569 Y103.102 E4.76156
G1 X101.204 Y104.016 E4.80256
