; generated by Slic3r 1.3.0 on 2021-06-12 at 21:01:22

; external perimeters extrusion width = 0.55mm (2.33mm^3/s)
; perimeters extrusion width = 0.70mm (6.01mm^3/s)
; infill extrusion width = 0.62mm (7.11mm^3/s)
; solid infill extrusion width = 0.70mm (2.00mm^3/s)
; top infill extrusion width = 0.70mm (1.50mm^3/s)
; support material extrusion width = 0.55mm (4.66mm^3/s)

M107
M190 S60 ; set bed temperature and wait for it to be reached
M104 S200 ; set temperature
G28 ; home all axes
G1 Z5 F5000 ; lift nozzle

; Filament gcode

M109 S200 ; set temperature and wait for it to be reached
G21 ; set units to millimeters
G90 ; use absolute coordinates
M82 ; use absolute distances for extrusion
G92 E0
G1 Z0.350 F7800.000
G1 E-2.00000 F2400.00000
G92 E0
G1 X91.915 Y97.753 F7800.000
G1 E2.00000 F2400.00000
G1 F1800
G1 X93.668 Y96.274 E2.20854
G1 X95.820 Y95.481 E2.41708
G1 X97.000 Y95.375 E2.52479
G1 X113.000 Y95.375 E3.97967
G1 X115.259 Y95.772 E4.18821
G1 X117.247 Y96.915 E4.39675
G1 X118.726 Y98.668 E4.60529
G1 X119.519 Y100.820 E4.81384
G1 X119.625 Y102.000 E4.92155
G1 X119.625 Y110.664 E5.70935
G1 X119.228 Y112.923 E5.91789
G1 X118.085 Y114.911 E6.12643
G1 X116.332 Y116.390 E6.33497
G1 X113.083 Y117.288 E6.64149
G1 X96.917 Y117.288 E8.11142
G1 X94.664 Y116.863 E8.31996
G1 X92.690 Y115.695 E8.52850
G1 X91.233 Y113.924 E8.73704
G1 X90.375 Y110.664 E9.04356
G1 X90.375 Y102.000 E9.83136
G1 X90.772 Y99.741 E10.03990
G1 X91.878 Y97.818 E10.24163
G1 E8.24163 F2400.00000
G92 E0
G1 X105.137 Y113.597 F7800.000
G1 E2.00000 F2400.00000
G1 F1800
G1 X104.863 Y113.597 E2.02484
G1 X103.727 Y114.742 E2.17154
G1 X97.010 Y114.786 E2.78243
G1 X95.256 Y114.764 E2.94190
G1 X92.878 Y112.356 E3.24972
G1 X92.878 Y100.293 E4.34685
G1 X95.293 Y97.878 E4.65740
G1 X114.707 Y97.878 E6.42309
G1 X117.122 Y100.293 E6.73365
G1 X117.122 Y112.356 E7.83078
G1 X114.744 Y114.764 E8.13860
G1 X112.990 Y114.786 E8.29807
G1 X106.273 Y114.742 E8.90896
G1 X105.189 Y113.650 E9.04884
G1 X105.137 Y112.710 F7800.000
G1 F1800
G1 X104.863 Y112.710 E9.07368
G1 X103.465 Y114.118 E9.25417
G1 X97.008 Y114.161 E9.84135
G1 X95.521 Y114.143 E9.97667
G1 X93.503 Y112.100 E10.23781
G1 X93.503 Y100.552 E11.28806
G1 X95.552 Y98.503 E11.55153
G1 X114.448 Y98.503 E13.27013
G1 X116.497 Y100.552 E13.53360
G1 X116.497 Y112.100 E14.58385
G1 X114.479 Y114.143 E14.84499
G1 X112.992 Y114.161 E14.98031
G1 X106.535 Y114.118 E15.56750
G1 X105.189 Y112.764 E15.74116
G1 X105.137 Y111.824 F7800.000
G1 F1800
G1 X104.863 Y111.824 E15.76600
G1 X103.203 Y113.495 E15.98027
G1 X97.007 Y113.536 E16.54375
G1 X95.785 Y113.521 E16.65492
G1 X94.128 Y111.843 E16.86939
G1 X94.128 Y100.810 E17.87275
G1 X95.810 Y99.128 E18.08913
G1 X114.190 Y99.128 E19.76065
G1 X115.872 Y100.810 E19.97703
G1 X115.872 Y111.843 E20.98039
G1 X114.215 Y113.521 E21.19487
G1 X113.020 Y113.536 E21.30354
G1 X106.797 Y113.495 E21.86951
G1 X105.189 Y111.877 E22.07696
G1 E20.07696 F2400.00000
G92 E0
G1 X104.247 Y109.439 F7800.000
G1 E2.00000 F2400.00000
G1 F1800
G1 X104.247 Y111.557 E2.19263
G1 X102.941 Y112.872 E2.36113
G1 X97.006 Y112.911 E2.90091
G1 X96.049 Y112.899 E2.98792
G1 X94.753 Y111.586 E3.15572
G1 X94.753 Y101.069 E4.11221
G1 X96.069 Y99.753 E4.28150
G1 X113.931 Y99.753 E5.90592
G1 X115.247 Y101.069 E6.07521
G1 X115.247 Y111.586 E7.03170
G1 X113.951 Y112.899 E7.19950
G1 X112.994 Y112.911 E7.28651
G1 X107.059 Y112.872 E7.82629
G1 X105.753 Y111.557 E7.99479
G1 X105.753 Y109.439 E8.18742
G1 X105.561 Y109.247 E8.21214
G1 X104.439 Y109.247 E8.31415
G1 X104.300 Y109.386 E8.33205
G1 X103.622 Y108.814 F7800.000
G1 F1800
G1 X103.622 Y111.300 E8.55808
G1 X102.679 Y112.248 E8.67972
G1 X96.314 Y112.277 E9.25864
G1 X95.378 Y111.330 E9.37977
G1 X95.378 Y101.328 E10.28937
G1 X96.328 Y100.378 E10.41157
G1 X113.672 Y100.378 E11.98891
G1 X114.622 Y101.328 E12.11111
G1 X114.622 Y111.330 E13.02072
G1 X113.686 Y112.277 E13.14184
G1 X107.321 Y112.248 E13.72076
G1 X106.378 Y111.300 E13.84240
G1 X106.378 Y108.814 E14.06843
G1 X106.186 Y108.622 E14.09316
G1 X103.814 Y108.622 E14.30884
G1 X103.675 Y108.761 E14.32674
G1 X103.189 Y107.997 F7800.000
G1 F1800
G1 X102.997 Y108.189 E14.35146
G1 X102.997 Y111.042 E14.61091
G1 X102.418 Y111.625 E14.68567
G1 X96.578 Y111.656 E15.21674
G1 X96.003 Y111.073 E15.29120
G1 X96.003 Y101.587 E16.15392
G1 X96.587 Y101.003 E16.22903
G1 X113.413 Y101.003 E17.75928
G1 X113.997 Y101.587 E17.83439
G1 X113.997 Y111.073 E18.69712
G1 X113.422 Y111.656 E18.77157
G1 X107.582 Y111.625 E19.30264
G1 X107.003 Y111.042 E19.37740
G1 X107.003 Y108.189 E19.63685
G1 X106.811 Y107.997 E19.66157
G1 X103.264 Y107.997 E19.98412
G1 X102.564 Y107.372 F7800.000
G1 F1800
G1 X102.372 Y107.564 E20.00884
G1 X102.372 Y110.784 E20.30169
G1 X102.156 Y111.002 E20.32958
G1 X96.843 Y111.034 E20.81280
G1 X96.628 Y110.817 E20.84058
G1 X96.628 Y101.846 E21.65642
G1 X96.846 Y101.628 E21.68445
G1 X113.154 Y101.628 E23.16761
G1 X113.372 Y101.846 E23.19563
G1 X113.372 Y110.817 E24.01147
G1 X113.157 Y111.034 E24.03925
G1 X107.844 Y111.002 E24.52247
G1 X107.628 Y110.784 E24.55037
G1 X107.628 Y107.564 E24.84322
G1 X107.436 Y107.372 E24.86794
G1 X102.639 Y107.372 E25.30417
G1 E23.30417 F2400.00000
G92 E0
G1 X108.350 Y106.650 F7800.000
G1 E2.00000 F2400.00000
G1 F1800
G1 X101.650 Y106.650 E2.60923
G1 X101.650 Y110.283 E2.93959
G1 X97.350 Y110.312 E3.33060
G1 X97.350 Y102.350 E4.05454
G1 X112.650 Y102.350 E5.44576
G1 X112.650 Y110.312 E6.16970
G1 X108.350 Y110.283 E6.56070
G1 X108.350 Y106.725 E6.88425
G1 X108.208 Y106.171 F7800.000
G1 X108.975 Y106.025 F7800.000
G1 F1800
G1 X101.025 Y106.025 E7.60712
G1 X101.025 Y109.662 E7.93785
G1 X97.975 Y109.683 E8.21522
G1 X97.975 Y102.975 E8.82514
G1 X112.025 Y102.975 E10.10272
G1 X112.025 Y109.683 E10.71264
G1 X108.975 Y109.662 E10.99000
G1 X108.975 Y106.100 E11.31392
G1 X109.600 Y105.400 F7800.000
G1 F1800
G1 X100.400 Y105.400 E12.15043
G1 X100.400 Y109.042 E12.48154
G1 X98.600 Y109.053 E12.64526
G1 X98.600 Y103.600 E13.14116
G1 X111.400 Y103.600 E14.30510
G1 X111.400 Y109.053 E14.80100
G1 X109.600 Y109.042 E14.96472
G1 X109.600 Y105.475 E15.28901
G1 E13.28901 F2400.00000
G92 E0
G1 X110.532 Y108.668 F7800.000
G1 E2.00000 F2400.00000
G1 F1800
G1 X111.018 Y108.181 E2.06555
G1 X111.018 Y107.255 E2.15387
G1 X109.982 Y108.292 E2.29364
G1 X109.982 Y107.365 E2.38196
G1 X111.018 Y106.328 E2.52173
G1 X111.018 Y105.402 E2.61005
G1 X109.982 Y106.439 E2.74982
G1 X109.982 Y105.512 E2.83814
G1 X111.018 Y104.475 E2.97792
G1 X111.018 Y103.982 E3.02499
G1 X110.586 Y103.982 E3.06624
G1 X109.549 Y105.018 E3.20601
G1 X108.622 Y105.018 E3.29433
G1 X109.659 Y103.982 E3.43410
G1 X108.733 Y103.982 E3.52242
G1 X107.696 Y105.018 E3.66219
G1 X106.769 Y105.018 E3.75051
G1 X107.806 Y103.982 E3.89029
G1 X106.880 Y103.982 E3.97861
G1 X105.843 Y105.018 E4.11838
G1 X104.916 Y105.018 E4.20670
G1 X105.953 Y103.982 E4.34647
G1 X105.027 Y103.982 E4.43479
G1 X103.990 Y105.018 E4.57456
G1 X103.063 Y105.018 E4.66288
G1 X104.100 Y103.982 E4.80266
G1 X103.174 Y103.982 E4.89098
G1 X102.137 Y105.018 E5.03075
G1 X101.211 Y105.018 E5.11907
G1 X102.247 Y103.982 E5.25884
G1 X101.321 Y103.982 E5.34716
G1 X100.284 Y105.018 E5.48693
G1 X99.532 Y105.018 E5.55859
G1 X99.532 Y105.770 E5.63025
G1 X98.982 Y106.321 E5.70450
G1 X98.982 Y105.394 E5.79282
G1 X100.394 Y103.982 E5.98327
G1 X99.468 Y103.982 E6.07159
G1 X98.982 Y104.468 E6.13712
G1 X100.018 Y105.284 F7800.000
G1 F1800
G1 X100.018 Y106.211 E6.22544
G1 X98.982 Y107.247 E6.36521
G1 X98.982 Y108.174 E6.45353
G1 X100.018 Y107.137 E6.59330
G1 X100.018 Y108.063 E6.68163
G1 X99.417 Y108.665 E6.76267
G1 Z0.350 F7800.000
M140 S0 ; set bed temperature
G1 Z0.400 F7800.000
G1 E4.76267 F2400.00000
G92 E0
G1 X102.265 Y100.377 F7800.000
G1 E2.00000 F2400.00000
G1 F3600
G1 X101.910 Y99.761 E2.00797
G1 X100.298 Y99.761 E2.02603
G1 X100.298 Y100.377 E2.03293
G1 X102.265 Y100.377 E2.05498
G1 X101.910 Y99.244 F7800.000
G1 F3600
G1 X102.320 Y98.533 E2.06418
G1 X100.298 Y98.533 E2.08684
G1 X100.298 Y99.244 E2.09481
G1 X101.910 Y99.244 E2.11287
G1 E0.11287 F2400.00000
G92 E0
G1 X101.900 Y93.885 F7800.000
G1 E2.00000 F2400.00000
G1 F3600
G1 X101.900 Y92.489 E2.01564
G1 X101.102 Y93.102 E2.02692
G1 X100.501 Y93.885 E2.03799
G1 X101.900 Y93.885 E2.05367
G1 E0.05367 F2400.00000
G92 E0
G1 X106.427 Y91.675 F7800.000
G1 E2.00000 F2400.00000
G1 F3600
G1 X105.750 Y91.586 E2.00765
G1 X105.750 Y97.735 E2.07658
G1 X99.500 Y97.735 E2.14665
G1 X99.500 Y101.175 E2.18521
G1 X110.500 Y101.175 E2.30852
G1 X110.500 Y96.902 E2.35643
G1 X110.325 Y95.573 E2.37145
G1 X109.774 Y94.244 E2.38758
G1 X108.898 Y93.102 E2.40372
G1 X107.923 Y92.354 E2.41749
G1 X107.756 Y92.226 E2.41985
G1 X106.427 Y91.675 E2.43598
G1 X109.077 Y94.646 F7800.000
G1 F3600
G1 X108.490 Y93.881 E2.44679
G1 X107.137 Y96.226 E2.47714
G1 X106.548 Y96.226 E2.48374
G1 X106.548 Y96.744 E2.48954
G1 X107.137 Y96.744 E2.49614
G1 X108.580 Y99.244 E2.52850
G1 X109.702 Y99.244 E2.54107
G1 X109.702 Y96.954 E2.56674
G1 X109.547 Y95.782 E2.58000
G1 X109.077 Y94.646 E2.59377
G1 X109.702 Y100.377 F7800.000
G1 F3600
G1 X109.702 Y99.761 E2.60067
G1 X108.580 Y99.761 E2.61325
G1 X108.225 Y100.377 E2.62122
G1 X109.702 Y100.377 E2.63778
G1 Z0.500 F7800.000
G1 E0.63778 F2400.00000
G92 E0
G1 X109.536 Y105.464 F7800.000
G1 E2.00000 F2400.00000
G1 F3600
G1 X100.464 Y105.464 E2.37778
G1 X100.464 Y109.930 E2.56374
G1 X98.536 Y109.917 E2.64407
G1 X98.536 Y103.536 E2.90981
G1 X111.464 Y103.536 E3.44825
G1 X111.464 Y109.917 E3.71400
G1 X109.536 Y109.930 E3.79432
G1 X109.536 Y105.539 E3.97716
G1 X108.868 Y106.132 F7800.000
G1 F3600
G1 X101.132 Y106.132 E4.29932
G1 X101.132 Y110.593 E4.48509
G1 X99.884 Y110.601 E4.53708
G1 X97.868 Y110.576 E4.62105
G1 X97.868 Y102.868 E4.94207
G1 X112.132 Y102.868 E5.53613
G1 X112.132 Y110.576 E5.85716
G1 X110.116 Y110.601 E5.94113
G1 X108.868 Y110.593 E5.99312
G1 X108.868 Y106.207 E6.17577
G1 X108.275 Y106.725 F7800.000
G1 F1800
G1 X101.725 Y106.725 E6.38728
G1 X101.725 Y110.883 E6.52154

G1 F3600
G1 X101.725 Y111.182 E6.54596
G1 X99.882 Y111.194 E6.69640
G1 X97.275 Y111.162 E6.90924
G1 X97.275 Y110.912 E6.92962

G1 F1800
G1 X97.275 Y102.275 E7.20853
G1 X112.725 Y102.275 E7.70744
G1 X112.725 Y110.912 E7.98635

G1 F3600
G1 X112.725 Y111.162 E8.00672
G1 X110.118 Y111.194 E8.21956
G1 X108.275 Y111.182 E8.37001
G1 X108.275 Y110.883 E8.39443

G1 F1800
G1 X108.275 Y106.800 E8.52626
G1 X107.797 Y106.580 F7800.000
G1 X109.691 Y105.056 F7800.000
G1 F1200
G1 X108.579 Y103.944 E8.59419
G1 X107.600 Y103.944 E8.63646
G1 X108.712 Y105.056 E8.70438
G1 X107.733 Y105.056 E8.74665
G1 X106.621 Y103.944 E8.81457
G1 X105.642 Y103.944 E8.85684
G1 X106.754 Y105.056 E8.92477
G1 X105.775 Y105.056 E8.96703
G1 X104.663 Y103.944 E9.03496
G1 X103.684 Y103.944 E9.07722
G1 X104.796 Y105.056 E9.14515
G1 X103.817 Y105.056 E9.18741
G1 X102.705 Y103.944 E9.25534
G1 X101.726 Y103.944 E9.29760
G1 X102.838 Y105.056 E9.36553
G1 X101.860 Y105.056 E9.40779
G1 X100.747 Y103.944 E9.47572
G1 X99.768 Y103.944 E9.51799
G1 X100.881 Y105.056 E9.58591
G1 X100.056 Y105.056 E9.62150
G1 X100.056 Y105.211 E9.62818
G1 X98.944 Y104.098 E9.69610
G1 X98.944 Y105.077 E9.73837
G1 X100.056 Y106.190 E9.80630
G1 X100.056 Y107.169 E9.84856
G1 X98.944 Y106.056 E9.91649
G1 X98.944 Y107.035 E9.95875
G1 X100.056 Y108.148 E10.02668
G1 X100.056 Y109.127 E10.06894
G1 X98.944 Y108.014 E10.13687
G1 X98.944 Y108.993 E10.17913
G1 X99.463 Y109.513 E10.21085
G1 E8.21085 F2400.00000
G92 E0
G1 X110.463 Y108.765 F7800.000
G1 E2.00000 F2400.00000
G1 F1200
G1 X110.463 Y109.517 E2.03246
G1 X111.056 Y109.513 E2.05807
G1 X111.056 Y109.358 E2.06475
G1 X109.944 Y108.246 E2.13268
G1 X109.944 Y107.267 E2.17494
G1 X111.056 Y108.379 E2.24287
G1 X111.056 Y107.400 E2.28513
G1 X109.944 Y106.288 E2.35306
G1 X109.944 Y105.309 E2.39533
G1 X111.056 Y106.421 E2.46325
G1 X111.056 Y105.442 E2.50552
G1 X109.558 Y103.944 E2.59701
G1 X110.537 Y103.944 E2.63927
G1 X111.056 Y104.463 E2.67099
G1 Z0.650 F7800.000
G1 X109.536 Y105.464 F7800.000
G1 F3600
G1 X100.464 Y105.464 E3.04878
G1 X100.464 Y110.397 E3.25420
G1 X98.536 Y110.376 E3.33453
G1 X98.536 Y103.536 E3.61941
G1 X111.464 Y103.536 E4.15785
G1 X111.464 Y110.376 E4.44272
G1 X109.536 Y110.397 E4.52306
G1 X109.536 Y105.539 E4.72536
G1 X108.868 Y106.132 F7800.000
G1 F3600
G1 X101.132 Y106.132 E5.04752
G1 X101.132 Y111.072 E5.25325
G1 X97.868 Y111.037 E5.38921
G1 X97.868 Y102.868 E5.72941
G1 X112.132 Y102.868 E6.32347
G1 X112.132 Y111.037 E6.66367
G1 X108.868 Y111.072 E6.79963
G1 X108.868 Y106.207 E7.00224
G1 X108.275 Y106.725 F7800.000
G1 F1800
G1 X101.725 Y106.725 E7.21375
G1 X101.725 Y111.671 E7.37348
G1 X97.275 Y111.623 E7.51719
G1 X97.275 Y102.275 E7.81905
G1 X112.725 Y102.275 E8.31796
G1 X112.725 Y111.623 E8.61983
G1 X108.275 Y111.671 E8.76353
G1 X108.275 Y106.800 E8.92084
G1 X108.153 Y106.240 F7800.000
G1 X109.944 Y109.618 F7800.000
G1 F1200
G1 X111.056 Y108.505 E8.98678
G1 X111.056 Y107.555 E9.02660
G1 X109.944 Y108.668 E9.09254
G1 X109.944 Y107.717 E9.13236
G1 X111.056 Y106.605 E9.19829
G1 X111.056 Y105.654 E9.23811
G1 X109.944 Y106.767 E9.30405
G1 X109.944 Y105.817 E9.34387
G1 X111.056 Y104.704 E9.40980
G1 X111.056 Y103.944 E9.44167
G1 X110.867 Y103.944 E9.44962
G1 X109.754 Y105.056 E9.51556
G1 X108.804 Y105.056 E9.55538
G1 X109.916 Y103.944 E9.62132
G1 X108.966 Y103.944 E9.66114
G1 X107.853 Y105.056 E9.72707
G1 X106.903 Y105.056 E9.76689
G1 X108.016 Y103.944 E9.83283
G1 X107.065 Y103.944 E9.87265
G1 X105.953 Y105.056 E9.93859
G1 X105.003 Y105.056 E9.97841
G1 X106.115 Y103.944 E10.04434
G1 X105.165 Y103.944 E10.08416
G1 X104.052 Y105.056 E10.15010
G1 X103.102 Y105.056 E10.18992
G1 X104.215 Y103.944 E10.25585
G1 X103.264 Y103.944 E10.29567
G1 X102.152 Y105.056 E10.36161
G1 X101.201 Y105.056 E10.40143
G1 X102.314 Y103.944 E10.46737
G1 X101.364 Y103.944 E10.50719
G1 X100.251 Y105.056 E10.57312
G1 X99.537 Y105.056 E10.60306
G1 X99.537 Y105.771 E10.63299
G1 X98.944 Y106.364 E10.66814
G1 X98.944 Y105.414 E10.70796
G1 X100.414 Y103.944 E10.79507
G1 X99.463 Y103.944 E10.83489
G1 X98.944 Y104.463 E10.86567
G1 X98.944 Y106.364 F7800.000
G1 F1200
G1 X98.944 Y107.314 E10.90549
G1 X100.056 Y106.201 E10.97143
G1 X100.056 Y107.152 E11.01125
G1 X98.944 Y108.264 E11.07718
G1 X98.944 Y109.215 E11.11700
G1 X100.056 Y108.102 E11.18294
G1 X100.056 Y109.052 E11.22276
G1 X99.131 Y109.977 E11.27757
G1 E9.27757 F2400.00000
G92 E0
G1 X110.537 Y109.975 F7800.000
G1 E2.00000 F2400.00000
G1 F1200
G1 X111.056 Y109.456 E2.03078
G1 Z0.775 F7800.000
G1 E0.03078 F2400.00000
G92 E0
G1 X109.772 Y100.447 F7800.000
G1 E2.00000 F2400.00000
G1 F3600
G1 X109.772 Y99.761 E2.05016
G1 X108.580 Y99.761 E2.13739
G1 X108.184 Y100.447 E2.19530
G1 X109.772 Y100.447 E2.31149
G1 X109.138 Y94.611 F7800.000
G1 F3600
G1 X108.528 Y93.816 E2.38485
G1 X107.137 Y96.226 E2.58855
G1 X106.478 Y96.226 E2.63673
G1 X106.478 Y96.744 E2.67464
G1 X107.137 Y96.744 E2.72282
G1 X108.580 Y99.244 E2.93413
G1 X109.772 Y99.244 E3.02136
G1 X109.772 Y96.949 E3.18930
G1 X109.615 Y95.763 E3.27687
G1 X109.138 Y94.611 E3.36818
G1 X106.427 Y91.675 F7800.000
G1 F3600
G1 X105.750 Y91.586 E3.41815
G1 X105.750 Y97.735 E3.86827
G1 X99.500 Y97.735 E4.32578
G1 X99.500 Y101.175 E4.57762
G1 X110.500 Y101.175 E5.38284
G1 X110.500 Y96.902 E5.69565
G1 X110.325 Y95.573 E5.79374
G1 X109.774 Y94.244 E5.89910
G1 X108.898 Y93.102 E6.00445
G1 X107.923 Y92.354 E6.09439
G1 X107.756 Y92.226 E6.10980
G1 X106.427 Y91.675 E6.21515
G1 E4.21515 F2400.00000
G92 E0
G1 X102.175 Y94.160 F7800.000
G1 E2.00000 F2400.00000
G1 F3600
G1 X102.175 Y92.278 E2.13773
G1 X101.102 Y93.102 E2.23676
G1 X100.290 Y94.160 E2.33437
G1 X102.175 Y94.160 E2.47236
G1 E0.47236 F2400.00000
G92 E0
G1 X101.910 Y99.244 F7800.000
G1 E2.00000 F2400.00000
G1 F3600
G1 X102.360 Y98.463 E2.06597
G1 X100.228 Y98.463 E2.22202
G1 X100.228 Y99.244 E2.27915
G1 X101.910 Y99.244 E2.40221
G1 X102.305 Y100.447 F7800.000
G1 F3600
G1 X101.910 Y99.761 E2.46013
G1 X100.228 Y99.761 E2.58320
G1 X100.228 Y100.447 E2.63335
G1 X102.305 Y100.447 E2.78538
M106 S255
G1 Z0.800 F7800.000
G1 E0.78538 F2400.00000
G92 E0
G1 X109.536 Y105.464 F7800.000
G1 E2.00000 F2400.00000
