; generated by Slic3r 1.3.0 on 2021-06-12 at 20:25:34

; external perimeters extrusion width = 0.55mm (2.33mm^3/s)
; perimeters extrusion width = 0.70mm (6.01mm^3/s)
; infill extrusion width = 0.62mm (7.11mm^3/s)
; solid infill extrusion width = 0.70mm (2.00mm^3/s)
; top infill extrusion width = 0.70mm (1.50mm^3/s)
; support material extrusion width = 0.55mm (4.66mm^3/s)

M107
M190 S60 ; set bed temperature and wait for it to be reached
M104 S200 ; set temperature
G28 ; home all axes
G1 Z5 F5000 ; lift nozzle

; Filament gcode

M109 S200 ; set temperature and wait for it to be reached
G21 ; set units to millimeters
G90 ; use absolute coordinates
M82 ; use absolute distances for extrusion
G92 E0
G1 Z0.350 F7800.000
G1 E-2.00000 F2400.00000
G92 E0
G1 X96.916 Y90.139 F7800.000
G1 E2.00000 F2400.00000
G1 F1800
G1 X98.139 Y88.916 E2.15725
G1 X98.967 Y88.280 E2.25221
G1 X100.475 Y87.411 E2.41046
G1 X101.429 Y87.016 E2.50441
G1 X103.099 Y86.568 E2.66161
G1 X104.135 Y86.432 E2.75661
G1 X105.864 Y86.432 E2.91383
G1 X106.900 Y86.568 E3.00882
G1 X108.570 Y87.016 E3.16604
G1 X109.535 Y87.415 E3.26103
G1 X111.033 Y88.280 E3.41826
G1 X111.861 Y88.916 E3.51324
G1 X113.084 Y90.139 E3.67048
G1 X113.720 Y90.967 E3.76544
G1 X114.024 Y91.397 E3.81335
G1 X118.560 Y98.397 E4.57180
G1 X119.455 Y100.509 E4.78034
G1 X119.625 Y102.000 E4.91680
G1 X119.625 Y110.664 E5.70460
G1 X119.228 Y112.923 E5.91315
G1 X118.085 Y114.911 E6.12169
G1 X116.332 Y116.390 E6.33023
G1 X113.083 Y117.288 E6.63675
G1 X96.917 Y117.288 E8.10668
G1 X94.664 Y116.863 E8.31522
G1 X92.690 Y115.695 E8.52376
G1 X91.233 Y113.924 E8.73230
G1 X90.375 Y110.664 E9.03882
G1 X90.375 Y102.000 E9.82662
G1 X90.772 Y99.741 E10.03516
G1 X91.440 Y98.397 E10.17163
G1 X95.976 Y91.397 E10.93008
G1 X96.280 Y90.967 E10.97794
G1 X96.870 Y90.198 E11.06611
G1 E9.06611 F2400.00000
G92 E0
G1 X96.878 Y97.686 F7800.000
G1 E2.00000 F2400.00000
G1 F1800
G1 X96.878 Y96.865 E2.07464
G1 X96.896 Y96.596 E2.09917
G1 X97.085 Y95.159 E2.23100
G1 X97.225 Y94.637 E2.28014
G1 X97.831 Y93.173 E2.42424
G1 X98.101 Y92.705 E2.47337
G1 X99.066 Y91.448 E2.61749
G1 X99.448 Y91.066 E2.66663
G1 X100.705 Y90.101 E2.81074
G1 X101.173 Y89.831 E2.85987
G1 X101.433 Y89.723 E2.88548
G1 X102.637 Y89.225 E3.00398
G1 X103.159 Y89.085 E3.05311
G1 X104.730 Y88.878 E3.19724
G1 X105.270 Y88.878 E3.24637
G1 X106.841 Y89.085 E3.39049
G1 X107.363 Y89.225 E3.43962
G1 X108.827 Y89.831 E3.58374
G1 X109.295 Y90.101 E3.63287
G1 X110.552 Y91.066 E3.77699
G1 X110.934 Y91.448 E3.82613
G1 X111.899 Y92.705 E3.97024
G1 X112.169 Y93.173 E4.01938
G1 X112.775 Y94.637 E4.16348
G1 X112.915 Y95.159 E4.21260
G1 X113.104 Y96.596 E4.34444
G1 X113.122 Y96.865 E4.36898
G1 X113.122 Y97.686 E4.44363
G1 X113.314 Y97.878 E4.46835
G1 X114.707 Y97.878 E4.59505
G1 X117.122 Y100.293 E4.90561
G1 X117.122 Y112.356 E6.00274
G1 X114.744 Y114.764 E6.31056
G1 X112.990 Y114.786 E6.47002
G1 X106.273 Y114.742 E7.08092
G1 X105.137 Y113.597 E7.22762
G1 X104.863 Y113.597 E7.25246
G1 X103.727 Y114.742 E7.39916
G1 X97.010 Y114.786 E8.01005
G1 X95.256 Y114.764 E8.16952
G1 X92.878 Y112.356 E8.47734
G1 X92.878 Y100.293 E9.57447
G1 X95.293 Y97.878 E9.88503
G1 X96.686 Y97.878 E10.01173
G1 X96.825 Y97.739 E10.02963
G1 X97.503 Y98.311 F7800.000
G1 F1800
G1 X97.503 Y96.886 E10.15925
G1 X97.518 Y96.657 E10.18006
G1 X97.699 Y95.281 E10.30630
G1 X97.818 Y94.838 E10.34799
G1 X98.393 Y93.450 E10.48464
G1 X98.622 Y93.053 E10.52632
G1 X99.537 Y91.861 E10.66299
G1 X99.861 Y91.537 E10.70468
G1 X101.053 Y90.622 E10.84134
G1 X101.450 Y90.393 E10.88302
G1 X101.672 Y90.301 E10.90490
G1 X102.838 Y89.818 E11.01968
G1 X103.281 Y89.699 E11.06136
G1 X104.771 Y89.503 E11.19803
G1 X105.229 Y89.503 E11.23971
G1 X106.719 Y89.699 E11.37638
G1 X107.162 Y89.818 E11.41806
G1 X108.550 Y90.393 E11.55473
G1 X108.947 Y90.622 E11.59641
G1 X110.139 Y91.537 E11.73307
G1 X110.463 Y91.861 E11.77476
G1 X111.378 Y93.053 E11.91142
G1 X111.607 Y93.450 E11.95311
G1 X112.182 Y94.838 E12.08976
G1 X112.301 Y95.281 E12.13144
G1 X112.482 Y96.657 E12.25768
G1 X112.497 Y96.886 E12.27851
G1 X112.497 Y98.311 E12.40813
G1 X112.689 Y98.503 E12.43285
G1 X114.448 Y98.503 E12.59285
G1 X116.497 Y100.552 E12.85632
G1 X116.497 Y112.100 E13.90657
G1 X114.479 Y114.143 E14.16771
G1 X112.992 Y114.161 E14.30303
G1 X106.535 Y114.118 E14.89022
G1 X105.137 Y112.710 E15.07070
G1 X104.863 Y112.710 E15.09554
G1 X103.465 Y114.118 E15.27603
G1 X97.008 Y114.161 E15.86321
G1 X95.521 Y114.143 E15.99853
G1 X93.503 Y112.100 E16.25968
G1 X93.503 Y100.552 E17.30992
G1 X95.552 Y98.503 E17.57339
G1 X97.311 Y98.503 E17.73339
G1 X97.450 Y98.364 E17.75129
G1 X98.128 Y98.936 F7800.000
G1 F1800
G1 X98.128 Y96.906 E17.93589
G1 X98.313 Y95.403 E18.07360
G1 X98.411 Y95.040 E18.10785
G1 X98.955 Y93.727 E18.23704
G1 X99.143 Y93.401 E18.27127
G1 X100.008 Y92.274 E18.40049
G1 X100.274 Y92.008 E18.43473
G1 X101.401 Y91.143 E18.56393
G1 X101.727 Y90.955 E18.59817
G1 X101.911 Y90.878 E18.61632
G1 X103.040 Y90.411 E18.72738
G1 X103.403 Y90.313 E18.76160
G1 X104.812 Y90.128 E18.89082
G1 X105.188 Y90.128 E18.92505
G1 X106.597 Y90.313 E19.05427
G1 X106.960 Y90.411 E19.08850
G1 X108.273 Y90.955 E19.21771
G1 X108.599 Y91.143 E19.25195
G1 X109.726 Y92.008 E19.38116
G1 X109.992 Y92.274 E19.41540
G1 X110.857 Y93.401 E19.54461
G1 X111.045 Y93.727 E19.57884
G1 X111.589 Y95.040 E19.70804
G1 X111.686 Y95.403 E19.74227
G1 X111.872 Y96.906 E19.87999
G1 X111.872 Y98.936 E20.06460
G1 X112.064 Y99.128 E20.08932
G1 X114.190 Y99.128 E20.28262
G1 X115.872 Y100.810 E20.49900
G1 X115.872 Y111.843 E21.50236
G1 X114.215 Y113.521 E21.71684
G1 X112.993 Y113.536 E21.82800
G1 X106.797 Y113.495 E22.39148
G1 X105.137 Y111.824 E22.60575
G1 X104.863 Y111.824 E22.63059
G1 X103.203 Y113.495 E22.84486
G1 X97.007 Y113.536 E23.40834
G1 X95.785 Y113.521 E23.51951
G1 X94.128 Y111.843 E23.73398
G1 X94.128 Y100.810 E24.73735
G1 X95.810 Y99.128 E24.95373
G1 X97.936 Y99.128 E25.14702
G1 X98.075 Y98.989 E25.16492
G1 X98.753 Y99.561 F7800.000
G1 F1800
G1 X98.753 Y96.926 E25.40450
G1 X98.928 Y95.525 E25.53291
G1 X99.004 Y95.241 E25.55970
G1 X99.516 Y94.004 E25.68145
G1 X99.664 Y93.749 E25.70823
G1 X100.479 Y92.687 E25.83000
G1 X100.687 Y92.479 E25.85678
G1 X101.749 Y91.664 E25.97854
G1 X102.004 Y91.516 E26.00532
G1 X102.151 Y91.456 E26.01975
G1 X103.241 Y91.004 E26.12708
G1 X103.525 Y90.928 E26.15386
G1 X104.853 Y90.753 E26.27562
G1 X105.147 Y90.753 E26.30240
G1 X105.305 Y90.774 E26.31684
G1 X106.475 Y90.928 E26.42416
G1 X106.759 Y91.004 E26.45095
G1 X107.996 Y91.516 E26.57271
G1 X108.251 Y91.664 E26.59949
G1 X109.313 Y92.479 E26.72125
G1 X109.521 Y92.687 E26.74804
G1 X109.618 Y92.813 E26.76247
G1 X110.336 Y93.749 E26.86980
G1 X110.484 Y94.004 E26.89658
G1 X110.996 Y95.241 E27.01833
G1 X111.072 Y95.525 E27.04511
G1 X111.247 Y96.926 E27.17353
G1 X111.247 Y99.561 E27.41311
G1 X111.439 Y99.753 E27.43784
G1 X113.931 Y99.753 E27.66443
G1 X115.247 Y101.069 E27.83372
G1 X115.247 Y111.586 E28.79021
G1 X113.951 Y112.899 E28.95801
G1 X112.994 Y112.911 E29.04502
G1 X107.059 Y112.872 E29.58480
G1 X105.753 Y111.557 E29.75330
G1 X105.753 Y109.439 E29.94593
G1 X105.561 Y109.247 E29.97065
G1 X104.439 Y109.247 E30.07265
G1 X104.247 Y109.439 E30.09738
G1 X104.247 Y111.557 E30.29001
G1 X102.941 Y112.872 E30.45851
G1 X97.006 Y112.911 E30.99828
G1 X96.049 Y112.899 E31.08530
G1 X94.753 Y111.586 E31.25310
G1 X94.753 Y101.069 E32.20958
G1 X96.069 Y99.753 E32.37887
G1 X98.561 Y99.753 E32.60547
G1 X98.700 Y99.614 E32.62337
G1 X99.378 Y100.186 F7800.000
G1 F1800
G1 X99.378 Y96.947 E32.91793
G1 X99.542 Y95.648 E33.03704
G1 X99.597 Y95.442 E33.05638
G1 X100.078 Y94.281 E33.17067
G1 X100.184 Y94.097 E33.19001
G1 X100.949 Y93.100 E33.30432
G1 X101.100 Y92.949 E33.32365
G1 X102.097 Y92.184 E33.43796
G1 X102.390 Y92.033 E33.46794
G1 X103.442 Y91.597 E33.57154
G1 X103.648 Y91.542 E33.59087
G1 X104.894 Y91.378 E33.70518
G1 X105.223 Y91.393 E33.73516
G1 X106.352 Y91.542 E33.83876
G1 X106.558 Y91.597 E33.85809
G1 X107.719 Y92.078 E33.97240
G1 X107.903 Y92.184 E33.99173
G1 X108.900 Y92.949 E34.10604
G1 X109.122 Y93.193 E34.13603
G1 X109.816 Y94.097 E34.23962
G1 X109.922 Y94.281 E34.25896
G1 X110.403 Y95.442 E34.37326
G1 X110.458 Y95.647 E34.39259
G1 X110.622 Y96.947 E34.51170
G1 X110.622 Y100.186 E34.80627
G1 X110.814 Y100.378 E34.83099
G1 X113.672 Y100.378 E35.09088
G1 X114.622 Y101.328 E35.21308
G1 X114.622 Y111.330 E36.12269
G1 X113.686 Y112.277 E36.24381
G1 X107.321 Y112.248 E36.82274
G1 X106.378 Y111.300 E36.94437
G1 X106.378 Y108.814 E37.17041
G1 X106.186 Y108.622 E37.19513
G1 X103.814 Y108.622 E37.41081
G1 X103.622 Y108.814 E37.43554
G1 X103.622 Y111.300 E37.66157
G1 X102.679 Y112.248 E37.78321
G1 X96.314 Y112.277 E38.36213
G1 X95.378 Y111.330 E38.48326
G1 X95.378 Y101.328 E39.39286
G1 X96.328 Y100.378 E39.51506
G1 X99.186 Y100.378 E39.77495
G1 X99.325 Y100.239 E39.79285
G1 X100.003 Y100.811 F7800.000
G1 F1800
G1 X100.003 Y96.967 E40.14240
G1 X100.156 Y95.770 E40.25220
G1 X100.190 Y95.644 E40.26409
G1 X100.640 Y94.558 E40.37094
G1 X100.705 Y94.445 E40.38282
G1 X101.420 Y93.513 E40.48968
G1 X101.574 Y93.374 E40.50851
G1 X102.445 Y92.705 E40.60838
G1 X102.558 Y92.640 E40.62026
G1 X103.644 Y92.190 E40.72711
G1 X103.846 Y92.146 E40.74594
G1 X104.935 Y92.003 E40.84581
G1 X105.065 Y92.003 E40.85770
G1 X106.230 Y92.156 E40.96455
G1 X106.427 Y92.220 E40.98338
G1 X107.442 Y92.640 E41.08325
G1 X107.555 Y92.705 E41.09514
G1 X108.487 Y93.420 E41.20199
G1 X108.626 Y93.574 E41.22082
G1 X109.295 Y94.445 E41.32069
G1 X109.360 Y94.558 E41.33258
G1 X109.810 Y95.644 E41.43943
G1 X109.844 Y95.770 E41.45131
G1 X109.997 Y96.967 E41.56112
G1 X109.997 Y100.811 E41.91066
G1 X110.189 Y101.003 E41.93538
G1 X113.413 Y101.003 E42.22857
G1 X113.997 Y101.587 E42.30369
G1 X113.997 Y111.073 E43.16641
G1 X113.422 Y111.656 E43.24086
G1 X107.582 Y111.625 E43.77193
G1 X107.003 Y111.042 E43.84670
G1 X107.003 Y108.189 E44.10614
G1 X106.811 Y107.997 E44.13086
G1 X103.189 Y107.997 E44.46023
G1 X102.997 Y108.189 E44.48495
G1 X102.997 Y111.042 E44.74440
G1 X102.418 Y111.625 E44.81916
G1 X96.578 Y111.656 E45.35023
G1 X96.003 Y111.073 E45.42468
G1 X96.003 Y101.587 E46.28741
G1 X96.587 Y101.003 E46.36252
G1 X99.811 Y101.003 E46.65571
G1 X99.950 Y100.864 E46.67361
G1 X100.628 Y101.436 F7800.000
G1 F1800
G1 X100.628 Y96.988 E47.07813
G1 X100.771 Y95.892 E47.17864
G1 X101.202 Y94.835 E47.28243
G1 X101.891 Y93.926 E47.38623
G1 X102.835 Y93.202 E47.49443
G1 X103.845 Y92.783 E47.59383
G1 X103.927 Y92.766 E47.60150
G1 X105.024 Y92.628 E47.70205
G1 X106.108 Y92.771 E47.80145
G1 X107.207 Y93.226 E47.90964
G1 X108.074 Y93.891 E48.00905
G1 X108.774 Y94.793 E48.11285
G1 X109.229 Y95.892 E48.22104
G1 X109.372 Y96.988 E48.32154
G1 X109.372 Y101.436 E48.72607
G1 X109.564 Y101.628 E48.75079
G1 X113.154 Y101.628 E49.07727
G1 X113.372 Y101.846 E49.10530
G1 X113.372 Y110.817 E49.92114
G1 X113.157 Y111.034 E49.94892
G1 X107.844 Y111.002 E50.43214
G1 X107.628 Y110.784 E50.46003
G1 X107.628 Y107.564 E50.75288
G1 X107.436 Y107.372 E50.77760
G1 X102.564 Y107.372 E51.22066
G1 X102.372 Y107.564 E51.24538
G1 X102.372 Y110.784 E51.53823
G1 X102.156 Y111.002 E51.56612
G1 X96.843 Y111.034 E52.04934
G1 X96.628 Y110.817 E52.07712
G1 X96.628 Y101.846 E52.89296
G1 X96.846 Y101.628 E52.92099
G1 X100.436 Y101.628 E53.24747
G1 X100.575 Y101.489 E53.26537
G1 E51.26537 F2400.00000
G92 E0
G1 X108.350 Y106.650 F7800.000
G1 E2.00000 F2400.00000
G1 F1800
G1 X101.650 Y106.650 E2.60923
G1 X101.650 Y110.283 E2.93959
G1 X97.350 Y110.312 E3.33060
G1 X97.350 Y102.350 E4.05454
G1 X101.350 Y102.350 E4.41825
G1 X101.350 Y97.023 E4.90264
G1 X101.477 Y96.056 E4.99132
G1 X101.842 Y95.177 E5.07789
G1 X102.421 Y94.421 E5.16446
G1 X103.177 Y93.842 E5.25103
G1 X104.056 Y93.477 E5.33755
G1 X105.011 Y93.354 E5.42512
G1 X105.944 Y93.477 E5.51070
G1 X106.823 Y93.842 E5.59727
G1 X107.579 Y94.421 E5.68384
G1 X108.158 Y95.177 E5.77041
G1 X108.523 Y96.056 E5.85698
G1 X108.650 Y97.023 E5.94565
G1 X108.650 Y102.350 E6.43004
G1 X112.650 Y102.350 E6.79376
G1 X112.650 Y110.312 E7.51770
G1 X108.350 Y110.283 E7.90870
G1 X108.350 Y106.725 E8.23225
G1 X108.208 Y106.171 F7800.000
G1 X108.975 Y106.025 F7800.000
G1 F1800
G1 X101.025 Y106.025 E8.95512
G1 X101.025 Y109.662 E9.28585
G1 X97.975 Y109.683 E9.56322
G1 X97.975 Y102.975 E10.17314
G1 X101.975 Y102.975 E10.53685
G1 X101.975 Y97.064 E11.07434
G1 X102.086 Y96.219 E11.15181
G1 X102.387 Y95.492 E11.22342
G1 X102.867 Y94.867 E11.29502
G1 X103.492 Y94.387 E11.36663
G1 X104.218 Y94.087 E11.43812
G1 X105.010 Y93.985 E11.51073
G1 X105.781 Y94.086 E11.58142
G1 X106.508 Y94.387 E11.65303
G1 X107.133 Y94.867 E11.72464
G1 X107.613 Y95.492 E11.79625
G1 X107.914 Y96.219 E11.86786
G1 X108.025 Y97.064 E11.94533
G1 X108.025 Y102.975 E12.48281
G1 X112.025 Y102.975 E12.84653
G1 X112.025 Y109.683 E13.45645
G1 X108.975 Y109.662 E13.73381
G1 X108.975 Y106.100 E14.05773
G1 X109.600 Y105.400 F7800.000
G1 F1800
G1 X100.400 Y105.400 E14.89424
G1 X100.400 Y109.042 E15.22535
G1 X98.600 Y109.053 E15.38907
G1 X98.600 Y103.600 E15.88497
G1 X102.600 Y103.600 E16.24869
G1 X102.600 Y97.494 E16.80388
G1 X102.902 Y97.434 E16.83186
G1 X103.161 Y98.061 E16.89361
G1 X103.499 Y98.501 E16.94400
G1 X103.939 Y98.839 E16.99440
G1 X104.451 Y99.051 E17.04479
G1 X105.000 Y99.123 E17.09518
G1 X105.549 Y99.051 E17.14558
G1 X106.061 Y98.839 E17.19597
G1 X106.501 Y98.501 E17.24636
G1 X106.839 Y98.061 E17.29676
G1 X107.098 Y97.434 E17.35851
G1 X107.400 Y97.494 E17.38649
G1 X107.400 Y103.600 E17.94168
G1 X111.400 Y103.600 E18.30540
G1 X111.400 Y109.053 E18.80130
G1 X109.600 Y109.042 E18.96502
G1 X109.600 Y105.475 E19.28931
G1 E17.28931 F2400.00000
G92 E0
G1 X105.431 Y97.747 F7800.000
G1 E2.00000 F2400.00000
G1 F1800
G1 X105.223 Y97.833 E2.02047
G1 X105.000 Y97.862 E2.04094
G1 X104.777 Y97.833 E2.06141
G1 X104.569 Y97.747 E2.08189
G1 X104.390 Y97.610 E2.10236
G1 X104.253 Y97.431 E2.12283
G1 X104.167 Y97.223 E2.14330
G1 X104.138 Y97.000 E2.16377
G1 X104.167 Y96.777 E2.18424
G1 X104.253 Y96.569 E2.20471
G1 X104.390 Y96.390 E2.22519
G1 X104.569 Y96.253 E2.24566
G1 X104.777 Y96.167 E2.26613
G1 X105.000 Y96.138 E2.28660
G1 X105.223 Y96.167 E2.30707
G1 X105.431 Y96.253 E2.32754
G1 X105.610 Y96.390 E2.34801
G1 X105.747 Y96.569 E2.36849
G1 X105.833 Y96.777 E2.38896
G1 X105.862 Y97.000 E2.40943
G1 X105.833 Y97.223 E2.42990
G1 X105.747 Y97.431 E2.45037
G1 X105.610 Y97.610 E2.47084
G1 X105.491 Y97.701 E2.48449
G1 X105.431 Y97.747 F7800.000
G1 X105.670 Y98.324 F7800.000
G1 F1800
G1 X105.386 Y98.442 E2.51245
G1 X105.000 Y98.493 E2.54788
G1 X104.614 Y98.442 E2.58331
G1 X104.254 Y98.293 E2.61874
G1 X103.945 Y98.055 E2.65418
G1 X103.707 Y97.746 E2.68961
G1 X103.558 Y97.386 E2.72504
G1 X103.507 Y97.000 E2.76047
G1 X103.558 Y96.614 E2.79591
G1 X103.707 Y96.254 E2.83134
G1 X103.945 Y95.945 E2.86677
G1 X104.254 Y95.707 E2.90220
G1 X104.614 Y95.558 E2.93764
G1 X105.000 Y95.507 E2.97307
G1 X105.386 Y95.558 E3.00850
G1 X105.746 Y95.707 E3.04393
G1 X106.055 Y95.945 E3.07937
G1 X106.293 Y96.254 E3.11480
G1 X106.442 Y96.614 E3.15023
G1 X106.493 Y97.000 E3.18567
G1 X106.442 Y97.386 E3.22110
G1 X106.293 Y97.746 E3.25653
G1 X106.055 Y98.055 E3.29196
G1 X105.740 Y98.295 E3.32803
G1 X106.922 Y98.526 F7800.000
G1 F1800
G1 X107.031 Y98.417 E3.32889
G1 X107.059 Y98.334 E3.32938
G1 X107.275 Y97.150 F7800.000
G1 F1800
G1 X107.185 Y96.474 E3.40987
G1 X107.156 Y96.363 E3.42352
G1 X106.951 Y95.874 E3.48606
G1 X106.593 Y95.407 E3.55546
G1 X106.174 Y95.083 E3.61801
G1 X106.073 Y95.025 E3.63166
G1 X105.583 Y94.824 E3.69420
G1 X105.009 Y94.748 E3.76255
G1 X104.474 Y94.815 E3.82613
G1 X104.363 Y94.844 E3.83977
G1 X103.874 Y95.049 E3.90232
G1 X103.407 Y95.407 E3.97171
G1 X103.049 Y95.874 E4.04111
G1 X102.844 Y96.363 E4.10366
G1 X102.815 Y96.474 E4.11731
G1 X102.725 Y97.151 E4.19780
G1 X102.941 Y98.334 F7800.000
G1 F1800
G1 X102.969 Y98.417 E4.19828
G1 X103.078 Y98.526 E4.19914
G1 X103.572 Y98.916 F7800.000
G1 F1800
G1 X102.982 Y99.506 E4.27895
G1 X102.982 Y100.435 E4.36764
G1 X104.155 Y99.261 E4.52622
G1 X104.530 Y99.416 E4.56500
G1 X104.882 Y99.463 E4.59889
G1 X102.982 Y101.363 E4.85566
