; generated by Slic3r 1.3.0 on 2021-06-13 at 06:42:34

; external perimeters extrusion width = 0.55mm (2.33mm^3/s)
; perimeters extrusion width = 0.70mm (6.01mm^3/s)
; infill extrusion width = 0.62mm (7.11mm^3/s)
; solid infill extrusion width = 0.70mm (2.00mm^3/s)
; top infill extrusion width = 0.70mm (1.50mm^3/s)
; support material extrusion width = 0.55mm (4.66mm^3/s)

M107
M190 S60 ; set bed temperature and wait for it to be reached
M104 S200 ; set temperature
G28 ; home all axes
G1 Z5 F5000 ; lift nozzle

; Filament gcode

M109 S200 ; set temperature and wait for it to be reached
G21 ; set units to millimeters
G90 ; use absolute coordinates
M82 ; use absolute distances for extrusion
G92 E0
G1 Z0.350 F7800.000
G1 E-2.00000 F2400.00000
G92 E0
G1 X93.774 Y83.920 F7800.000
G1 E2.00000 F2400.00000
G1 F1800
G1 X94.548 Y83.172 E2.09796
G1 X95.690 Y82.234 E2.23230
G1 X96.770 Y81.513 E2.35031
G1 X97.331 Y81.235 E2.40731
G1 X99.831 Y80.134 E2.65565
G1 X101.113 Y79.720 E2.77817
G1 X102.363 Y79.452 E2.89439
G1 X103.101 Y79.337 E2.96234
G1 X104.351 Y79.214 E3.07653
G1 X105.649 Y79.214 E3.19461
G1 X107.443 Y79.390 E3.35849
G1 X108.716 Y79.643 E3.47650
G1 X109.666 Y79.937 E3.56697
G1 X110.916 Y80.370 E3.68723
G1 X111.872 Y80.787 E3.78211
G1 X113.122 Y81.455 E3.91096
G1 X114.605 Y82.536 E4.07778
G1 X117.104 Y84.953 E4.39396
G1 X118.473 Y86.851 E4.60674
G1 X119.722 Y89.458 E4.86961
G1 X120.088 Y90.399 E4.96140
G1 X120.356 Y91.283 E5.04541
G1 X120.610 Y92.557 E5.16345
G1 X120.756 Y94.038 E5.29883
G1 X120.778 Y95.038 E5.38972
G1 X119.616 Y117.014 E7.39081
G1 X119.100 Y119.249 E7.59935
G1 X117.853 Y121.173 E7.80789
G1 X116.025 Y122.558 E8.01644
G1 X113.083 Y123.288 E8.29207
G1 X96.917 Y123.288 E9.76199
G1 X94.664 Y122.863 E9.97053
G1 X92.690 Y121.695 E10.17907
G1 X91.233 Y119.924 E10.38761
G1 X90.384 Y117.014 E10.66324
G1 X89.222 Y95.038 E12.66433
G1 X89.244 Y94.038 E12.75522
G1 X89.390 Y92.557 E12.89054
G1 X89.644 Y91.284 E13.00861
G1 X89.910 Y90.406 E13.09203
G1 X90.275 Y89.467 E13.18360
G1 X91.526 Y86.854 E13.44709
G1 X92.524 Y85.343 E13.61169
G1 X93.724 Y83.977 E13.77706
G1 E11.77706 F2400.00000
G92 E0
G1 X95.455 Y85.233 F7800.000
G1 E2.00000 F2400.00000
G1 F1800
G1 X95.500 Y85.176 E2.00659
G1 X97.310 Y83.703 E2.21878
G1 X97.680 Y83.468 E2.25868
G1 X99.026 Y82.748 E2.39746
G1 X99.679 Y82.765 E2.45687
G1 X99.804 Y82.714 E2.46913
G1 X100.443 Y82.076 E2.55131
G1 X101.365 Y82.076 E2.63520
G1 X101.440 Y82.058 E2.64219
G1 X102.414 Y81.568 E2.74131
G1 X104.680 Y81.345 E2.94838
G1 X105.322 Y81.345 E3.00676
G1 X107.550 Y81.574 E3.21046
G1 X107.978 Y81.669 E3.25036
G1 X109.337 Y82.082 E3.37954
G1 X109.724 Y82.080 E3.41476
G1 X112.686 Y83.664 E3.72021
G1 X113.497 Y84.436 E3.82204
G1 X114.140 Y85.508 E3.93576
G1 X114.291 Y85.593 E3.95149
G1 X114.556 Y85.593 E3.97563
G1 X116.971 Y88.008 E4.28619
G1 X116.971 Y88.840 E4.36189
G1 X117.052 Y88.988 E4.37723
G1 X117.495 Y89.269 E4.42496
G1 X118.330 Y92.021 E4.68656
G1 X118.455 Y92.650 E4.74483
G1 X118.714 Y95.272 E4.98446
G1 X118.166 Y96.929 E5.14318
G1 X116.786 Y98.452 E5.33013
G1 X115.190 Y99.160 E5.48885
G1 X112.041 Y99.160 E5.77526
G1 X111.741 Y98.859 E5.81386
G1 X111.620 Y98.810 E5.82573
G1 X110.592 Y98.810 E5.91923
G1 X109.714 Y99.160 E6.00520
G1 X101.536 Y99.160 E6.74902
G1 X100.691 Y98.810 E6.83215
G1 X100.561 Y98.810 E6.84402
G1 X99.716 Y99.160 E6.92715
G1 X94.810 Y99.160 E7.37336
G1 X93.214 Y98.452 E7.53209
G1 X91.834 Y96.929 E7.71903
G1 X91.286 Y95.272 E7.87776
G1 X91.574 Y92.450 E8.13573
G1 X91.669 Y92.022 E8.17564
G1 X91.772 Y91.682 E8.20790
G1 X91.780 Y91.364 E8.23686
G1 X92.111 Y90.564 E8.31558
G1 X92.196 Y90.285 E8.34212
G1 X92.276 Y90.165 E8.35528
G1 X92.407 Y89.849 E8.38636
G1 X92.723 Y89.533 E8.42704
G1 X92.999 Y89.146 E8.47022
G1 X93.029 Y89.049 E8.47944
G1 X93.029 Y88.008 E8.57414
G1 X94.735 Y86.303 E8.79347
G1 X94.937 Y85.896 E8.83477
G1 X95.409 Y85.292 E8.90451
G1 X95.948 Y85.617 F7800.000
G1 F1800
G1 X97.670 Y84.214 E9.10649
G1 X97.988 Y84.012 E9.14082
G1 X99.175 Y83.377 E9.26321
G1 X99.931 Y83.396 E9.33202
G1 X100.057 Y83.346 E9.34427
G1 X100.702 Y82.701 E9.42727
G1 X101.514 Y82.701 E9.50112
G1 X101.589 Y82.683 E9.50811
G1 X102.591 Y82.178 E9.61015
G1 X104.726 Y81.968 E9.80523
G1 X105.275 Y81.968 E9.85523
G1 X107.443 Y82.190 E10.05337
G1 X107.811 Y82.272 E10.08770
G1 X109.252 Y82.709 E10.22462
G1 X109.575 Y82.709 E10.25401
G1 X112.317 Y84.175 E10.53676
G1 X113.005 Y84.830 E10.62314
G1 X113.593 Y85.811 E10.72715
G1 X113.669 Y86.084 E10.75298
G1 X113.845 Y86.218 E10.77311
G1 X114.297 Y86.218 E10.81427
G1 X116.346 Y88.267 E11.07774
G1 X116.346 Y89.184 E11.16117
G1 X116.427 Y89.332 E11.17651
G1 X116.965 Y89.673 E11.23441
G1 X117.728 Y92.188 E11.47348
G1 X117.810 Y92.557 E11.50781
G1 X118.079 Y95.202 E11.74959
G1 X117.614 Y96.608 E11.88425
G1 X116.412 Y97.935 E12.04713
G1 X115.058 Y98.535 E12.18179
G1 X112.300 Y98.535 E12.43262
G1 X112.000 Y98.234 E12.47122
G1 X111.879 Y98.185 E12.48309
G1 X110.468 Y98.185 E12.61144
G1 X109.590 Y98.535 E12.69741
G1 X101.660 Y98.535 E13.41861
G1 X100.782 Y98.185 E13.50458
G1 X100.406 Y98.197 E13.53874
G1 X99.592 Y98.535 E13.61894
G1 X94.942 Y98.535 E14.04181
G1 X93.588 Y97.935 E14.17647
G1 X92.386 Y96.608 E14.33935
G1 X91.921 Y95.202 E14.47401
G1 X92.190 Y92.557 E14.71576
G1 X92.272 Y92.188 E14.75010
G1 X92.397 Y91.775 E14.78939
G1 X92.405 Y91.488 E14.81548
G1 X92.700 Y90.775 E14.88569
G1 X92.765 Y90.563 E14.90586
G1 X92.827 Y90.468 E14.91619
G1 X92.937 Y90.203 E14.94227
G1 X93.203 Y89.937 E14.97653
G1 X93.413 Y89.643 E15.00935
G1 X93.584 Y89.516 E15.02873
G1 X93.654 Y89.377 E15.04290
G1 X93.654 Y88.267 E15.14384
G1 X95.253 Y86.668 E15.34950
G1 X95.473 Y86.226 E15.39436
G1 X95.902 Y85.676 E15.45779
G1 X96.400 Y86.054 F7800.000
G1 F1800
G1 X98.030 Y84.726 E15.64901
G1 X98.296 Y84.556 E15.67776
G1 X99.325 Y84.006 E15.78378
G1 X100.184 Y84.027 E15.86196
G1 X100.309 Y83.977 E15.87422
G1 X100.961 Y83.326 E15.95804
G1 X101.662 Y83.326 E16.02184
G1 X101.737 Y83.308 E16.02883
G1 X102.768 Y82.789 E16.13378
G1 X104.772 Y82.592 E16.31689
G1 X105.229 Y82.592 E16.35851
G1 X107.336 Y82.806 E16.55109
G1 X107.644 Y82.874 E16.57984
G1 X108.988 Y83.282 E16.70750
G1 X109.135 Y83.345 E16.72210
G1 X109.426 Y83.338 E16.74853
G1 X111.947 Y84.686 E17.00857
G1 X112.512 Y85.224 E17.07952
G1 X113.013 Y86.059 E17.16809
G1 X113.193 Y86.709 E17.22944
G1 X113.369 Y86.843 E17.24957
G1 X114.038 Y86.843 E17.31043
G1 X115.721 Y88.526 E17.52681
G1 X115.721 Y89.528 E17.61799
G1 X115.802 Y89.676 E17.63333
G1 X116.434 Y90.076 E17.70138
G1 X117.125 Y92.355 E17.91793
G1 X117.194 Y92.664 E17.94668
G1 X117.444 Y95.131 E18.17224
G1 X117.062 Y96.286 E18.28283
G1 X116.037 Y97.417 E18.42165
G1 X114.926 Y97.910 E18.53224
G1 X112.559 Y97.910 E18.74750
G1 X112.259 Y97.609 E18.78609
G1 X112.138 Y97.560 E18.79797
G1 X110.344 Y97.560 E18.96117
G1 X109.466 Y97.910 E19.04713
G1 X101.784 Y97.910 E19.74573
G1 X100.970 Y97.572 E19.82592
G1 X100.345 Y97.560 E19.88269
G1 X99.467 Y97.910 E19.96866
G1 X95.074 Y97.910 E20.36819
G1 X93.963 Y97.417 E20.47878
G1 X92.938 Y96.286 E20.61759
G1 X92.556 Y95.131 E20.72818
G1 X92.785 Y92.803 E20.94091
G1 X92.840 Y92.492 E20.96968
G1 X93.022 Y91.868 E21.02881
G1 X93.030 Y91.613 E21.05202
G1 X93.334 Y90.841 E21.12749
G1 X93.467 Y90.557 E21.15597
G1 X93.683 Y90.340 E21.18383
G1 X93.866 Y90.085 E21.21239
G1 X94.229 Y89.794 E21.25470
G1 X94.279 Y89.674 E21.26657
G1 X94.279 Y88.526 E21.37098
G1 X95.772 Y87.033 E21.56295
G1 X96.008 Y86.556 E21.61137
G1 X96.354 Y86.113 E21.66248
G1 E19.66248 F2400.00000
G92 E0
G1 X112.596 Y87.276 F7800.000
G1 E2.00000 F2400.00000
G1 F1800
G1 X112.788 Y87.468 E2.02472
G1 X113.779 Y87.468 E2.11486
G1 X115.096 Y88.785 E2.28415
G1 X115.096 Y89.872 E2.38307
G1 X115.177 Y90.020 E2.39841
G1 X115.904 Y90.480 E2.47662
G1 X116.523 Y92.522 E2.67064
G1 X116.578 Y92.771 E2.69381
G1 X116.809 Y95.061 E2.90316
G1 X116.510 Y95.964 E2.98968
G1 X115.663 Y96.899 E3.10443
G1 X114.793 Y97.285 E3.19096
G1 X112.818 Y97.285 E3.37063
G1 X112.518 Y96.984 E3.40923
G1 X112.397 Y96.935 E3.42110
G1 X111.351 Y96.935 E3.51628
G1 X110.219 Y96.935 E3.61915
G1 X109.341 Y97.285 E3.70512
G1 X101.908 Y97.285 E4.38110
G1 X101.094 Y96.947 E4.46130
G1 X100.221 Y96.935 E4.54067
G1 X99.343 Y97.285 E4.62664
G1 X95.207 Y97.285 E5.00283
G1 X94.337 Y96.899 E5.08936
G1 X93.490 Y95.964 E5.20411
G1 X93.191 Y95.061 E5.29063
G1 X93.422 Y92.771 E5.49995
G1 X93.477 Y92.522 E5.52313
G1 X93.647 Y91.960 E5.57649
G1 X93.655 Y91.737 E5.59683
G1 X93.997 Y90.911 E5.67813
G1 X94.181 Y90.723 E5.70213
G1 X94.319 Y90.527 E5.72389
G1 X94.565 Y90.343 E5.75183
G1 X94.854 Y90.053 E5.78905
G1 X94.904 Y89.933 E5.80092
G1 X94.904 Y88.785 E5.90533
G1 X96.290 Y87.398 E6.08362
G1 X96.544 Y86.886 E6.13560
G1 X96.850 Y86.493 E6.18092
G1 X98.390 Y85.237 E6.36165
G1 X98.605 Y85.100 E6.38482
G1 X99.474 Y84.635 E6.47446
G1 X100.436 Y84.659 E6.56203
G1 X100.562 Y84.609 E6.57429
G1 X101.220 Y83.951 E6.65893
G1 X101.963 Y83.951 E6.72655
G1 X102.090 Y83.894 E6.73918
G1 X102.198 Y83.776 E6.75373
G1 X102.945 Y83.399 E6.82983
G1 X104.817 Y83.215 E7.00095
G1 X105.073 Y83.210 E7.02417
G1 X107.229 Y83.422 E7.22122
G1 X107.478 Y83.477 E7.24440
G1 X108.710 Y83.851 E7.36151
G1 X108.843 Y83.945 E7.37631
G1 X108.944 Y83.975 E7.38591
G1 X109.276 Y83.967 E7.41613
G1 X111.578 Y85.197 E7.65347
G1 X112.020 Y85.618 E7.70898
G1 X112.433 Y86.308 E7.78211
G1 X112.596 Y86.896 E7.83762
G1 X112.596 Y87.201 E7.86538
G1 X111.971 Y87.901 F7800.000
G1 F1800
G1 X112.163 Y88.093 E7.89010
G1 X113.521 Y88.093 E8.01353
G1 X114.471 Y89.044 E8.13574
G1 X114.471 Y90.216 E8.24240
G1 X114.552 Y90.364 E8.25774
G1 X115.373 Y90.884 E8.34610
G1 X115.920 Y92.689 E8.51760
G1 X115.962 Y92.877 E8.53520
G1 X116.174 Y94.990 E8.72832
G1 X115.959 Y95.642 E8.79078
G1 X115.289 Y96.381 E8.88146
G1 X114.661 Y96.660 E8.94392
G1 X113.077 Y96.660 E9.08802
G1 X112.776 Y96.359 E9.12662
G1 X112.656 Y96.310 E9.13849
G1 X111.477 Y96.310 E9.24573
G1 X111.385 Y96.218 E9.25755
G1 X111.113 Y96.218 E9.28228
G1 X111.021 Y96.310 E9.29410
G1 X109.987 Y96.310 E9.38815
G1 X109.866 Y96.359 E9.40003
G1 X109.813 Y96.413 E9.40686
G1 X109.217 Y96.660 E9.46555
G1 X107.032 Y96.660 E9.66427
G1 X106.940 Y96.621 E9.67332
G1 X106.809 Y96.621 E9.68519
G1 X106.717 Y96.660 E9.69425
G1 X104.532 Y96.660 E9.89297
G1 X104.440 Y96.621 E9.90203
G1 X104.310 Y96.621 E9.91390
G1 X104.218 Y96.660 E9.92295
G1 X102.033 Y96.660 E10.12167
G1 X101.437 Y96.413 E10.18036
G1 X101.314 Y96.290 E10.19612
G1 X101.042 Y96.290 E10.22084
G1 X101.023 Y96.310 E10.22335
G1 X99.989 Y96.310 E10.31740
G1 X99.868 Y96.359 E10.32927
G1 X99.815 Y96.413 E10.33611
G1 X99.219 Y96.660 E10.39479
G1 X97.034 Y96.660 E10.59351
G1 X96.942 Y96.621 E10.60257
G1 X96.811 Y96.621 E10.61444
G1 X96.719 Y96.660 E10.62349
G1 X95.339 Y96.660 E10.74902
G1 X94.711 Y96.381 E10.81148
G1 X94.041 Y95.642 E10.90216
G1 X93.826 Y94.990 E10.96462
G1 X94.026 Y92.956 E11.15049
G1 X94.060 Y92.766 E11.16810
G1 X94.272 Y92.053 E11.23572
G1 X94.280 Y91.861 E11.25319
G1 X94.526 Y91.265 E11.31187
G1 X94.661 Y91.127 E11.32946
G1 X94.772 Y90.969 E11.34697
G1 X94.974 Y90.817 E11.36996
G1 X95.188 Y90.604 E11.39742
G1 X95.419 Y90.508 E11.42015
G1 X95.529 Y90.343 E11.43825
G1 X95.529 Y89.044 E11.55639
G1 X96.479 Y88.093 E11.67860
G1 X96.618 Y88.093 E11.69123
G1 X96.798 Y87.950 E11.71217
G1 X96.858 Y87.683 E11.73699
G1 X97.079 Y87.216 E11.78401
G1 X97.300 Y86.932 E11.81673
G1 X98.750 Y85.748 E11.98696
G1 X99.623 Y85.264 E12.07778
G1 X100.478 Y85.285 E12.15554
G1 X100.537 Y85.320 E12.16183
G1 X100.761 Y85.293 E12.18236
G1 X101.479 Y84.576 E12.27461
G1 X102.240 Y84.576 E12.34388
G1 X102.367 Y84.519 E12.35651
G1 X102.583 Y84.282 E12.38567
G1 X103.122 Y84.010 E12.44060
G1 X104.863 Y83.839 E12.59975
G1 X105.057 Y83.835 E12.61738
G1 X105.629 Y83.887 E12.66956
G1 X105.729 Y83.938 E12.67978
G1 X105.859 Y83.947 E12.69166
G1 X105.947 Y83.918 E12.70005
G1 X107.043 Y84.026 E12.80026
G1 X107.234 Y84.060 E12.81785
G1 X108.432 Y84.420 E12.93165
G1 X108.652 Y84.574 E12.95608
G1 X108.753 Y84.605 E12.96569
G1 X109.127 Y84.596 E12.99970
G1 X111.208 Y85.708 E13.21434
G1 X111.528 Y86.012 E13.25441
G1 X111.854 Y86.556 E13.31210
G1 X111.971 Y86.981 E13.35217
G1 X111.971 Y87.826 E13.42905
G1 X111.346 Y88.526 F7800.000
G1 F1800
G1 X111.538 Y88.718 E13.45377
G1 X113.262 Y88.718 E13.61050
G1 X113.846 Y89.302 E13.68561
G1 X113.846 Y90.716 E13.81417
G1 X114.073 Y90.912 E13.84150
G1 X114.216 Y90.891 E13.85463
G1 X114.842 Y91.288 E13.92204
G1 X115.346 Y92.984 E14.08300
G1 X115.539 Y94.920 E14.25990
G1 X115.407 Y95.321 E14.29830
G1 X114.915 Y95.864 E14.36491
G1 X114.529 Y96.035 E14.40330
G1 X113.335 Y96.035 E14.51182
G1 X113.035 Y95.734 E14.55042
G1 X112.915 Y95.685 E14.56229
G1 X111.736 Y95.685 E14.66953
G1 X111.385 Y95.334 E14.71466
G1 X111.113 Y95.334 E14.73938
G1 X110.762 Y95.685 E14.78450
G1 X109.728 Y95.685 E14.87855
G1 X109.607 Y95.734 E14.89042
G1 X109.459 Y95.883 E14.90950
G1 X109.093 Y96.035 E14.94557
G1 X107.156 Y96.035 E15.12168
G1 X106.940 Y95.945 E15.14297
G1 X106.809 Y95.945 E15.15484
G1 X106.593 Y96.035 E15.17614
G1 X104.657 Y96.035 E15.35224
G1 X104.440 Y95.945 E15.37354
G1 X104.310 Y95.945 E15.38541
G1 X104.094 Y96.035 E15.40670
G1 X102.157 Y96.035 E15.58281
G1 X101.791 Y95.883 E15.61888
G1 X101.314 Y95.406 E15.68018
G1 X101.042 Y95.406 E15.70490
G1 X100.764 Y95.685 E15.74070
G1 X99.730 Y95.685 E15.83475
G1 X99.609 Y95.734 E15.84662
G1 X99.461 Y95.883 E15.86570
G1 X99.094 Y96.035 E15.90177
G1 X97.158 Y96.035 E16.07788
G1 X96.942 Y95.945 E16.09917
G1 X96.811 Y95.945 E16.11104
G1 X96.595 Y96.035 E16.13234
G1 X95.471 Y96.035 E16.23453
G1 X95.085 Y95.864 E16.27292
G1 X94.593 Y95.321 E16.33953
G1 X94.461 Y94.920 E16.37792
G1 X94.654 Y92.985 E16.55481
G1 X94.897 Y92.146 E16.63423
G1 X94.905 Y91.986 E16.64883
G1 X95.056 Y91.619 E16.68490
G1 X95.225 Y91.411 E16.70926
G1 X95.384 Y91.292 E16.72730
G1 X95.542 Y91.134 E16.74765
G1 X96.044 Y90.926 E16.79705
G1 X96.154 Y90.760 E16.81516
G1 X96.154 Y89.302 E16.94773
G1 X96.738 Y88.718 E17.02284
G1 X97.212 Y88.718 E17.06591
G1 X97.404 Y88.526 E17.09063
G1 X97.404 Y88.104 E17.12907
G1 X97.453 Y87.888 E17.14918
G1 X97.614 Y87.546 E17.18359
G1 X97.750 Y87.371 E17.20370
G1 X99.110 Y86.259 E17.36344
G1 X99.773 Y85.893 E17.43233
G1 X100.298 Y85.906 E17.48012
G1 X100.821 Y86.219 E17.53554
G1 X101.153 Y86.030 E17.57033
G1 X101.153 Y85.785 E17.59269
G1 X101.737 Y85.201 E17.66780
G1 X102.517 Y85.201 E17.73872
G1 X102.644 Y85.144 E17.75136
G1 X102.967 Y84.788 E17.79513
G1 X103.299 Y84.621 E17.82890
G1 X105.042 Y84.460 E17.98807
G1 X105.451 Y84.498 E18.02548
G1 X105.679 Y84.612 E18.04867
G1 X105.809 Y84.622 E18.06055
G1 X106.017 Y84.553 E18.08046
G1 X107.097 Y84.670 E18.17923
G1 X108.155 Y84.989 E18.27969
G1 X108.461 Y85.204 E18.31375
G1 X108.562 Y85.235 E18.32336
G1 X108.978 Y85.225 E18.36117
G1 X110.839 Y86.220 E18.55311
G1 X111.035 Y86.406 E18.57773
G1 X111.274 Y86.805 E18.61998
G1 X111.346 Y87.066 E18.64461
G1 X111.346 Y88.451 E18.77061
G1 E16.77061 F2400.00000
G92 E0
G1 X113.221 Y91.441 F7800.000
G1 E2.00000 F2400.00000
G1 F1800
G1 X113.448 Y91.637 E2.02734
G1 X114.078 Y91.544 E2.08523
G1 X114.312 Y91.691 E2.11038
G1 X114.715 Y93.022 E2.23683
G1 X114.904 Y94.850 E2.40392
G1 X114.855 Y94.999 E2.41825
G1 X114.540 Y95.346 E2.46080
G1 X114.396 Y95.410 E2.47512
G1 X113.594 Y95.410 E2.54807
G1 X113.294 Y95.109 E2.58666
G1 X113.174 Y95.060 E2.59854
G1 X111.995 Y95.060 E2.70577
G1 X111.777 Y94.842 E2.73380
G1 X111.777 Y89.561 E3.21402
G1 X111.995 Y89.343 E3.24204
G1 X113.003 Y89.343 E3.33374
G1 X113.221 Y89.561 E3.36177
G1 X113.221 Y91.366 E3.52585
G1 E1.52585 F2400.00000
G92 E0
G1 X100.360 Y91.396 F7800.000
G1 E2.00000 F2400.00000
G1 F1800
G1 X100.360 Y91.667 E2.02472
G1 X100.666 Y91.973 E2.06405
G1 X100.723 Y92.110 E2.07751
G1 X100.723 Y94.842 E2.32595
G1 X100.505 Y95.060 E2.35398
G1 X99.471 Y95.060 E2.44803
G1 X99.350 Y95.109 E2.45990
G1 X99.107 Y95.353 E2.49122
G1 X98.970 Y95.410 E2.50468
G1 X97.282 Y95.410 E2.65817
G1 X97.146 Y95.353 E2.67163
G1 X97.012 Y95.220 E2.68877
G1 X96.741 Y95.220 E2.71349
G1 X96.607 Y95.353 E2.73063
